(.../pcb-gcode-3.6.2.4/pcb-gcode.ulp)
(Copyright 2005 - 2012 by John Johnson)
(See readme.txt for licensing terms.)
(This file generated from the board:)
(.../RPM controller/RPM controlletr v0.42.brd)
(Current profile is .../pcb-gcode-3.6.2.4/profiles/emc.pp  )
(This file generated 17-02-2015 16:03:46)
(Settings from pcb-machine.h)
(spindle on time = 1.0000)
(  Tool Size)
(0.5000 )
(spindle speed = 30000.0000)
(tool change at 0.0000 0.0000 25.4000 )
(feed rate xy = F800.00 )
(feed rate z  = F254.00 )
(Z Axis Settings)
(  High     Up        Down     Drill)
(50.0000 	1.5000 	-0.1778 	-0.8128 )
(Settings from pcb-defaults.h)
(isolate min = 0.0000)
(isolate max = 0.3500)
(isolate step = 0.3500)
(Generated bottom outlines, bottom drill, )
(Unit of measure: mm)
(Metric Mode)
G21
(Absolute Coordinates)
G90
S30000
G00 Z50.0000 
G00 X0.0000 Y0.0000 
M03
G04 P1.000000
G00 Z1.5000 
G00 X0.0031 Y0.1113 
G01 Z-0.1778 F254.00 
G01 X0.0930 Y0.2459 F800.00 
G01 X0.1549 Y0.3954 
G01 X0.1865 Y0.5541 
G01 X0.1865 Y30.4116 
G01 X0.2204 Y30.5159 
G01 X0.2500 Y30.7029 
G01 X0.2500 Y30.8921 
G01 X0.2204 Y31.0791 
G01 X0.1865 Y31.1834 
G01 X0.1865 Y37.5459 
G01 X0.1549 Y37.7046 
G01 X0.0930 Y37.8541 
G01 X0.0031 Y37.9887 
G01 X-0.1113 Y38.1031 
G01 X-1.0638 Y39.0556 
G01 X-1.1984 Y39.1455 
G01 X-1.3479 Y39.2074 
G01 X-1.5066 Y39.2390 
G01 X-2.7734 Y39.2390 
G01 X-2.8861 Y39.3143 
G01 X-3.0703 Y39.3906 
G01 X-3.2658 Y39.4295 
G01 X-4.9892 Y39.4295 
G01 X-5.1847 Y39.3906 
G01 X-5.3689 Y39.3143 
G01 X-6.4645 Y39.3025 
G01 X-6.4142 Y39.4238 
G01 X-6.3795 Y39.5985 
G01 X-6.3795 Y39.7765 
G01 X-6.4142 Y39.9512 
G01 X-6.4824 Y40.1157 
G01 X-6.5813 Y40.2638 
G01 X-6.7072 Y40.3897 
G01 X-6.8553 Y40.4886 
G01 X-7.0198 Y40.5568 
G01 X-7.1945 Y40.5915 
G01 X-7.2811 Y40.5915 
G01 X-7.2811 Y42.2921 
G01 X-7.3063 Y42.4190 
G01 X-7.3558 Y42.5384 
G01 X-7.3900 Y42.5896 
G01 X-7.3900 Y42.6312 
G01 X-7.4236 Y42.8002 
G01 X-7.4896 Y42.9595 
G01 X-7.5853 Y43.1028 
G01 X-7.7072 Y43.2247 
G01 X-7.8505 Y43.3204 
G01 X-8.0098 Y43.3864 
G01 X-8.1788 Y43.4200 
G01 X-9.6012 Y43.4200 
G01 X-9.7702 Y43.3864 
G01 X-9.9295 Y43.3204 
G01 X-10.0728 Y43.2247 
G01 X-10.1947 Y43.1028 
G01 X-10.2904 Y42.9595 
G01 X-10.3564 Y42.8002 
G01 X-10.3900 Y42.6312 
G01 X-10.3900 Y42.4588 
G01 X-10.3564 Y42.2898 
G01 X-10.2904 Y42.1305 
G01 X-10.1947 Y41.9872 
G01 X-10.0728 Y41.8653 
G01 X-9.9295 Y41.7696 
G01 X-9.7702 Y41.7036 
G01 X-9.6012 Y41.6700 
G01 X-8.5939 Y41.6700 
G01 X-8.5939 Y40.5915 
G01 X-8.6805 Y40.5915 
G01 X-8.8552 Y40.5568 
G01 X-9.0197 Y40.4886 
G01 X-9.1678 Y40.3897 
G01 X-9.2937 Y40.2638 
G01 X-9.3926 Y40.1157 
G01 X-9.4608 Y39.9512 
G01 X-9.4955 Y39.7765 
G01 X-9.4955 Y39.5985 
G01 X-9.4608 Y39.4238 
G01 X-9.3926 Y39.2593 
G01 X-9.2937 Y39.1112 
G01 X-9.1678 Y38.9853 
G01 X-9.0305 Y38.8936 
G01 X-10.3380 Y37.5861 
G01 X-10.4148 Y37.5739 
G01 X-10.5777 Y37.5210 
G01 X-10.7303 Y37.4432 
G01 X-10.8689 Y37.3425 
G01 X-10.9900 Y37.2214 
G01 X-11.0907 Y37.0828 
G01 X-11.1685 Y36.9302 
G01 X-11.2214 Y36.7673 
G01 X-11.2482 Y36.5981 
G01 X-11.2482 Y36.4269 
G01 X-11.2214 Y36.2577 
G01 X-11.1685 Y36.0948 
G01 X-11.0907 Y35.9422 
G01 X-10.9900 Y35.8036 
G01 X-10.8689 Y35.6825 
G01 X-10.7303 Y35.5818 
G01 X-10.5777 Y35.5040 
G01 X-10.4148 Y35.4511 
G01 X-10.2456 Y35.4243 
G01 X-10.0744 Y35.4243 
G01 X-9.9052 Y35.4511 
G01 X-9.7423 Y35.5040 
G01 X-9.5897 Y35.5818 
G01 X-9.4511 Y35.6825 
G01 X-9.3300 Y35.8036 
G01 X-9.2293 Y35.9422 
G01 X-9.1515 Y36.0948 
G01 X-9.0986 Y36.2577 
G01 X-9.0864 Y36.3345 
G01 X-7.8884 Y37.5325 
G01 X-5.3866 Y37.5325 
G01 X-5.1847 Y37.4444 
G01 X-4.9892 Y37.4055 
G01 X-3.2658 Y37.4055 
G01 X-3.0703 Y37.4444 
G01 X-2.8861 Y37.5207 
G01 X-2.7734 Y37.5960 
G01 X-1.9278 Y37.5960 
G01 X-1.4565 Y37.1247 
G01 X-1.4565 Y31.8903 
G01 X-1.5827 Y31.8260 
G01 X-1.7359 Y31.7147 
G01 X-1.8697 Y31.5809 
G01 X-1.9810 Y31.4277 
G01 X-2.0669 Y31.2591 
G01 X-2.1254 Y31.0791 
G01 X-2.1550 Y30.8921 
G01 X-2.1550 Y30.7029 
G01 X-2.1254 Y30.5159 
G01 X-2.0669 Y30.3359 
G01 X-1.9810 Y30.1672 
G01 X-1.8697 Y30.0141 
G01 X-1.7359 Y29.8803 
G01 X-1.5827 Y29.7690 
G01 X-1.4565 Y29.7047 
G01 X-1.4565 Y28.3643 
G01 X-2.2509 Y27.5699 
G01 X-2.2965 Y27.5243 
G01 X-2.9125 Y26.9083 
G01 X-3.0669 Y26.9390 
G01 X-4.5531 Y26.9390 
G01 X-4.7278 Y26.9043 
G01 X-4.8923 Y26.8362 
G01 X-5.0403 Y26.7372 
G01 X-5.1663 Y26.6113 
G01 X-5.2652 Y26.4632 
G01 X-5.3334 Y26.2987 
G01 X-5.3681 Y26.1240 
G01 X-5.3681 Y25.9460 
G01 X-5.3334 Y25.7713 
G01 X-5.2652 Y25.6068 
G01 X-5.1663 Y25.4587 
G01 X-5.0403 Y25.3328 
G01 X-4.8923 Y25.2338 
G01 X-4.7278 Y25.1657 
G01 X-4.5531 Y25.1309 
G01 X-4.4664 Y25.1309 
G01 X-4.4664 Y24.3990 
G01 X-4.5531 Y24.3990 
G01 X-4.7278 Y24.3643 
G01 X-4.8923 Y24.2962 
G01 X-5.0403 Y24.1972 
G01 X-5.1663 Y24.0713 
G01 X-5.2652 Y23.9232 
G01 X-5.3334 Y23.7587 
G01 X-5.3681 Y23.5840 
G01 X-5.3681 Y23.4060 
G01 X-5.3334 Y23.2313 
G01 X-5.2652 Y23.0668 
G01 X-5.1663 Y22.9187 
G01 X-5.0403 Y22.7928 
G01 X-4.8923 Y22.6938 
G01 X-4.7278 Y22.6257 
G01 X-4.5531 Y22.5909 
G01 X-3.0669 Y22.5909 
G01 X-2.9125 Y22.6217 
G01 X-1.6089 Y21.3181 
G01 X-1.6089 Y18.0519 
G01 X-2.9125 Y16.7483 
G01 X-3.0669 Y16.7790 
G01 X-4.5531 Y16.7790 
G01 X-4.7278 Y16.7443 
G01 X-4.8923 Y16.6762 
G01 X-5.0403 Y16.5772 
G01 X-5.1663 Y16.4513 
G01 X-5.2652 Y16.3032 
G01 X-5.3334 Y16.1387 
G01 X-5.3681 Y15.9640 
G01 X-5.3681 Y15.7860 
G01 X-5.3334 Y15.6113 
G01 X-5.2652 Y15.4468 
G01 X-5.1663 Y15.2987 
G01 X-5.0403 Y15.1728 
G01 X-4.8923 Y15.0738 
G01 X-4.7278 Y15.0057 
G01 X-4.5531 Y14.9710 
G01 X-4.4664 Y14.9710 
G01 X-4.4664 Y14.2390 
G01 X-4.5531 Y14.2390 
G01 X-4.7278 Y14.2043 
G01 X-4.8923 Y14.1362 
G01 X-5.0403 Y14.0372 
G01 X-5.1663 Y13.9113 
G01 X-5.2652 Y13.7632 
G01 X-5.3334 Y13.5987 
G01 X-5.3681 Y13.4240 
G01 X-5.3681 Y13.2460 
G01 X-5.3334 Y13.0713 
G01 X-5.2652 Y12.9068 
G01 X-5.1663 Y12.7587 
G01 X-5.0403 Y12.6328 
G01 X-4.8923 Y12.5338 
G01 X-4.7278 Y12.4657 
G01 X-4.5531 Y12.4309 
G01 X-3.0669 Y12.4309 
G01 X-2.9125 Y12.4617 
G01 X-1.4565 Y11.0057 
G01 X-1.4565 Y10.7581 
G01 X-10.6039 Y1.6107 
G01 X-10.6770 Y1.4841 
G01 X-10.6844 Y1.4565 
G01 X-11.8150 Y1.4565 
G01 X-11.8150 Y2.8908 
G01 X-11.7346 Y3.0806 
G01 X-11.6960 Y3.2746 
G01 X-11.6960 Y4.9804 
G01 X-11.7346 Y5.1744 
G01 X-11.8103 Y5.3571 
G01 X-11.9201 Y5.5215 
G01 X-12.0600 Y5.6614 
G01 X-12.2244 Y5.7712 
G01 X-12.4071 Y5.8469 
G01 X-12.6011 Y5.8855 
G01 X-12.7989 Y5.8855 
G01 X-12.9929 Y5.8469 
G01 X-13.1756 Y5.7712 
G01 X-13.3400 Y5.6614 
G01 X-13.4799 Y5.5215 
G01 X-13.5897 Y5.3571 
G01 X-13.6654 Y5.1744 
G01 X-13.7040 Y4.9804 
G01 X-13.7040 Y3.2746 
G01 X-13.6654 Y3.0806 
G01 X-13.5897 Y2.8979 
G01 X-13.5850 Y1.4565 
G01 X-21.9750 Y1.4565 
G01 X-21.9750 Y2.8908 
G01 X-21.8946 Y3.0806 
G01 X-21.8560 Y3.2746 
G01 X-21.8560 Y4.9804 
G01 X-21.8946 Y5.1744 
G01 X-21.9703 Y5.3571 
G01 X-22.0801 Y5.5215 
G01 X-22.2200 Y5.6614 
G01 X-22.3844 Y5.7712 
G01 X-22.5671 Y5.8469 
G01 X-22.7611 Y5.8855 
G01 X-22.9589 Y5.8855 
G01 X-23.1529 Y5.8469 
G01 X-23.3356 Y5.7712 
G01 X-23.5000 Y5.6614 
G01 X-23.6399 Y5.5215 
G01 X-23.7497 Y5.3571 
G01 X-23.8254 Y5.1744 
G01 X-23.8640 Y4.9804 
G01 X-23.8640 Y3.2746 
G01 X-23.8254 Y3.0806 
G01 X-23.7497 Y2.8979 
G01 X-23.7450 Y1.4565 
G01 X-41.7389 Y1.4565 
G01 X-41.7488 Y1.4936 
G01 X-41.7747 Y1.5384 
G01 X-41.8180 Y1.6134 
G01 X-41.9157 Y1.7111 
G01 X-42.3058 Y2.1011 
G01 X-42.3323 Y2.1471 
G01 X-42.4014 Y2.2668 
G01 X-42.4991 Y2.3646 
G01 X-42.5643 Y2.4022 
G01 X-42.6188 Y2.4337 
G01 X-42.6466 Y2.4411 
G01 X-42.6760 Y2.4490 
G01 X-42.6760 Y4.5360 
G01 X-42.6435 Y4.5447 
G01 X-42.5623 Y4.5840 
G01 X-42.4991 Y4.6204 
G01 X-42.4014 Y4.7182 
G01 X-42.3323 Y4.8379 
G01 X-42.3058 Y4.8838 
G01 X-41.9051 Y5.2845 
G01 X-41.8074 Y5.3822 
G01 X-41.7383 Y5.5019 
G01 X-41.7025 Y5.6354 
G01 X-41.7025 Y7.2929 
G01 X-41.6980 Y7.3273 
G01 X-41.7025 Y7.3617 
G01 X-41.7025 Y7.3964 
G01 X-41.7115 Y7.4299 
G01 X-41.7160 Y7.4643 
G01 X-41.7293 Y7.4964 
G01 X-41.7383 Y7.5299 
G01 X-41.7556 Y7.5600 
G01 X-41.7689 Y7.5921 
G01 X-41.7900 Y7.6196 
G01 X-41.8074 Y7.6496 
G01 X-41.8531 Y7.7017 
G01 X-41.8806 Y7.7228 
G01 X-41.9352 Y7.7647 
G01 X-41.9627 Y7.7859 
G01 X-41.9948 Y7.7992 
G01 X-42.0249 Y7.8165 
G01 X-42.0584 Y7.8255 
G01 X-42.2675 Y7.9121 
G01 X-42.4014 Y8.0460 
G01 X-42.4991 Y8.1437 
G01 X-42.5513 Y8.1738 
G01 X-42.6189 Y8.2128 
G01 X-42.6760 Y8.2282 
G01 X-42.6760 Y22.4357 
G01 X-42.6451 Y22.4791 
G01 X-42.5314 Y22.5017 
G01 X-42.4349 Y22.5417 
G01 X-42.3805 Y22.5734 
G01 X-42.3133 Y22.6183 
G01 X-42.2254 Y22.7062 
G01 X-42.1599 Y22.7717 
G01 X-42.0406 Y22.8632 
G01 X-41.9104 Y22.9384 
G01 X-41.7715 Y22.9960 
G01 X-41.6262 Y23.0349 
G01 X-41.4772 Y23.0545 
G01 X-41.2964 Y23.0545 
G01 X-41.2964 Y22.9195 
G01 X-41.5017 Y22.9195 
G01 X-41.6972 Y22.8806 
G01 X-41.8814 Y22.8043 
G01 X-42.0471 Y22.6936 
G01 X-42.1881 Y22.5526 
G01 X-42.2988 Y22.3869 
G01 X-42.3751 Y22.2027 
G01 X-42.4140 Y22.0072 
G01 X-42.4140 Y21.8078 
G01 X-42.3751 Y21.6123 
G01 X-42.2988 Y21.4281 
G01 X-42.1881 Y21.2624 
G01 X-42.0471 Y21.1214 
G01 X-41.8814 Y21.0107 
G01 X-41.6972 Y20.9344 
G01 X-41.5017 Y20.8955 
G01 X-39.7783 Y20.8955 
G01 X-39.5828 Y20.9344 
G01 X-39.3986 Y21.0107 
G01 X-39.2329 Y21.1214 
G01 X-39.0919 Y21.2624 
G01 X-38.9812 Y21.4281 
G01 X-38.9049 Y21.6123 
G01 X-38.8660 Y21.8078 
G01 X-38.8660 Y22.0072 
G01 X-38.9049 Y22.2027 
G01 X-38.9812 Y22.3869 
G01 X-39.0919 Y22.5526 
G01 X-39.2329 Y22.6936 
G01 X-39.3986 Y22.8043 
G01 X-39.5828 Y22.8806 
G01 X-39.7783 Y22.9195 
G01 X-39.9836 Y22.9195 
G01 X-39.9836 Y23.0545 
G01 X-39.8028 Y23.0545 
G01 X-39.6538 Y23.0349 
G01 X-39.5085 Y22.9960 
G01 X-39.3696 Y22.9384 
G01 X-39.2394 Y22.8632 
G01 X-39.1201 Y22.7717 
G01 X-39.0138 Y22.6654 
G01 X-38.9223 Y22.5461 
G01 X-38.8471 Y22.4159 
G01 X-38.7757 Y22.2436 
G01 X-38.7067 Y22.1403 
G01 X-38.6188 Y22.0524 
G01 X-38.5488 Y22.0056 
G01 X-38.5154 Y21.9833 
G01 X-38.4006 Y21.9357 
G01 X-38.2787 Y21.9115 
G01 X-35.6389 Y21.9115 
G01 X-35.5921 Y21.9092 
G01 X-35.5203 Y21.8403 
G01 X-35.3723 Y21.7413 
G01 X-35.2077 Y21.6732 
G01 X-35.0331 Y21.6384 
G01 X-33.5469 Y21.6384 
G01 X-33.3722 Y21.6732 
G01 X-33.2077 Y21.7413 
G01 X-33.0596 Y21.8403 
G01 X-32.9337 Y21.9662 
G01 X-32.8348 Y22.1143 
G01 X-32.7666 Y22.2788 
G01 X-32.7319 Y22.4535 
G01 X-32.7319 Y22.6315 
G01 X-32.7666 Y22.8062 
G01 X-32.8348 Y22.9707 
G01 X-32.9337 Y23.1188 
G01 X-33.0596 Y23.2447 
G01 X-33.2077 Y23.3437 
G01 X-33.3722 Y23.4118 
G01 X-33.5469 Y23.4465 
G01 X-34.9036 Y23.4465 
G01 X-34.9036 Y24.1785 
G01 X-33.5469 Y24.1785 
G01 X-33.3722 Y24.2132 
G01 X-33.2077 Y24.2813 
G01 X-33.0596 Y24.3803 
G01 X-32.9337 Y24.5062 
G01 X-32.8348 Y24.6543 
G01 X-32.7666 Y24.8188 
G01 X-32.7319 Y24.9935 
G01 X-32.7319 Y25.1715 
G01 X-32.7666 Y25.3462 
G01 X-32.8348 Y25.5107 
G01 X-32.9337 Y25.6588 
G01 X-33.0596 Y25.7847 
G01 X-33.2077 Y25.8837 
G01 X-33.3722 Y25.9518 
G01 X-33.5469 Y25.9865 
G01 X-35.0331 Y25.9865 
G01 X-35.2077 Y25.9518 
G01 X-35.3723 Y25.8837 
G01 X-35.5203 Y25.7847 
G01 X-35.5662 Y25.7389 
G01 X-35.6247 Y25.7389 
G01 X-35.7515 Y25.7137 
G01 X-36.1677 Y25.7135 
G01 X-36.6757 Y26.2215 
G01 X-37.3582 Y26.2215 
G01 X-37.4716 Y26.2992 
G01 X-37.5910 Y26.3487 
G01 X-37.7178 Y26.3739 
G01 X-39.1032 Y26.3739 
G01 X-39.2329 Y26.5036 
G01 X-39.3986 Y26.6143 
G01 X-39.5828 Y26.6906 
G01 X-39.7783 Y26.7295 
G01 X-41.5017 Y26.7295 
G01 X-41.6972 Y26.6906 
G01 X-41.8814 Y26.6143 
G01 X-42.0471 Y26.5036 
G01 X-42.1768 Y26.3739 
G01 X-43.2447 Y26.3739 
G01 X-43.3715 Y26.3487 
G01 X-43.4909 Y26.2992 
G01 X-43.5984 Y26.2274 
G01 X-43.9159 Y25.9099 
G01 X-44.0074 Y25.8184 
G01 X-44.0792 Y25.7109 
G01 X-44.1287 Y25.5915 
G01 X-44.1539 Y25.4646 
G01 X-44.1539 Y24.7003 
G01 X-44.1352 Y24.6062 
G01 X-44.1539 Y24.5121 
G01 X-44.1539 Y23.6738 
G01 X-44.2255 Y23.5666 
G01 X-44.2874 Y23.4171 
G01 X-44.3190 Y23.2584 
G01 X-44.3190 Y0.5541 
G01 X-44.2874 Y0.3954 
G01 X-44.2255 Y0.2459 
G01 X-44.1356 Y0.1113 
G01 X-44.0212 Y-0.0031 
G01 X-43.8866 Y-0.0930 
G01 X-43.7371 Y-0.1549 
G01 X-43.5784 Y-0.1865 
G01 X-23.1893 Y-0.1865 
G01 X-23.1181 Y-0.2160 
G01 X-22.9472 Y-0.2500 
G01 X-22.7728 Y-0.2500 
G01 X-22.6019 Y-0.2160 
G01 X-22.5307 Y-0.1865 
G01 X-0.5541 Y-0.1865 
G01 X-0.3954 Y-0.1549 
G01 X-0.2459 Y-0.0930 
G01 X-0.1113 Y-0.0031 
G01 X0.0031 Y0.1113 
G00 Z1.5000 
G00 X-2.1011 Y1.6792 
G01 Z-0.1778 F254.00 
G01 X-2.3365 Y1.5434 F800.00 
G01 X-2.3792 Y1.5187 
G01 X-2.4282 Y1.4904 
G01 X-2.4621 Y1.4565 
G01 X-4.5229 Y1.4565 
G01 X-4.5568 Y1.4904 
G01 X-4.6088 Y1.5204 
G01 X-4.6485 Y1.5434 
G01 X-4.8839 Y1.6792 
G01 X-5.3057 Y2.1011 
G01 X-5.6041 Y2.6179 
G01 X-5.7585 Y3.1942 
G01 X-5.7585 Y3.7908 
G01 X-5.6041 Y4.3671 
G01 X-5.3057 Y4.8839 
G01 X-4.8839 Y5.3057 
G01 X-4.3671 Y5.6041 
G01 X-3.7908 Y5.7585 
G01 X-3.1942 Y5.7585 
G01 X-2.6179 Y5.6041 
G01 X-2.1011 Y5.3057 
G01 X-1.6792 Y4.8839 
G01 X-1.5434 Y4.6485 
G01 X-1.5243 Y4.6154 
G01 X-1.4904 Y4.5568 
G01 X-1.4565 Y4.5229 
G01 X-1.4565 Y2.4621 
G01 X-1.4904 Y2.4282 
G01 X-1.5264 Y2.3659 
G01 X-1.5434 Y2.3365 
G01 X-1.6792 Y2.1011 
G01 X-2.1011 Y1.6792 
G00 Z1.5000 
G00 X-2.1740 Y2.3362 
G01 Z-0.1778 F254.00 
G01 X-2.0343 Y2.5182 F800.00 
G01 X-1.9196 Y2.7168 
G01 X-1.8318 Y2.9288 
G01 X-1.7724 Y3.1504 
G01 X-1.7425 Y3.3778 
G01 X-1.7425 Y3.6072 
G01 X-1.7724 Y3.8346 
G01 X-1.8318 Y4.0562 
G01 X-1.9196 Y4.2682 
G01 X-2.0343 Y4.4668 
G01 X-2.1740 Y4.6488 
G01 X-2.3362 Y4.8110 
G01 X-2.5182 Y4.9507 
G01 X-2.7168 Y5.0654 
G01 X-2.9288 Y5.1532 
G01 X-3.1504 Y5.2126 
G01 X-3.3778 Y5.2425 
G01 X-3.6072 Y5.2425 
G01 X-3.8346 Y5.2126 
G01 X-4.0562 Y5.1532 
G01 X-4.2682 Y5.0654 
G01 X-4.4668 Y4.9507 
G01 X-4.6488 Y4.8110 
G01 X-4.8110 Y4.6488 
G01 X-4.9507 Y4.4668 
G01 X-5.0654 Y4.2682 
G01 X-5.1532 Y4.0562 
G01 X-5.2126 Y3.8346 
G01 X-5.2425 Y3.6072 
G01 X-5.2425 Y3.3778 
G01 X-5.2126 Y3.1504 
G01 X-5.1532 Y2.9288 
G01 X-5.0654 Y2.7168 
G01 X-4.9507 Y2.5182 
G01 X-4.8110 Y2.3362 
G01 X-4.6488 Y2.1740 
G01 X-4.4668 Y2.0343 
G01 X-4.2682 Y1.9196 
G01 X-4.0562 Y1.8318 
G01 X-3.8346 Y1.7724 
G01 X-3.6072 Y1.7425 
G01 X-3.3778 Y1.7425 
G01 X-3.1504 Y1.7724 
G01 X-2.9288 Y1.8318 
G01 X-2.7168 Y1.9196 
G01 X-2.5182 Y2.0343 
G01 X-2.3362 Y2.1740 
G01 X-2.1740 Y2.3362 
G00 Z1.5000 
G00 X-2.4537 Y10.2187 
G01 Z-0.1778 F254.00 
G01 X-2.3548 Y10.3668 F800.00 
G01 X-2.2866 Y10.5313 
G01 X-2.2519 Y10.7060 
G01 X-2.2519 Y10.8840 
G01 X-2.2866 Y11.0587 
G01 X-2.3548 Y11.2232 
G01 X-2.4537 Y11.3713 
G01 X-2.5796 Y11.4972 
G01 X-2.7277 Y11.5962 
G01 X-2.8922 Y11.6643 
G01 X-3.0669 Y11.6990 
G01 X-4.5531 Y11.6990 
G01 X-4.7278 Y11.6643 
G01 X-4.8923 Y11.5962 
G01 X-5.0403 Y11.4972 
G01 X-5.0862 Y11.4514 
G01 X-5.2684 Y11.4514 
G01 X-5.2307 Y11.5027 
G01 X-5.2091 Y11.5401 
G01 X-5.1926 Y11.5799 
G01 X-5.1735 Y11.6186 
G01 X-5.1597 Y11.6595 
G01 X-5.1512 Y11.7018 
G01 X-5.1401 Y11.7435 
G01 X-5.1344 Y11.7863 
G01 X-5.1344 Y11.8295 
G01 X-5.1316 Y11.8726 
G01 X-5.1344 Y11.9156 
G01 X-5.1429 Y11.9580 
G01 X-5.1485 Y12.0007 
G01 X-5.1597 Y12.0424 
G01 X-5.1762 Y12.0823 
G01 X-5.1901 Y12.1232 
G01 X-5.2091 Y12.1619 
G01 X-5.2331 Y12.1978 
G01 X-5.2547 Y12.2352 
G01 X-5.2810 Y12.2694 
G01 X-5.3115 Y12.2999 
G01 X-5.3400 Y12.3324 
G01 X-5.5925 Y12.5810 
G01 X-5.7952 Y13.0702 
G01 X-5.7952 Y13.5998 
G01 X-5.5925 Y14.0890 
G01 X-5.4950 Y14.1866 
G01 X-5.4232 Y14.2941 
G01 X-5.4013 Y14.3470 
G01 X-5.3737 Y14.4135 
G01 X-5.3606 Y14.4791 
G01 X-5.3485 Y14.5403 
G01 X-5.3485 Y14.6696 
G01 X-5.3588 Y14.7215 
G01 X-5.3737 Y14.7965 
G01 X-5.4232 Y14.9159 
G01 X-5.4483 Y14.9535 
G01 X-5.4950 Y15.0234 
G01 X-5.5864 Y15.1149 
G01 X-5.7952 Y15.6102 
G01 X-5.7952 Y16.1398 
G01 X-5.5925 Y16.6290 
G01 X-5.4950 Y16.7266 
G01 X-5.4464 Y16.7994 
G01 X-5.4232 Y16.8341 
G01 X-5.3737 Y16.9535 
G01 X-5.3582 Y17.0313 
G01 X-5.3485 Y17.0803 
G01 X-5.3485 Y17.2097 
G01 X-5.3613 Y17.2744 
G01 X-5.3737 Y17.3365 
G01 X-5.4041 Y17.4099 
G01 X-5.4232 Y17.4559 
G01 X-5.4950 Y17.5634 
G01 X-5.5925 Y17.6610 
G01 X-5.7952 Y18.1502 
G01 X-5.7952 Y18.6798 
G01 X-5.5925 Y19.1690 
G01 X-5.4950 Y19.2666 
G01 X-5.4464 Y19.3393 
G01 X-5.4232 Y19.3741 
G01 X-5.3737 Y19.4935 
G01 X-5.3582 Y19.5713 
G01 X-5.3485 Y19.6203 
G01 X-5.3485 Y19.7497 
G01 X-5.3613 Y19.8144 
G01 X-5.3737 Y19.8765 
G01 X-5.4041 Y19.9499 
G01 X-5.4232 Y19.9959 
G01 X-5.4950 Y20.1034 
G01 X-5.5925 Y20.2010 
G01 X-5.7952 Y20.6902 
G01 X-5.7952 Y21.2198 
G01 X-5.5925 Y21.7090 
G01 X-5.4950 Y21.8066 
G01 X-5.4464 Y21.8793 
G01 X-5.4232 Y21.9141 
G01 X-5.3737 Y22.0335 
G01 X-5.3582 Y22.1113 
G01 X-5.3485 Y22.1603 
G01 X-5.3485 Y22.2897 
G01 X-5.3613 Y22.3544 
G01 X-5.3737 Y22.4165 
G01 X-5.4041 Y22.4899 
G01 X-5.4232 Y22.5359 
G01 X-5.4950 Y22.6434 
G01 X-5.5925 Y22.7410 
G01 X-5.7952 Y23.2302 
G01 X-5.7952 Y23.7598 
G01 X-5.5925 Y24.2490 
G01 X-5.4950 Y24.3466 
G01 X-5.4464 Y24.4194 
G01 X-5.4232 Y24.4541 
G01 X-5.3737 Y24.5735 
G01 X-5.3582 Y24.6513 
G01 X-5.3485 Y24.7003 
G01 X-5.3485 Y24.8297 
G01 X-5.3613 Y24.8944 
G01 X-5.3737 Y24.9565 
G01 X-5.4041 Y25.0299 
G01 X-5.4232 Y25.0759 
G01 X-5.4950 Y25.1834 
G01 X-5.5925 Y25.2810 
G01 X-5.7952 Y25.7702 
G01 X-5.7952 Y26.2998 
G01 X-5.5925 Y26.7890 
G01 X-5.2181 Y27.1635 
G01 X-4.7288 Y27.3661 
G01 X-4.6746 Y27.3661 
G01 X-4.6026 Y27.3805 
G01 X-4.5478 Y27.3914 
G01 X-4.4800 Y27.4195 
G01 X-4.4284 Y27.4409 
G01 X-3.5739 Y27.4550 
G01 X-3.4471 Y27.4803 
G01 X-3.3276 Y27.5298 
G01 X-3.2201 Y27.6016 
G01 X-2.2134 Y28.6083 
G01 X-2.1219 Y28.6998 
G01 X-2.0501 Y28.8073 
G01 X-2.0006 Y28.9267 
G01 X-1.9754 Y29.0535 
G01 X-1.9754 Y29.1828 
G01 X-2.0006 Y29.3097 
G01 X-2.0501 Y29.4291 
G01 X-2.1219 Y29.5366 
G01 X-2.4094 Y29.8240 
G01 X-2.6710 Y30.4557 
G01 X-2.6710 Y31.1393 
G01 X-2.4094 Y31.7710 
G01 X-2.2105 Y31.9699 
G01 X-2.1190 Y32.0613 
G01 X-2.0472 Y32.1688 
G01 X-1.9977 Y32.2882 
G01 X-1.9725 Y32.4151 
G01 X-1.9725 Y34.2953 
G01 X-1.9916 Y34.3915 
G01 X-1.9977 Y34.4221 
G01 X-2.0472 Y34.5416 
G01 X-2.1190 Y34.6491 
G01 X-2.1655 Y34.6955 
G01 X-2.2105 Y34.7405 
G01 X-2.3180 Y34.8123 
G01 X-2.4099 Y34.8504 
G01 X-2.4374 Y34.8618 
G01 X-2.4813 Y34.8705 
G01 X-2.5642 Y34.8870 
G01 X-2.6936 Y34.8870 
G01 X-2.7898 Y34.8679 
G01 X-2.8204 Y34.8618 
G01 X-2.9390 Y34.8126 
G01 X-2.9960 Y34.7890 
G01 X-3.1412 Y34.7501 
G01 X-3.2903 Y34.7305 
G01 X-3.4711 Y34.7305 
G01 X-3.4711 Y34.8655 
G01 X-3.2658 Y34.8655 
G01 X-3.0703 Y34.9044 
G01 X-2.8861 Y34.9807 
G01 X-2.7204 Y35.0914 
G01 X-2.5794 Y35.2324 
G01 X-2.4687 Y35.3981 
G01 X-2.3924 Y35.5823 
G01 X-2.3535 Y35.7778 
G01 X-2.3535 Y35.9772 
G01 X-2.3924 Y36.1727 
G01 X-2.4687 Y36.3569 
G01 X-2.5794 Y36.5226 
G01 X-2.7204 Y36.6636 
G01 X-2.8861 Y36.7743 
G01 X-3.0703 Y36.8506 
G01 X-3.2658 Y36.8895 
G01 X-4.9892 Y36.8895 
G01 X-5.1847 Y36.8506 
G01 X-5.3689 Y36.7743 
G01 X-5.5346 Y36.6636 
G01 X-5.6643 Y36.5339 
G01 X-6.1019 Y36.5339 
G01 X-6.1328 Y36.5776 
G01 X-6.1568 Y36.6134 
G01 X-6.1852 Y36.6459 
G01 X-6.2177 Y36.6743 
G01 X-6.2482 Y36.7049 
G01 X-6.2825 Y36.7311 
G01 X-6.3199 Y36.7527 
G01 X-6.3557 Y36.7767 
G01 X-6.3944 Y36.7958 
G01 X-6.4353 Y36.8097 
G01 X-6.4752 Y36.8262 
G01 X-6.5169 Y36.8373 
G01 X-6.5597 Y36.8430 
G01 X-6.6020 Y36.8514 
G01 X-6.6451 Y36.8542 
G01 X-6.6881 Y36.8514 
G01 X-7.6325 Y36.8514 
G01 X-7.7594 Y36.8262 
G01 X-7.8788 Y36.7767 
G01 X-7.9863 Y36.7049 
G01 X-8.4588 Y36.2324 
G01 X-8.5502 Y36.1410 
G01 X-8.6221 Y36.0335 
G01 X-8.8000 Y35.6038 
G01 X-9.2513 Y35.1525 
G01 X-9.7489 Y34.9464 
G01 X-10.5711 Y34.9464 
G01 X-11.0687 Y35.1525 
G01 X-11.2486 Y35.3324 
G01 X-11.5200 Y35.6038 
G01 X-11.7642 Y36.1934 
G01 X-11.7642 Y36.8316 
G01 X-11.5200 Y37.4212 
G01 X-11.0687 Y37.8725 
G01 X-10.6390 Y38.0504 
G01 X-10.5315 Y38.1223 
G01 X-10.4401 Y38.2137 
G01 X-10.1439 Y38.5099 
G01 X-10.0525 Y38.6013 
G01 X-9.9807 Y38.7088 
G01 X-9.9312 Y38.8283 
G01 X-9.9060 Y38.9551 
G01 X-9.9060 Y39.0844 
G01 X-9.9312 Y39.2112 
G01 X-10.0115 Y39.4050 
G01 X-10.0115 Y39.9700 
G01 X-9.8366 Y40.3922 
G01 X-9.7871 Y40.5116 
G01 X-9.7619 Y40.6384 
G01 X-9.7619 Y40.7677 
G01 X-9.7871 Y40.8945 
G01 X-9.8366 Y41.0140 
G01 X-9.8730 Y41.0684 
G01 X-9.9084 Y41.1215 
G01 X-9.9999 Y41.2129 
G01 X-10.1074 Y41.2848 
G01 X-10.1389 Y41.2978 
G01 X-10.2268 Y41.3342 
G01 X-10.3029 Y41.3658 
G01 X-10.6942 Y41.7571 
G01 X-10.6974 Y43.3253 
G01 X-10.3029 Y43.7242 
G01 X-9.8694 Y43.9038 
G01 X-9.8098 Y43.9285 
G01 X-9.7730 Y43.9437 
G01 X-9.7300 Y43.9689 
G01 X-9.6986 Y43.9934 
G01 X-9.6655 Y44.0156 
G01 X-9.6282 Y44.0486 
G01 X-9.6022 Y44.0788 
G01 X-9.5741 Y44.1070 
G01 X-9.5439 Y44.1467 
G01 X-9.5244 Y44.1814 
G01 X-9.5022 Y44.2145 
G01 X-9.4804 Y44.2593 
G01 X-9.4680 Y44.2971 
G01 X-9.4528 Y44.3340 
G01 X-9.4401 Y44.3822 
G01 X-9.4353 Y44.4217 
G01 X-9.4275 Y44.4608 
G01 X-9.4245 Y44.5105 
G01 X-9.4275 Y44.5503 
G01 X-9.4275 Y44.5901 
G01 X-9.5151 Y45.7057 
G01 X-9.5151 Y45.7455 
G01 X-9.5218 Y45.7949 
G01 X-9.5325 Y45.8332 
G01 X-9.5403 Y45.8723 
G01 X-9.5566 Y45.9194 
G01 X-9.5745 Y45.9550 
G01 X-9.5898 Y45.9918 
G01 X-9.6149 Y46.0348 
G01 X-9.6395 Y46.0661 
G01 X-9.6616 Y46.0993 
G01 X-9.6947 Y46.1366 
G01 X-9.7249 Y46.1625 
G01 X-9.7530 Y46.1907 
G01 X-9.7927 Y46.2208 
G01 X-9.8274 Y46.2404 
G01 X-9.8605 Y46.2625 
G01 X-9.9054 Y46.2843 
G01 X-9.9432 Y46.2968 
G01 X-10.3029 Y46.4458 
G01 X-10.6942 Y46.8371 
G01 X-10.6974 Y48.4053 
G01 X-10.6306 Y48.4766 
G01 X-10.5588 Y48.5841 
G01 X-10.5093 Y48.7035 
G01 X-10.4964 Y48.7684 
G01 X-10.4841 Y48.8303 
G01 X-10.4841 Y48.9597 
G01 X-10.4994 Y49.0368 
G01 X-10.5093 Y49.0865 
G01 X-10.5397 Y49.1599 
G01 X-10.5588 Y49.2059 
G01 X-10.5839 Y49.2435 
G01 X-10.6306 Y49.3134 
G01 X-10.6942 Y49.3771 
G01 X-10.6974 Y50.9453 
G01 X-10.6306 Y51.0166 
G01 X-10.5588 Y51.1241 
G01 X-10.5093 Y51.2435 
G01 X-10.4964 Y51.3084 
G01 X-10.4841 Y51.3703 
G01 X-10.4841 Y51.4997 
G01 X-10.4994 Y51.5768 
G01 X-10.5093 Y51.6265 
G01 X-10.5397 Y51.6999 
G01 X-10.5588 Y51.7459 
G01 X-10.5839 Y51.7835 
G01 X-10.6306 Y51.8534 
G01 X-10.6942 Y51.9171 
G01 X-10.6974 Y53.4853 
G01 X-10.3877 Y53.7995 
G01 X-10.3421 Y53.8450 
G01 X-10.3139 Y53.8732 
G01 X-10.2838 Y53.9129 
G01 X-10.2642 Y53.9476 
G01 X-10.2421 Y53.9807 
G01 X-10.2203 Y54.0256 
G01 X-10.2079 Y54.0634 
G01 X-10.1926 Y54.1002 
G01 X-10.1800 Y54.1484 
G01 X-10.1752 Y54.1879 
G01 X-10.1674 Y54.2270 
G01 X-10.1644 Y54.2768 
G01 X-10.1674 Y54.3165 
G01 X-10.1674 Y54.3563 
G01 X-10.4436 Y57.9624 
G01 X-10.4436 Y58.0022 
G01 X-10.4504 Y58.0517 
G01 X-10.4611 Y58.0900 
G01 X-10.4688 Y58.1291 
G01 X-10.4851 Y58.1762 
G01 X-10.5031 Y58.2117 
G01 X-10.5183 Y58.2485 
G01 X-10.5435 Y58.2916 
G01 X-10.5680 Y58.3229 
G01 X-10.5901 Y58.3560 
G01 X-10.6232 Y58.3933 
G01 X-10.6534 Y58.4193 
G01 X-10.6401 Y58.4979 
G01 X-10.6085 Y58.6566 
G01 X-10.6085 Y58.8184 
G01 X-10.6401 Y58.9771 
G01 X-10.7020 Y59.1266 
G01 X-10.7919 Y59.2612 
G01 X-10.9063 Y59.3756 
G01 X-11.0409 Y59.4655 
G01 X-11.1904 Y59.5274 
G01 X-11.3491 Y59.5590 
G01 X-43.5784 Y59.5590 
G01 X-43.7371 Y59.5274 
G01 X-43.8866 Y59.4655 
G01 X-44.0212 Y59.3756 
G01 X-44.1356 Y59.2612 
G01 X-44.2255 Y59.1266 
G01 X-44.2874 Y58.9771 
G01 X-44.3190 Y58.8184 
G01 X-44.3190 Y33.8916 
G01 X-44.2874 Y33.7329 
G01 X-44.2255 Y33.5834 
G01 X-44.1356 Y33.4488 
G01 X-43.5449 Y32.8582 
G01 X-43.5183 Y32.8404 
G01 X-43.5006 Y32.8138 
G01 X-43.3862 Y32.6994 
G01 X-43.2516 Y32.6095 
G01 X-43.1021 Y32.5476 
G01 X-42.9434 Y32.5160 
G01 X-41.9941 Y32.5160 
G01 X-41.8814 Y32.4407 
G01 X-41.6972 Y32.3644 
G01 X-41.5017 Y32.3255 
G01 X-39.7783 Y32.3255 
G01 X-39.5828 Y32.3644 
G01 X-39.3986 Y32.4407 
G01 X-39.2329 Y32.5514 
G01 X-39.0919 Y32.6924 
G01 X-38.9812 Y32.8581 
G01 X-38.9049 Y33.0423 
G01 X-38.8660 Y33.2378 
G01 X-38.8660 Y33.4372 
G01 X-38.9049 Y33.6327 
G01 X-38.9812 Y33.8169 
G01 X-39.0919 Y33.9826 
G01 X-39.2329 Y34.1236 
G01 X-39.3986 Y34.2343 
G01 X-39.5828 Y34.3106 
G01 X-39.7783 Y34.3495 
G01 X-41.5017 Y34.3495 
G01 X-41.6972 Y34.3106 
G01 X-41.8814 Y34.2343 
G01 X-41.9941 Y34.1590 
G01 X-42.5222 Y34.1590 
G01 X-42.6760 Y34.3128 
G01 X-42.6760 Y41.8886 
G01 X-42.1768 Y41.8886 
G01 X-42.0471 Y41.7589 
G01 X-41.8814 Y41.6482 
G01 X-41.6972 Y41.5719 
G01 X-41.5017 Y41.5330 
G01 X-39.7783 Y41.5330 
G01 X-39.5828 Y41.5719 
G01 X-39.3986 Y41.6482 
G01 X-39.2329 Y41.7589 
G01 X-39.0919 Y41.8999 
G01 X-38.9812 Y42.0656 
G01 X-38.9049 Y42.2498 
G01 X-38.8660 Y42.4453 
G01 X-38.8660 Y42.6447 
G01 X-38.9049 Y42.8402 
G01 X-38.9812 Y43.0244 
G01 X-39.0919 Y43.1901 
G01 X-39.2329 Y43.3311 
G01 X-39.3986 Y43.4418 
G01 X-39.5828 Y43.5181 
G01 X-39.7783 Y43.5570 
G01 X-39.9836 Y43.5570 
G01 X-39.9836 Y45.0020 
G01 X-39.9808 Y45.0450 
G01 X-39.9836 Y45.0881 
G01 X-39.9920 Y45.1304 
G01 X-39.9977 Y45.1732 
G01 X-40.0088 Y45.2149 
G01 X-40.0253 Y45.2548 
G01 X-40.0392 Y45.2956 
G01 X-40.0583 Y45.3344 
G01 X-40.0823 Y45.3702 
G01 X-40.1039 Y45.4076 
G01 X-40.1301 Y45.4419 
G01 X-40.1606 Y45.4724 
G01 X-40.1891 Y45.5048 
G01 X-40.2216 Y45.5333 
G01 X-40.2574 Y45.5573 
G01 X-40.2917 Y45.5835 
G01 X-40.3011 Y46.0773 
G01 X-40.2701 Y46.1083 
G01 X-40.1732 Y46.2533 
G01 X-40.1065 Y46.4144 
G01 X-40.0725 Y46.5853 
G01 X-40.0725 Y48.0297 
G01 X-40.1065 Y48.2006 
G01 X-40.1732 Y48.3617 
G01 X-40.2701 Y48.5067 
G01 X-40.3011 Y48.5377 
G01 X-40.3011 Y48.7295 
G01 X-40.2421 Y48.7004 
G01 X-40.2033 Y48.6813 
G01 X-40.1625 Y48.6674 
G01 X-40.1201 Y48.6590 
G01 X-40.0785 Y48.6478 
G01 X-40.0357 Y48.6422 
G01 X-39.9925 Y48.6422 
G01 X-39.9494 Y48.6394 
G01 X-39.9064 Y48.6422 
G01 X-39.8640 Y48.6506 
G01 X-39.8212 Y48.6562 
G01 X-39.7795 Y48.6674 
G01 X-39.7397 Y48.6839 
G01 X-39.6988 Y48.6978 
G01 X-39.6601 Y48.7169 
G01 X-39.6242 Y48.7409 
G01 X-39.5868 Y48.7625 
G01 X-39.5526 Y48.7887 
G01 X-39.5221 Y48.8192 
G01 X-39.4896 Y48.8477 
G01 X-39.2111 Y49.1302 
G01 X-39.1831 Y49.1418 
G01 X-39.1455 Y49.1669 
G01 X-39.0756 Y49.2137 
G01 X-38.9841 Y49.3051 
G01 X-38.1456 Y50.1436 
G01 X-38.0353 Y50.1436 
G01 X-37.9085 Y50.1688 
G01 X-37.7891 Y50.2183 
G01 X-37.6837 Y50.2887 
G01 X-35.1905 Y52.7812 
G01 X-35.0990 Y52.8727 
G01 X-35.0272 Y52.9802 
G01 X-34.9777 Y53.0996 
G01 X-34.9539 Y53.2193 
G01 X-34.9525 Y55.8282 
G01 X-34.7005 Y56.4365 
G01 X-34.2350 Y56.9020 
G01 X-33.6267 Y57.1540 
G01 X-32.9683 Y57.1540 
G01 X-32.3600 Y56.9020 
G01 X-31.8945 Y56.4365 
G01 X-31.6425 Y55.8282 
G01 X-31.6425 Y55.4978 
G01 X-31.6173 Y55.3710 
G01 X-31.5678 Y55.2516 
G01 X-31.4960 Y55.1441 
G01 X-31.4045 Y55.0526 
G01 X-31.2970 Y54.9808 
G01 X-31.1776 Y54.9313 
G01 X-31.0508 Y54.9061 
G01 X-30.5442 Y54.9061 
G01 X-30.4174 Y54.9313 
G01 X-30.2980 Y54.9808 
G01 X-30.1905 Y55.0526 
G01 X-30.0990 Y55.1441 
G01 X-30.0272 Y55.2516 
G01 X-29.9777 Y55.3710 
G01 X-29.9525 Y55.4978 
G01 X-29.9525 Y55.8282 
G01 X-29.7005 Y56.4365 
G01 X-29.2350 Y56.9020 
G01 X-28.6267 Y57.1540 
G01 X-27.9683 Y57.1540 
G01 X-27.3600 Y56.9020 
G01 X-26.8945 Y56.4365 
G01 X-26.6425 Y55.8282 
G01 X-26.6425 Y53.3918 
G01 X-26.8945 Y52.7835 
G01 X-27.3600 Y52.3180 
G01 X-27.9683 Y52.0660 
G01 X-28.5537 Y52.0660 
G01 X-28.6187 Y52.0660 
G01 X-28.6651 Y52.0568 
G01 X-28.7455 Y52.0408 
G01 X-28.7875 Y52.0234 
G01 X-28.8650 Y51.9913 
G01 X-28.9082 Y51.9624 
G01 X-28.9725 Y51.9195 
G01 X-29.0402 Y51.8517 
G01 X-29.0848 Y51.8072 
G01 X-29.1239 Y51.7487 
G01 X-29.1567 Y51.6996 
G01 X-29.1815 Y51.6397 
G01 X-29.2062 Y51.5802 
G01 X-29.2215 Y51.5029 
G01 X-29.2314 Y51.4534 
G01 X-29.2314 Y51.3884 
G01 X-29.2314 Y51.3241 
G01 X-29.2314 Y50.5655 
G01 X-29.2342 Y50.5225 
G01 X-29.2314 Y50.4794 
G01 X-29.2230 Y50.4371 
G01 X-29.2173 Y50.3943 
G01 X-29.2062 Y50.3526 
G01 X-29.1897 Y50.3127 
G01 X-29.1758 Y50.2718 
G01 X-29.1567 Y50.2331 
G01 X-29.1327 Y50.1973 
G01 X-29.1111 Y50.1599 
G01 X-29.0849 Y50.1256 
G01 X-29.0543 Y50.0951 
G01 X-29.0259 Y50.0627 
G01 X-28.9934 Y50.0342 
G01 X-28.9575 Y50.0102 
G01 X-28.9233 Y49.9839 
G01 X-28.9139 Y49.4902 
G01 X-28.9449 Y49.4592 
G01 X-29.0418 Y49.3142 
G01 X-29.1085 Y49.1531 
G01 X-29.1425 Y48.9822 
G01 X-29.1425 Y47.5378 
G01 X-29.1085 Y47.3669 
G01 X-29.0418 Y47.2058 
G01 X-28.9449 Y47.0608 
G01 X-28.9139 Y47.0298 
G01 X-28.9139 Y46.8435 
G01 X-28.9631 Y46.8807 
G01 X-28.9973 Y46.9070 
G01 X-29.0347 Y46.9286 
G01 X-29.0746 Y46.9451 
G01 X-29.1133 Y46.9642 
G01 X-29.1542 Y46.9781 
G01 X-29.1965 Y46.9865 
G01 X-29.2382 Y46.9977 
G01 X-29.2810 Y47.0033 
G01 X-29.3241 Y47.0033 
G01 X-29.3672 Y47.0061 
G01 X-29.4103 Y47.0033 
G01 X-29.4526 Y46.9949 
G01 X-29.4954 Y46.9892 
G01 X-29.5371 Y46.9781 
G01 X-29.5769 Y46.9615 
G01 X-29.6178 Y46.9477 
G01 X-29.6565 Y46.9286 
G01 X-29.6924 Y46.9046 
G01 X-29.7298 Y46.8830 
G01 X-29.7640 Y46.8567 
G01 X-29.7946 Y46.8262 
G01 X-29.8270 Y46.7978 
G01 X-30.1148 Y46.5059 
G01 X-30.1731 Y46.4535 
G01 X-30.2237 Y46.4029 
G01 X-32.3280 Y44.2986 
G01 X-32.4194 Y44.2072 
G01 X-32.4912 Y44.0997 
G01 X-32.5407 Y43.9802 
G01 X-32.5659 Y43.8534 
G01 X-32.5659 Y43.7241 
G01 X-32.5407 Y43.5973 
G01 X-32.3429 Y43.1197 
G01 X-32.3429 Y42.6053 
G01 X-32.5397 Y42.1300 
G01 X-32.5674 Y42.1024 
G01 X-32.6589 Y42.0109 
G01 X-32.6960 Y41.9554 
G01 X-32.7307 Y41.9034 
G01 X-32.7802 Y41.7840 
G01 X-32.7973 Y41.6980 
G01 X-32.8054 Y41.6571 
G01 X-32.8054 Y41.5278 
G01 X-32.7951 Y41.4760 
G01 X-32.7802 Y41.4010 
G01 X-32.7307 Y41.2816 
G01 X-32.6965 Y41.2303 
G01 X-32.6589 Y41.1741 
G01 X-32.5397 Y41.0549 
G01 X-32.3429 Y40.5797 
G01 X-32.3429 Y40.0653 
G01 X-32.5397 Y39.5900 
G01 X-32.5674 Y39.5624 
G01 X-32.6589 Y39.4709 
G01 X-32.6960 Y39.4154 
G01 X-32.7307 Y39.3634 
G01 X-32.7802 Y39.2440 
G01 X-32.7973 Y39.1580 
G01 X-32.8054 Y39.1171 
G01 X-32.8054 Y38.9878 
G01 X-32.7951 Y38.9360 
G01 X-32.7802 Y38.8610 
G01 X-32.7307 Y38.7416 
G01 X-32.6965 Y38.6903 
G01 X-32.6589 Y38.6341 
G01 X-32.5397 Y38.5149 
G01 X-32.3429 Y38.0397 
G01 X-32.3429 Y37.5253 
G01 X-32.5397 Y37.0500 
G01 X-32.6589 Y36.9309 
G01 X-32.6936 Y36.8790 
G01 X-32.7307 Y36.8234 
G01 X-32.7802 Y36.7040 
G01 X-32.7957 Y36.6262 
G01 X-32.8054 Y36.5772 
G01 X-32.8054 Y36.4478 
G01 X-32.7968 Y36.4046 
G01 X-32.7802 Y36.3210 
G01 X-32.7307 Y36.2016 
G01 X-32.6931 Y36.1453 
G01 X-32.6589 Y36.0941 
G01 X-32.5674 Y36.0026 
G01 X-32.5397 Y35.9750 
G01 X-32.3429 Y35.4997 
G01 X-32.3429 Y34.9853 
G01 X-32.5397 Y34.5100 
G01 X-32.5674 Y34.4824 
G01 X-32.6589 Y34.3909 
G01 X-32.6960 Y34.3354 
G01 X-32.7307 Y34.2834 
G01 X-32.7802 Y34.1640 
G01 X-32.7973 Y34.0780 
G01 X-32.8054 Y34.0371 
G01 X-32.8054 Y33.9078 
G01 X-32.7951 Y33.8560 
G01 X-32.7802 Y33.7810 
G01 X-32.7307 Y33.6616 
G01 X-32.6965 Y33.6103 
G01 X-32.6589 Y33.5541 
G01 X-32.5397 Y33.4349 
G01 X-32.3429 Y32.9597 
G01 X-32.3429 Y32.4453 
G01 X-32.5397 Y31.9700 
G01 X-32.5674 Y31.9424 
G01 X-32.6589 Y31.8509 
G01 X-32.6960 Y31.7954 
G01 X-32.7307 Y31.7434 
G01 X-32.7802 Y31.6240 
G01 X-32.7973 Y31.5380 
G01 X-32.8054 Y31.4971 
G01 X-32.8054 Y31.3678 
G01 X-32.7951 Y31.3160 
G01 X-32.7802 Y31.2410 
G01 X-32.7307 Y31.1216 
G01 X-32.6965 Y31.0703 
G01 X-32.6589 Y31.0141 
G01 X-32.5397 Y30.8949 
G01 X-32.3429 Y30.4197 
G01 X-32.3429 Y29.9053 
G01 X-32.5397 Y29.4300 
G01 X-32.7663 Y29.2035 
G01 X-32.8119 Y29.1579 
G01 X-32.8424 Y29.1274 
G01 X-32.8687 Y29.0931 
G01 X-32.8903 Y29.0558 
G01 X-32.9142 Y29.0199 
G01 X-32.9333 Y28.9812 
G01 X-32.9472 Y28.9403 
G01 X-32.9637 Y28.9004 
G01 X-32.9749 Y28.8587 
G01 X-32.9805 Y28.8159 
G01 X-32.9890 Y28.7736 
G01 X-32.9918 Y28.7305 
G01 X-32.9890 Y28.6875 
G01 X-32.9890 Y28.6443 
G01 X-32.9833 Y28.6015 
G01 X-32.9721 Y28.5598 
G01 X-32.9637 Y28.5175 
G01 X-32.9499 Y28.4766 
G01 X-32.9308 Y28.4379 
G01 X-32.9142 Y28.3980 
G01 X-32.8927 Y28.3607 
G01 X-32.8664 Y28.3264 
G01 X-32.8424 Y28.2905 
G01 X-33.0138 Y28.2789 
G01 X-33.0596 Y28.3247 
G01 X-33.2077 Y28.4237 
G01 X-33.3722 Y28.4918 
G01 X-33.5469 Y28.5265 
G01 X-35.0331 Y28.5265 
G01 X-35.2077 Y28.4918 
G01 X-35.3723 Y28.4237 
G01 X-35.5203 Y28.3247 
G01 X-35.6463 Y28.1988 
G01 X-35.7452 Y28.0507 
G01 X-35.8134 Y27.8862 
G01 X-35.8481 Y27.7115 
G01 X-35.8481 Y27.5335 
G01 X-35.8134 Y27.3588 
G01 X-35.7452 Y27.1943 
G01 X-35.6463 Y27.0462 
G01 X-35.5203 Y26.9203 
G01 X-35.3723 Y26.8213 
G01 X-35.2077 Y26.7532 
G01 X-35.0331 Y26.7185 
G01 X-33.5469 Y26.7185 
G01 X-33.3722 Y26.7532 
G01 X-33.2077 Y26.8213 
G01 X-33.0596 Y26.9203 
G01 X-33.0138 Y26.9661 
G01 X-32.8301 Y26.9661 
G01 X-32.8573 Y26.9305 
G01 X-32.8789 Y26.8931 
G01 X-32.8954 Y26.8532 
G01 X-32.9145 Y26.8145 
G01 X-32.9283 Y26.7736 
G01 X-32.9368 Y26.7313 
G01 X-32.9479 Y26.6896 
G01 X-32.9536 Y26.6468 
G01 X-32.9536 Y26.6036 
G01 X-32.9564 Y26.5606 
G01 X-32.9536 Y26.5175 
G01 X-32.9451 Y26.4752 
G01 X-32.9395 Y26.4324 
G01 X-32.9283 Y26.3907 
G01 X-32.9118 Y26.3508 
G01 X-32.8979 Y26.3100 
G01 X-32.8789 Y26.2712 
G01 X-32.8549 Y26.2354 
G01 X-32.8333 Y26.1980 
G01 X-32.8070 Y26.1637 
G01 X-32.7765 Y26.1332 
G01 X-32.7480 Y26.1008 
G01 X-32.3627 Y25.7194 
G01 X-32.2159 Y25.3650 
G01 X-32.2159 Y24.8000 
G01 X-32.4321 Y24.2781 
G01 X-32.4793 Y24.2309 
G01 X-32.5511 Y24.1234 
G01 X-32.5811 Y24.0510 
G01 X-32.6006 Y24.0040 
G01 X-32.6093 Y23.9601 
G01 X-32.6258 Y23.8771 
G01 X-32.6258 Y23.7478 
G01 X-32.6067 Y23.6516 
G01 X-32.6006 Y23.6210 
G01 X-32.5511 Y23.5016 
G01 X-32.4793 Y23.3941 
G01 X-32.4321 Y23.3469 
G01 X-32.2159 Y22.8250 
G01 X-32.2159 Y22.2600 
G01 X-32.4321 Y21.7381 
G01 X-32.4793 Y21.6909 
G01 X-32.5511 Y21.5834 
G01 X-32.5811 Y21.5110 
G01 X-32.6006 Y21.4640 
G01 X-32.6093 Y21.4201 
G01 X-32.6258 Y21.3371 
G01 X-32.6258 Y21.2078 
G01 X-32.6067 Y21.1116 
G01 X-32.6006 Y21.0810 
G01 X-32.5511 Y20.9616 
G01 X-32.4793 Y20.8541 
G01 X-32.4321 Y20.8069 
G01 X-32.2159 Y20.2850 
G01 X-32.2159 Y19.7200 
G01 X-32.4321 Y19.1981 
G01 X-32.4793 Y19.1509 
G01 X-32.5511 Y19.0434 
G01 X-32.5811 Y18.9710 
G01 X-32.6006 Y18.9240 
G01 X-32.6093 Y18.8801 
G01 X-32.6258 Y18.7971 
G01 X-32.6258 Y18.6678 
G01 X-32.6067 Y18.5716 
G01 X-32.6006 Y18.5410 
G01 X-32.5511 Y18.4216 
G01 X-32.4793 Y18.3141 
G01 X-32.4321 Y18.2669 
G01 X-32.2159 Y17.7450 
G01 X-32.2159 Y17.1800 
G01 X-32.4321 Y16.6581 
G01 X-32.4793 Y16.6109 
G01 X-32.5511 Y16.5034 
G01 X-32.5811 Y16.4310 
G01 X-32.6006 Y16.3840 
G01 X-32.6093 Y16.3401 
G01 X-32.6258 Y16.2571 
G01 X-32.6258 Y16.1278 
G01 X-32.6067 Y16.0316 
G01 X-32.6006 Y16.0010 
G01 X-32.5511 Y15.8816 
G01 X-32.4793 Y15.7741 
G01 X-32.4321 Y15.7269 
G01 X-32.2159 Y15.2050 
G01 X-32.2159 Y14.6400 
G01 X-32.4321 Y14.1181 
G01 X-32.4793 Y14.0709 
G01 X-32.5511 Y13.9634 
G01 X-32.5811 Y13.8910 
G01 X-32.6006 Y13.8440 
G01 X-32.6093 Y13.8001 
G01 X-32.6258 Y13.7171 
G01 X-32.6258 Y13.5878 
G01 X-32.6067 Y13.4916 
G01 X-32.6006 Y13.4610 
G01 X-32.5511 Y13.3416 
G01 X-32.4793 Y13.2341 
G01 X-32.4321 Y13.1869 
G01 X-32.2159 Y12.6650 
G01 X-32.2159 Y12.1000 
G01 X-32.4321 Y11.5781 
G01 X-32.4793 Y11.5309 
G01 X-32.5511 Y11.4234 
G01 X-32.5811 Y11.3510 
G01 X-32.6006 Y11.3040 
G01 X-32.6093 Y11.2601 
G01 X-32.6258 Y11.1771 
G01 X-32.6258 Y11.0478 
G01 X-32.6067 Y10.9516 
G01 X-32.6006 Y10.9210 
G01 X-32.5511 Y10.8016 
G01 X-32.4793 Y10.6941 
G01 X-32.4321 Y10.6469 
G01 X-32.2159 Y10.1250 
G01 X-32.2184 Y10.0698 
G01 X-32.2159 Y9.5600 
G01 X-32.4321 Y9.0381 
G01 X-32.5052 Y8.9650 
G01 X-32.5538 Y8.8923 
G01 X-32.5770 Y8.8575 
G01 X-32.5989 Y8.8046 
G01 X-32.6265 Y8.7381 
G01 X-32.6369 Y8.6855 
G01 X-32.6517 Y8.6113 
G01 X-32.6517 Y8.4820 
G01 X-32.6389 Y8.4177 
G01 X-32.6265 Y8.3552 
G01 X-32.5770 Y8.2357 
G01 X-32.5052 Y8.1282 
G01 X-31.6687 Y7.2917 
G01 X-31.6149 Y7.2328 
G01 X-31.5670 Y7.1849 
G01 X-31.4071 Y7.0250 
G01 X-31.1745 Y6.4634 
G01 X-31.1745 Y4.3316 
G01 X-31.4071 Y3.7700 
G01 X-31.8369 Y3.3401 
G01 X-32.0302 Y3.2601 
G01 X-32.0650 Y3.2456 
G01 X-32.1497 Y3.2106 
G01 X-33.2341 Y3.1964 
G01 X-33.3526 Y3.2509 
G01 X-33.5680 Y3.3401 
G01 X-33.9979 Y3.7700 
G01 X-34.2305 Y4.3316 
G01 X-34.2305 Y6.3302 
G01 X-34.2557 Y6.4570 
G01 X-34.2897 Y6.5391 
G01 X-34.3052 Y6.5765 
G01 X-34.3399 Y6.6285 
G01 X-34.4564 Y6.8046 
G01 X-34.5974 Y6.9456 
G01 X-34.7216 Y7.0285 
G01 X-34.7569 Y7.0574 
G01 X-34.7969 Y7.0810 
G01 X-34.8355 Y7.1068 
G01 X-34.8682 Y7.1231 
G01 X-34.9120 Y7.1385 
G01 X-34.9549 Y7.1563 
G01 X-34.9902 Y7.1659 
G01 X-35.0362 Y7.1724 
G01 X-35.0817 Y7.1815 
G01 X-35.1182 Y7.1841 
G01 X-35.1646 Y7.1815 
G01 X-35.2110 Y7.1815 
G01 X-35.2465 Y7.1769 
G01 X-35.2696 Y7.2326 
G01 X-35.2921 Y7.2888 
G01 X-35.3295 Y7.3464 
G01 X-35.3626 Y7.3972 
G01 X-35.4105 Y7.4463 
G01 X-35.4529 Y7.4897 
G01 X-35.8577 Y7.8935 
G01 X-35.8237 Y7.9399 
G01 X-35.7963 Y7.9761 
G01 X-35.7771 Y8.0097 
G01 X-35.7597 Y8.0516 
G01 X-35.7399 Y8.0925 
G01 X-35.7276 Y8.1292 
G01 X-35.7187 Y8.1737 
G01 X-35.7073 Y8.2176 
G01 X-35.7024 Y8.2560 
G01 X-35.7024 Y8.3014 
G01 X-35.6997 Y8.3467 
G01 X-35.7024 Y8.3853 
G01 X-35.7112 Y8.4298 
G01 X-35.7174 Y8.4747 
G01 X-35.7276 Y8.5121 
G01 X-35.7449 Y8.5540 
G01 X-35.7598 Y8.5969 
G01 X-35.7771 Y8.6316 
G01 X-35.8023 Y8.6693 
G01 X-35.8252 Y8.7084 
G01 X-35.8489 Y8.7391 
G01 X-35.8810 Y8.7712 
G01 X-35.9111 Y8.8051 
G01 X-36.1479 Y9.0381 
G01 X-36.3641 Y9.5600 
G01 X-36.3641 Y9.5897 
G01 X-36.3893 Y9.7165 
G01 X-36.4388 Y9.8359 
G01 X-36.5106 Y9.9434 
G01 X-36.6021 Y10.0349 
G01 X-36.7096 Y10.1067 
G01 X-36.8290 Y10.1562 
G01 X-36.9558 Y10.1814 
G01 X-39.5868 Y10.1814 
G01 X-39.7783 Y10.2195 
G01 X-41.5017 Y10.2195 
G01 X-41.6972 Y10.1806 
G01 X-41.8814 Y10.1043 
G01 X-42.0471 Y9.9936 
G01 X-42.1881 Y9.8526 
G01 X-42.2988 Y9.6869 
G01 X-42.3751 Y9.5027 
G01 X-42.4140 Y9.3072 
G01 X-42.4140 Y9.1078 
G01 X-42.3751 Y8.9123 
G01 X-42.2988 Y8.7281 
G01 X-42.1881 Y8.5624 
G01 X-42.0471 Y8.4214 
G01 X-41.8814 Y8.3107 
G01 X-41.6972 Y8.2344 
G01 X-41.5017 Y8.1955 
G01 X-41.0737 Y8.1955 
G01 X-41.0507 Y8.1638 
G01 X-41.0079 Y8.1155 
G01 X-40.9777 Y8.0816 
G01 X-40.9485 Y8.0562 
G01 X-40.9108 Y8.0310 
G01 X-40.8746 Y8.0036 
G01 X-40.8410 Y7.9843 
G01 X-40.7991 Y7.9670 
G01 X-40.7583 Y7.9472 
G01 X-40.7216 Y7.9349 
G01 X-40.6771 Y7.9260 
G01 X-40.6332 Y7.9146 
G01 X-40.5947 Y7.9096 
G01 X-40.5494 Y7.9096 
G01 X-37.5542 Y7.7335 
G01 X-36.4369 Y6.6161 
G01 X-36.2545 Y6.1601 
G01 X-36.2545 Y4.5358 
G01 X-36.2156 Y4.3403 
G01 X-36.1393 Y4.1561 
G01 X-36.0286 Y3.9904 
G01 X-35.8989 Y3.8607 
G01 X-35.8989 Y2.4753 
G01 X-35.8737 Y2.3485 
G01 X-35.8242 Y2.2291 
G01 X-35.7524 Y2.1216 
G01 X-35.6609 Y2.0301 
G01 X-35.5534 Y1.9583 
G01 X-35.4340 Y1.9088 
G01 X-35.3072 Y1.8836 
G01 X-30.0978 Y1.8836 
G01 X-29.9710 Y1.9088 
G01 X-29.8516 Y1.9583 
G01 X-28.1039 Y1.9725 
G01 X-27.9771 Y1.9977 
G01 X-27.8577 Y2.0472 
G01 X-27.7502 Y2.1190 
G01 X-27.1126 Y2.7566 
G01 X-27.0408 Y2.8641 
G01 X-26.9923 Y2.9811 
G01 X-26.9661 Y3.1103 
G01 X-26.9360 Y3.2746 
G01 X-26.9360 Y4.9804 
G01 X-26.9661 Y5.1317 
G01 X-26.9661 Y7.0033 
G01 X-26.9913 Y7.1302 
G01 X-27.0408 Y7.2496 
G01 X-27.1126 Y7.3571 
G01 X-27.1961 Y7.4405 
G01 X-27.6639 Y7.9084 
G01 X-27.8040 Y8.2467 
G01 X-27.8535 Y8.3662 
G01 X-27.9254 Y8.4737 
G01 X-27.9718 Y8.5201 
G01 X-28.0168 Y8.5651 
G01 X-28.1243 Y8.6369 
G01 X-28.5279 Y9.0381 
G01 X-28.7441 Y9.5600 
G01 X-28.7441 Y9.9690 
G01 X-28.7416 Y10.0163 
G01 X-28.7441 Y10.1250 
G01 X-28.5279 Y10.6469 
G01 X-28.4807 Y10.6941 
G01 X-28.4089 Y10.8016 
G01 X-28.3789 Y10.8740 
G01 X-28.3594 Y10.9210 
G01 X-28.3507 Y10.9649 
G01 X-28.3342 Y11.0478 
G01 X-28.3342 Y11.1772 
G01 X-28.3533 Y11.2734 
G01 X-28.3594 Y11.3040 
G01 X-28.4089 Y11.4234 
G01 X-28.4807 Y11.5309 
G01 X-28.5279 Y11.5781 
G01 X-28.7441 Y12.1000 
G01 X-28.7441 Y12.6650 
G01 X-28.5279 Y13.1869 
G01 X-28.4807 Y13.2341 
G01 X-28.4089 Y13.3416 
G01 X-28.3789 Y13.4140 
G01 X-28.3594 Y13.4610 
G01 X-28.3507 Y13.5049 
G01 X-28.3342 Y13.5878 
G01 X-28.3342 Y13.7172 
G01 X-28.3533 Y13.8134 
G01 X-28.3594 Y13.8440 
G01 X-28.4089 Y13.9634 
G01 X-28.4807 Y14.0709 
G01 X-28.5279 Y14.1181 
G01 X-28.7441 Y14.6400 
G01 X-28.7441 Y15.2050 
G01 X-28.5279 Y15.7269 
G01 X-28.4807 Y15.7741 
G01 X-28.4089 Y15.8816 
G01 X-28.3789 Y15.9540 
G01 X-28.3594 Y16.0010 
G01 X-28.3507 Y16.0449 
G01 X-28.3342 Y16.1278 
G01 X-28.3342 Y16.2572 
G01 X-28.3533 Y16.3534 
G01 X-28.3594 Y16.3840 
G01 X-28.4089 Y16.5034 
G01 X-28.4807 Y16.6109 
G01 X-28.5279 Y16.6581 
G01 X-28.7441 Y17.1800 
G01 X-28.7441 Y17.7450 
G01 X-28.5279 Y18.2669 
G01 X-28.4807 Y18.3141 
G01 X-28.4089 Y18.4216 
G01 X-28.3789 Y18.4940 
G01 X-28.3594 Y18.5410 
G01 X-28.3507 Y18.5849 
G01 X-28.3342 Y18.6678 
G01 X-28.3342 Y18.7972 
G01 X-28.3533 Y18.8934 
G01 X-28.3594 Y18.9240 
G01 X-28.4089 Y19.0434 
G01 X-28.4807 Y19.1509 
G01 X-28.5279 Y19.1981 
G01 X-28.7441 Y19.7200 
G01 X-28.7441 Y20.2850 
G01 X-28.5279 Y20.8069 
G01 X-28.4807 Y20.8541 
G01 X-28.4089 Y20.9616 
G01 X-28.3789 Y21.0340 
G01 X-28.3594 Y21.0810 
G01 X-28.3507 Y21.1249 
G01 X-28.3342 Y21.2078 
G01 X-28.3342 Y21.3372 
G01 X-28.3533 Y21.4334 
G01 X-28.3594 Y21.4640 
G01 X-28.4089 Y21.5834 
G01 X-28.4807 Y21.6909 
G01 X-28.5279 Y21.7381 
G01 X-28.7441 Y22.2600 
G01 X-28.7441 Y22.8250 
G01 X-28.5279 Y23.3469 
G01 X-28.3644 Y23.5104 
G01 X-28.2729 Y23.6019 
G01 X-28.2481 Y23.6390 
G01 X-28.2011 Y23.7094 
G01 X-28.1849 Y23.7486 
G01 X-28.0660 Y23.7722 
G01 X-27.6065 Y23.9625 
G01 X-25.7335 Y23.9625 
G01 X-25.1965 Y23.7401 
G01 X-25.0769 Y23.7163 
G01 X-19.7185 Y23.7149 
G01 X-19.5917 Y23.7401 
G01 X-19.4722 Y23.7896 
G01 X-19.3647 Y23.8614 
G01 X-19.3237 Y23.9025 
G01 X-18.8672 Y24.0916 
G01 X-18.8327 Y24.0740 
G01 X-18.6698 Y24.0211 
G01 X-18.5006 Y23.9943 
G01 X-18.3294 Y23.9943 
G01 X-18.1602 Y24.0211 
G01 X-17.9973 Y24.0740 
G01 X-17.9628 Y24.0916 
G01 X-17.5063 Y23.9025 
G01 X-17.0550 Y23.4512 
G01 X-16.8108 Y22.8616 
G01 X-16.8108 Y22.2234 
G01 X-17.1254 Y21.4640 
G01 X-17.1506 Y21.3371 
G01 X-17.1506 Y21.2078 
G01 X-17.1254 Y21.0810 
G01 X-16.8108 Y20.3216 
G01 X-16.8108 Y19.6834 
G01 X-17.0550 Y19.0938 
G01 X-17.5063 Y18.6425 
G01 X-17.9628 Y18.4534 
G01 X-17.9973 Y18.4710 
G01 X-18.1602 Y18.5239 
G01 X-18.3294 Y18.5507 
G01 X-18.5006 Y18.5507 
G01 X-18.6698 Y18.5239 
G01 X-18.8327 Y18.4710 
G01 X-18.8672 Y18.4534 
G01 X-19.4720 Y18.7039 
G01 X-19.5988 Y18.7292 
G01 X-19.7281 Y18.7292 
G01 X-19.8549 Y18.7039 
G01 X-19.9743 Y18.6545 
G01 X-20.0819 Y18.5826 
G01 X-20.1733 Y18.4912 
G01 X-20.7130 Y17.9514 
G01 X-20.7755 Y17.8889 
G01 X-20.8346 Y17.8299 
G01 X-20.8854 Y17.7791 
G01 X-20.9260 Y17.7385 
G01 X-20.9743 Y17.6662 
G01 X-20.9978 Y17.6310 
G01 X-21.0307 Y17.5515 
G01 X-21.0473 Y17.5115 
G01 X-21.0679 Y17.4078 
G01 X-21.0725 Y17.3194 
G01 X-21.0725 Y17.2554 
G01 X-21.0640 Y17.2127 
G01 X-21.0473 Y17.1286 
G01 X-21.0292 Y17.0848 
G01 X-20.9978 Y17.0091 
G01 X-20.8515 Y16.6559 
G01 X-20.8515 Y15.9831 
G01 X-21.1089 Y15.3616 
G01 X-21.5846 Y14.8859 
G01 X-21.7047 Y14.8089 
G01 X-21.7661 Y14.7475 
G01 X-21.7961 Y14.7175 
G01 X-21.8679 Y14.6100 
G01 X-21.9174 Y14.4905 
G01 X-21.9426 Y14.3637 
G01 X-21.9427 Y14.2983 
G01 X-21.9427 Y14.2344 
G01 X-21.9174 Y14.1076 
G01 X-21.9000 Y14.0656 
G01 X-21.8680 Y13.9881 
G01 X-21.7961 Y13.8806 
G01 X-21.7347 Y13.8192 
G01 X-21.7047 Y13.7892 
G01 X-21.5972 Y13.7174 
G01 X-21.4777 Y13.6679 
G01 X-21.0420 Y13.4874 
G01 X-20.8188 Y13.2642 
G01 X-20.7904 Y13.2318 
G01 X-20.7579 Y13.2033 
G01 X-20.7220 Y13.1794 
G01 X-20.6878 Y13.1531 
G01 X-20.6504 Y13.1315 
G01 X-20.6105 Y13.1150 
G01 X-20.5718 Y13.0959 
G01 X-20.5310 Y13.0820 
G01 X-20.4886 Y13.0736 
G01 X-20.4469 Y13.0624 
G01 X-20.4041 Y13.0568 
G01 X-20.3610 Y13.0568 
G01 X-20.3179 Y13.0540 
G01 X-20.2748 Y13.0568 
G01 X-20.2325 Y13.0652 
G01 X-20.1897 Y13.0709 
G01 X-20.1480 Y13.0820 
G01 X-20.1082 Y13.0985 
G01 X-20.0673 Y13.1124 
G01 X-20.0286 Y13.1315 
G01 X-20.0239 Y12.9668 
G01 X-20.1536 Y12.8371 
G01 X-20.2643 Y12.6714 
G01 X-20.3406 Y12.4872 
G01 X-20.3795 Y12.2917 
G01 X-20.3795 Y10.5683 
G01 X-20.3406 Y10.3728 
G01 X-20.2643 Y10.1886 
G01 X-20.1536 Y10.0229 
G01 X-20.0239 Y9.8932 
G01 X-20.0239 Y9.1568 
G01 X-20.1536 Y9.0271 
G01 X-20.2643 Y8.8614 
G01 X-20.3406 Y8.6772 
G01 X-20.3795 Y8.4817 
G01 X-20.3795 Y6.7583 
G01 X-20.3406 Y6.5628 
G01 X-20.2643 Y6.3786 
G01 X-20.1536 Y6.2129 
G01 X-20.0239 Y6.0832 
G01 X-20.0239 Y5.9154 
G01 X-20.0673 Y5.9376 
G01 X-20.1082 Y5.9515 
G01 X-20.1480 Y5.9680 
G01 X-20.1897 Y5.9791 
G01 X-20.2325 Y5.9848 
G01 X-20.2748 Y5.9932 
G01 X-20.3179 Y5.9960 
G01 X-20.3610 Y5.9932 
G01 X-20.4041 Y5.9932 
G01 X-20.4469 Y5.9876 
G01 X-20.4886 Y5.9764 
G01 X-20.5310 Y5.9680 
G01 X-20.5718 Y5.9541 
G01 X-20.6105 Y5.9350 
G01 X-20.6504 Y5.9185 
G01 X-20.6878 Y5.8969 
G01 X-20.7220 Y5.8706 
G01 X-20.7579 Y5.8467 
G01 X-20.7904 Y5.8182 
G01 X-20.8188 Y5.7857 
G01 X-21.0783 Y5.5263 
G01 X-21.1470 Y5.4654 
G01 X-21.1935 Y5.4190 
G01 X-21.2213 Y5.3774 
G01 X-21.2653 Y5.3115 
G01 X-21.2902 Y5.2514 
G01 X-21.3148 Y5.1920 
G01 X-21.3315 Y5.1079 
G01 X-21.3400 Y5.0652 
G01 X-21.3400 Y5.0013 
G01 X-21.3400 Y4.0628 
G01 X-21.3148 Y3.9360 
G01 X-21.2653 Y3.8166 
G01 X-21.1935 Y3.7091 
G01 X-21.1020 Y3.6176 
G01 X-20.9945 Y3.5458 
G01 X-20.8751 Y3.4963 
G01 X-20.7482 Y3.4711 
G01 X-18.7840 Y3.4711 
G01 X-18.7840 Y3.2746 
G01 X-18.7454 Y3.0806 
G01 X-18.6697 Y2.8979 
G01 X-18.5599 Y2.7335 
G01 X-18.4200 Y2.5936 
G01 X-18.2556 Y2.4838 
G01 X-18.0729 Y2.4081 
G01 X-17.8789 Y2.3695 
G01 X-17.6811 Y2.3695 
G01 X-17.4871 Y2.4081 
G01 X-17.3044 Y2.4838 
G01 X-17.1400 Y2.5936 
G01 X-17.0001 Y2.7335 
G01 X-16.8903 Y2.8979 
G01 X-16.8146 Y3.0806 
G01 X-16.7760 Y3.2746 
G01 X-16.7760 Y4.9804 
G01 X-16.8146 Y5.1744 
G01 X-16.8903 Y5.3571 
G01 X-16.9648 Y5.4687 
G01 X-16.9648 Y7.5110 
G01 X-16.7844 Y7.9467 
G01 X-16.3010 Y8.4301 
G01 X-15.6693 Y8.6917 
G01 X-14.9857 Y8.6917 
G01 X-14.3177 Y8.2844 
G01 X-14.2793 Y8.2296 
G01 X-14.2516 Y8.1979 
G01 X-14.2188 Y8.1691 
G01 X-13.9460 Y7.8963 
G01 X-13.6979 Y7.2974 
G01 X-13.6979 Y6.9043 
G01 X-13.6727 Y6.7775 
G01 X-13.6232 Y6.6581 
G01 X-13.5514 Y6.5506 
G01 X-13.4599 Y6.4591 
G01 X-13.3524 Y6.3873 
G01 X-13.2330 Y6.3378 
G01 X-13.1062 Y6.3126 
G01 X-12.4153 Y6.3126 
G01 X-11.8893 Y6.0947 
G01 X-11.4868 Y5.6922 
G01 X-11.2689 Y5.1662 
G01 X-11.2689 Y4.8922 
G01 X-11.2689 Y4.8277 
G01 X-11.2689 Y4.7752 
G01 X-11.2539 Y4.6998 
G01 X-11.2437 Y4.6483 
G01 X-11.2143 Y4.5774 
G01 X-11.1942 Y4.5289 
G01 X-11.1515 Y4.4650 
G01 X-11.1224 Y4.4214 
G01 X-11.0680 Y4.3671 
G01 X-11.0309 Y4.3300 
G01 X-10.9671 Y4.2873 
G01 X-10.9234 Y4.2581 
G01 X-10.8525 Y4.2287 
G01 X-10.8040 Y4.2086 
G01 X-10.7286 Y4.1937 
G01 X-10.6771 Y4.1834 
G01 X-10.6003 Y4.1834 
G01 X-10.5478 Y4.1834 
G01 X-8.8294 Y4.2490 
G01 X-8.7768 Y4.2490 
G01 X-8.7015 Y4.2640 
G01 X-8.6500 Y4.2742 
G01 X-8.5791 Y4.3036 
G01 X-8.5306 Y4.3237 
G01 X-8.4667 Y4.3664 
G01 X-8.4231 Y4.3955 
G01 X-8.3687 Y4.4499 
G01 X-4.2052 Y8.6134 
G01 X-4.1596 Y8.6590 
G01 X-4.1291 Y8.6895 
G01 X-4.1028 Y8.7238 
G01 X-4.0812 Y8.7612 
G01 X-4.0573 Y8.7970 
G01 X-4.0382 Y8.8357 
G01 X-4.0243 Y8.8766 
G01 X-4.0078 Y8.9165 
G01 X-3.9966 Y8.9582 
G01 X-3.9910 Y9.0010 
G01 X-3.9826 Y9.0433 
G01 X-3.3001 Y9.7416 
G01 X-3.2283 Y9.8491 
G01 X-3.2110 Y9.8910 
G01 X-3.0669 Y9.8910 
G01 X-2.8922 Y9.9257 
G01 X-2.7277 Y9.9938 
G01 X-2.5796 Y10.0928 
G01 X-2.4537 Y10.2187 
G00 Z1.5000 
G00 X-4.8996 Y9.9987 
G01 Z-0.1778 F254.00 
G01 X-4.9960 Y9.9023 F800.00 
G01 X-5.0426 Y9.9292 
G01 X-5.1506 Y10.0121 
G01 X-5.2469 Y10.1084 
G01 X-5.2701 Y10.1386 
G01 X-5.0861 Y10.1386 
G01 X-5.0403 Y10.0928 
G01 X-4.8996 Y9.9987 
G00 Z1.5000 
G00 X-9.6475 Y10.0410 
G01 Z-0.1778 F254.00 
G01 X-10.0219 Y9.6665 F800.00 
G01 X-10.5112 Y9.4638 
G01 X-12.3488 Y9.4638 
G01 X-12.8381 Y9.6665 
G01 X-13.1379 Y9.9664 
G01 X-13.1836 Y10.0121 
G01 X-13.2234 Y10.0518 
G01 X-13.2841 Y10.0924 
G01 X-13.3309 Y10.1236 
G01 X-13.5041 Y10.5125 
G01 X-13.5041 Y11.0775 
G01 X-13.2856 Y11.6050 
G01 X-13.2361 Y11.7245 
G01 X-13.2109 Y11.8513 
G01 X-13.2109 Y11.9806 
G01 X-13.2361 Y12.1074 
G01 X-13.2841 Y12.2234 
G01 X-13.3574 Y12.3344 
G01 X-13.8605 Y12.8375 
G01 X-13.9520 Y12.9289 
G01 X-14.0595 Y13.0008 
G01 X-14.1755 Y13.0488 
G01 X-14.3057 Y13.0755 
G01 X-14.4350 Y13.0755 
G01 X-14.5619 Y13.0503 
G01 X-14.9857 Y12.8747 
G01 X-15.6693 Y12.8747 
G01 X-16.3010 Y13.1363 
G01 X-16.7844 Y13.6198 
G01 X-17.0460 Y14.2514 
G01 X-17.0460 Y14.9350 
G01 X-16.7844 Y15.5667 
G01 X-16.3010 Y16.0501 
G01 X-16.2176 Y16.1025 
G01 X-16.1805 Y16.1273 
G01 X-16.0890 Y16.2187 
G01 X-16.0548 Y16.2700 
G01 X-16.0172 Y16.3262 
G01 X-16.0037 Y16.3588 
G01 X-15.9677 Y16.4457 
G01 X-15.9425 Y16.5725 
G01 X-15.9425 Y17.5130 
G01 X-14.9730 Y18.4825 
G01 X-13.9671 Y18.4825 
G01 X-13.8403 Y18.5077 
G01 X-13.7208 Y18.5572 
G01 X-13.6133 Y18.6290 
G01 X-13.5219 Y18.7205 
G01 X-13.4500 Y18.8280 
G01 X-13.2879 Y19.2194 
G01 X-12.8884 Y19.6189 
G01 X-12.3665 Y19.8350 
G01 X-12.3178 Y19.8350 
G01 X-12.1910 Y19.8603 
G01 X-12.0716 Y19.9098 
G01 X-11.9641 Y19.9816 
G01 X-11.8947 Y20.0510 
G01 X-10.6869 Y20.0510 
G01 X-10.5122 Y20.0857 
G01 X-10.3477 Y20.1538 
G01 X-10.1997 Y20.2528 
G01 X-10.0737 Y20.3787 
G01 X-9.9748 Y20.5268 
G01 X-9.9066 Y20.6913 
G01 X-9.8719 Y20.8660 
G01 X-9.8719 Y21.0440 
G01 X-9.9066 Y21.2187 
G01 X-9.9748 Y21.3832 
G01 X-10.0737 Y21.5313 
G01 X-10.1997 Y21.6572 
G01 X-10.3477 Y21.7562 
G01 X-10.5122 Y21.8243 
G01 X-10.6869 Y21.8590 
G01 X-11.7261 Y21.8590 
G01 X-11.7261 Y22.5909 
G01 X-10.6869 Y22.5909 
G01 X-10.5122 Y22.6257 
G01 X-10.3477 Y22.6938 
G01 X-10.1997 Y22.7928 
G01 X-10.0737 Y22.9187 
G01 X-9.9748 Y23.0668 
G01 X-9.9066 Y23.2313 
G01 X-9.8719 Y23.4060 
G01 X-9.8719 Y23.5840 
G01 X-9.9066 Y23.7587 
G01 X-9.9748 Y23.9232 
G01 X-10.0737 Y24.0713 
G01 X-10.1997 Y24.1972 
G01 X-10.3477 Y24.2962 
G01 X-10.5122 Y24.3643 
G01 X-10.6869 Y24.3990 
G01 X-12.1731 Y24.3990 
G01 X-12.3275 Y24.3683 
G01 X-12.5076 Y24.5484 
G01 X-12.5991 Y24.6399 
G01 X-12.7066 Y24.7117 
G01 X-12.8260 Y24.7612 
G01 X-12.9528 Y24.7864 
G01 X-14.2156 Y24.7864 
G01 X-14.3373 Y24.8374 
G01 X-14.4641 Y24.8626 
G01 X-14.8382 Y24.8626 
G01 X-15.2691 Y25.0411 
G01 X-16.8491 Y26.6211 
G01 X-16.9566 Y26.6929 
G01 X-17.0760 Y26.7424 
G01 X-17.2029 Y26.7676 
G01 X-19.3340 Y26.7676 
G01 X-19.4363 Y26.7472 
G01 X-19.5173 Y26.7190 
G01 X-19.5803 Y26.6929 
G01 X-19.6878 Y26.6211 
G01 X-19.7288 Y26.5800 
G01 X-20.3184 Y26.3358 
G01 X-20.9566 Y26.3358 
G01 X-21.5462 Y26.5800 
G01 X-22.0360 Y27.0698 
G01 X-22.0878 Y27.1278 
G01 X-22.1398 Y27.1798 
G01 X-22.1932 Y27.2155 
G01 X-22.2473 Y27.2517 
G01 X-22.3134 Y27.2790 
G01 X-22.3668 Y27.3011 
G01 X-22.4409 Y27.3159 
G01 X-22.4936 Y27.3264 
G01 X-22.5585 Y27.3264 
G01 X-22.6229 Y27.3264 
G01 X-23.8308 Y27.3264 
G01 X-23.9577 Y27.3012 
G01 X-24.0771 Y27.2517 
G01 X-24.1846 Y27.1799 
G01 X-24.7359 Y26.6286 
G01 X-25.0092 Y26.5154 
G01 X-25.0626 Y26.4933 
G01 X-25.1286 Y26.4659 
G01 X-25.1727 Y26.4364 
G01 X-25.7335 Y26.2024 
G01 X-27.6065 Y26.2024 
G01 X-28.1284 Y26.4186 
G01 X-28.1978 Y26.4880 
G01 X-28.3053 Y26.5598 
G01 X-28.5753 Y26.6717 
G01 X-29.6526 Y27.7490 
G01 X-29.7441 Y27.8404 
G01 X-29.8305 Y27.9268 
G01 X-29.8488 Y28.0191 
G01 X-29.8983 Y28.1386 
G01 X-29.9701 Y28.2461 
G01 X-30.0532 Y28.3291 
G01 X-30.2046 Y28.6947 
G01 X-30.2046 Y41.4728 
G01 X-30.0532 Y41.8384 
G01 X-29.9701 Y41.9214 
G01 X-29.8983 Y42.0289 
G01 X-29.8488 Y42.1484 
G01 X-29.8305 Y42.2407 
G01 X-29.7987 Y42.2725 
G01 X-28.8052 Y43.2659 
G01 X-28.7138 Y43.3574 
G01 X-28.6624 Y43.4343 
G01 X-27.9610 Y44.1357 
G01 X-27.6065 Y44.2825 
G01 X-25.7335 Y44.2825 
G01 X-25.5153 Y44.1922 
G01 X-25.3956 Y44.1684 
G01 X-25.2591 Y44.1669 
G01 X-25.1323 Y44.1922 
G01 X-25.0129 Y44.2416 
G01 X-24.9690 Y44.2710 
G01 X-24.9054 Y44.3135 
G01 X-24.8139 Y44.4049 
G01 X-24.7435 Y44.5103 
G01 X-24.6926 Y44.6319 
G01 X-24.6688 Y44.7515 
G01 X-24.6674 Y45.6357 
G01 X-24.4889 Y46.0666 
G01 X-22.8028 Y47.7527 
G01 X-22.7114 Y47.8441 
G01 X-22.6396 Y47.9516 
G01 X-22.5901 Y48.0711 
G01 X-22.5649 Y48.1979 
G01 X-22.5649 Y48.3272 
G01 X-22.5901 Y48.4540 
G01 X-22.6396 Y48.5735 
G01 X-22.6859 Y48.6429 
G01 X-22.9275 Y49.2261 
G01 X-22.9275 Y49.8339 
G01 X-22.6873 Y50.4138 
G01 X-22.6639 Y50.4488 
G01 X-22.6370 Y50.4891 
G01 X-22.6052 Y50.5658 
G01 X-22.5875 Y50.6085 
G01 X-22.5735 Y50.6790 
G01 X-22.5623 Y50.7353 
G01 X-22.5623 Y50.8007 
G01 X-22.5623 Y50.8646 
G01 X-22.5749 Y50.9281 
G01 X-22.5875 Y50.9915 
G01 X-22.6077 Y51.0402 
G01 X-22.6370 Y51.1109 
G01 X-22.6628 Y51.1495 
G01 X-22.6873 Y51.1862 
G01 X-22.9275 Y51.7661 
G01 X-22.9275 Y52.3739 
G01 X-22.6949 Y52.9355 
G01 X-22.4717 Y53.1587 
G01 X-22.4393 Y53.1871 
G01 X-22.4108 Y53.2196 
G01 X-22.3869 Y53.2555 
G01 X-22.3606 Y53.2897 
G01 X-22.3390 Y53.3271 
G01 X-22.3225 Y53.3670 
G01 X-22.3034 Y53.4057 
G01 X-22.2895 Y53.4465 
G01 X-22.2811 Y53.4889 
G01 X-22.2699 Y53.5306 
G01 X-22.2643 Y53.5733 
G01 X-22.2643 Y53.6165 
G01 X-22.2615 Y53.6596 
G01 X-22.2643 Y53.7026 
G01 X-22.2727 Y53.7450 
G01 X-22.2784 Y53.7878 
G01 X-22.2895 Y53.8295 
G01 X-22.3060 Y53.8693 
G01 X-22.3199 Y53.9102 
G01 X-22.3390 Y53.9489 
G01 X-22.1743 Y53.9536 
G01 X-22.0446 Y53.8239 
G01 X-21.8789 Y53.7132 
G01 X-21.6947 Y53.6369 
G01 X-21.4992 Y53.5980 
G01 X-19.7758 Y53.5980 
G01 X-19.5803 Y53.6369 
G01 X-19.3961 Y53.7132 
G01 X-19.2304 Y53.8239 
G01 X-19.1007 Y53.9536 
G01 X-18.9329 Y53.9536 
G01 X-18.9551 Y53.9102 
G01 X-18.9689 Y53.8693 
G01 X-18.9855 Y53.8295 
G01 X-18.9966 Y53.7878 
G01 X-19.0023 Y53.7450 
G01 X-19.0107 Y53.7026 
G01 X-19.0135 Y53.6596 
G01 X-19.0107 Y53.6165 
G01 X-19.0107 Y53.5733 
G01 X-19.0051 Y53.5306 
G01 X-18.9939 Y53.4889 
G01 X-18.9855 Y53.4465 
G01 X-18.9716 Y53.4057 
G01 X-18.9525 Y53.3670 
G01 X-18.9360 Y53.3271 
G01 X-18.9144 Y53.2897 
G01 X-18.8881 Y53.2555 
G01 X-18.8642 Y53.2196 
G01 X-18.8357 Y53.1871 
G01 X-18.8032 Y53.1587 
G01 X-18.5801 Y52.9355 
G01 X-18.3475 Y52.3739 
G01 X-18.3475 Y51.7661 
G01 X-18.5877 Y51.1862 
G01 X-18.6141 Y51.1467 
G01 X-18.6380 Y51.1109 
G01 X-18.6677 Y51.0392 
G01 X-18.6875 Y50.9915 
G01 X-18.7003 Y50.9267 
G01 X-18.7127 Y50.8647 
G01 X-18.7127 Y50.7993 
G01 X-18.7127 Y50.7354 
G01 X-18.7012 Y50.6777 
G01 X-18.6875 Y50.6086 
G01 X-18.6692 Y50.5644 
G01 X-18.6380 Y50.4891 
G01 X-18.6104 Y50.4477 
G01 X-18.5877 Y50.4138 
G01 X-18.3475 Y49.8339 
G01 X-18.3475 Y49.2261 
G01 X-18.5877 Y48.6462 
G01 X-18.6141 Y48.6067 
G01 X-18.6380 Y48.5709 
G01 X-18.6677 Y48.4992 
G01 X-18.6875 Y48.4515 
G01 X-18.7003 Y48.3867 
G01 X-18.7127 Y48.3247 
G01 X-18.7127 Y48.2593 
G01 X-18.7127 Y48.1954 
G01 X-18.7012 Y48.1377 
G01 X-18.6875 Y48.0686 
G01 X-18.6692 Y48.0244 
G01 X-18.6380 Y47.9491 
G01 X-18.6104 Y47.9077 
G01 X-18.5877 Y47.8738 
G01 X-18.3475 Y47.2939 
G01 X-18.3475 Y46.6861 
G01 X-18.4234 Y46.5029 
G01 X-18.4728 Y46.3835 
G01 X-18.4981 Y46.2566 
G01 X-18.4981 Y46.1273 
G01 X-18.4728 Y46.0005 
G01 X-18.4234 Y45.8811 
G01 X-18.3515 Y45.7736 
G01 X-18.2615 Y45.6836 
G01 X-18.1526 Y45.6103 
G01 X-17.7509 Y45.4439 
G01 X-17.2539 Y44.9469 
G01 X-16.7861 Y44.4791 
G01 X-16.6076 Y44.0482 
G01 X-16.6076 Y44.0196 
G01 X-16.5824 Y43.8928 
G01 X-16.5530 Y43.8218 
G01 X-16.5329 Y43.7733 
G01 X-16.4611 Y43.6658 
G01 X-16.3696 Y43.5744 
G01 X-16.3141 Y43.5373 
G01 X-16.2621 Y43.5026 
G01 X-16.2247 Y43.4871 
G01 X-16.1427 Y43.4531 
G01 X-16.0159 Y43.4279 
G01 X-15.8865 Y43.4279 
G01 X-15.7597 Y43.4531 
G01 X-15.6887 Y43.4825 
G01 X-15.6403 Y43.5026 
G01 X-15.5328 Y43.5744 
G01 X-15.4413 Y43.6658 
G01 X-15.3829 Y43.7242 
G01 X-14.8717 Y43.9360 
G01 X-13.0683 Y43.9360 
G01 X-12.5571 Y43.7242 
G01 X-12.1658 Y43.3329 
G01 X-12.1626 Y41.7647 
G01 X-12.5571 Y41.3658 
G01 X-13.0871 Y41.1462 
G01 X-13.1946 Y41.0744 
G01 X-13.2861 Y40.9829 
G01 X-13.3565 Y40.8776 
G01 X-13.4074 Y40.7560 
G01 X-13.4312 Y40.6364 
G01 X-13.4326 Y39.4543 
G01 X-13.6111 Y39.0234 
G01 X-13.6741 Y38.9318 
G01 X-13.6997 Y38.8831 
G01 X-14.0991 Y38.4837 
G01 X-14.6210 Y38.2675 
G01 X-15.4297 Y38.2675 
G01 X-15.5566 Y38.2423 
G01 X-15.6760 Y38.1928 
G01 X-15.7835 Y38.1210 
G01 X-16.3171 Y37.5874 
G01 X-16.3889 Y37.4799 
G01 X-16.4384 Y37.3604 
G01 X-16.5923 Y36.9889 
G01 X-16.6503 Y36.9309 
G01 X-16.7221 Y36.8234 
G01 X-16.7602 Y36.7315 
G01 X-16.7716 Y36.7040 
G01 X-16.7820 Y36.6514 
G01 X-16.7968 Y36.5771 
G01 X-16.7968 Y36.4478 
G01 X-16.7815 Y36.3707 
G01 X-16.7716 Y36.3210 
G01 X-16.7412 Y36.2476 
G01 X-16.7221 Y36.2016 
G01 X-16.6502 Y36.0941 
G01 X-16.5923 Y36.0361 
G01 X-16.3790 Y35.5212 
G01 X-16.3790 Y34.9638 
G01 X-16.5923 Y34.4489 
G01 X-16.8576 Y34.1836 
G01 X-16.9033 Y34.1379 
G01 X-16.9338 Y34.1074 
G01 X-16.9600 Y34.0732 
G01 X-16.9816 Y34.0358 
G01 X-17.0056 Y33.9999 
G01 X-17.0247 Y33.9612 
G01 X-17.0386 Y33.9203 
G01 X-17.0551 Y33.8805 
G01 X-17.0663 Y33.8388 
G01 X-17.0719 Y33.7960 
G01 X-17.0803 Y33.7536 
G01 X-17.0831 Y33.7106 
G01 X-17.0803 Y33.6675 
G01 X-17.0803 Y33.6243 
G01 X-17.0747 Y33.5815 
G01 X-17.0635 Y33.5399 
G01 X-17.0551 Y33.4975 
G01 X-17.0412 Y33.4566 
G01 X-17.0221 Y33.4179 
G01 X-17.0056 Y33.3781 
G01 X-17.1848 Y33.3589 
G01 X-17.2158 Y33.3899 
G01 X-17.3608 Y33.4868 
G01 X-17.5219 Y33.5535 
G01 X-17.6928 Y33.5875 
G01 X-19.1372 Y33.5875 
G01 X-19.3081 Y33.5535 
G01 X-19.4692 Y33.4868 
G01 X-19.6142 Y33.3899 
G01 X-19.7374 Y33.2667 
G01 X-19.8343 Y33.1217 
G01 X-19.9010 Y32.9606 
G01 X-19.9350 Y32.7897 
G01 X-19.9350 Y32.6153 
G01 X-19.9010 Y32.4444 
G01 X-19.8343 Y32.2833 
G01 X-19.7374 Y32.1383 
G01 X-19.6142 Y32.0151 
G01 X-19.4692 Y31.9182 
G01 X-19.3081 Y31.8515 
G01 X-19.1372 Y31.8175 
G01 X-17.6928 Y31.8175 
G01 X-17.5219 Y31.8515 
G01 X-17.3608 Y31.9182 
G01 X-17.2158 Y32.0151 
G01 X-17.1848 Y32.0461 
G01 X-16.4453 Y32.0461 
G01 X-16.3185 Y32.0713 
G01 X-16.1991 Y32.1208 
G01 X-16.0916 Y32.1926 
G01 X-14.8726 Y33.4117 
G01 X-14.5207 Y33.5574 
G01 X-12.7843 Y33.5574 
G01 X-12.7073 Y33.5255 
G01 X-12.3534 Y33.3789 
G01 X-11.9770 Y33.0025 
G01 X-10.1142 Y31.1397 
G01 X-10.0349 Y31.0141 
G01 X-9.9434 Y30.9226 
G01 X-9.5245 Y30.5037 
G01 X-9.7115 Y30.3168 
G01 X-9.7115 Y29.3732 
G01 X-9.0443 Y28.7060 
G01 X-9.0147 Y28.6951 
G01 X-8.9502 Y28.6474 
G01 X-8.9107 Y28.6182 
G01 X-8.2431 Y27.9523 
G01 X-8.2318 Y27.8954 
G01 X-8.2014 Y27.8220 
G01 X-8.1823 Y27.7760 
G01 X-8.1105 Y27.6684 
G01 X-8.0145 Y27.5725 
G01 X-7.8573 Y27.1929 
G01 X-7.8573 Y16.9396 
G01 X-8.0145 Y16.5600 
G01 X-8.3516 Y16.2229 
G01 X-9.5566 Y15.0179 
G01 X-9.6481 Y14.9265 
G01 X-9.6995 Y14.8495 
G01 X-9.7199 Y14.8190 
G01 X-9.7474 Y14.7525 
G01 X-9.7694 Y14.6995 
G01 X-9.7850 Y14.6210 
G01 X-9.7946 Y14.5727 
G01 X-9.7946 Y14.5073 
G01 X-9.7946 Y14.4434 
G01 X-9.7844 Y14.3922 
G01 X-9.7694 Y14.3166 
G01 X-9.7243 Y14.2077 
G01 X-9.6480 Y14.0896 
G01 X-9.4448 Y13.5998 
G01 X-9.4448 Y13.0702 
G01 X-9.6475 Y12.5810 
G01 X-9.7450 Y12.4834 
G01 X-9.7936 Y12.4106 
G01 X-9.8168 Y12.3759 
G01 X-9.8663 Y12.2565 
G01 X-9.8818 Y12.1787 
G01 X-9.8915 Y12.1296 
G01 X-9.8915 Y12.0003 
G01 X-9.8786 Y11.9356 
G01 X-9.8663 Y11.8735 
G01 X-9.8359 Y11.8001 
G01 X-9.8168 Y11.7541 
G01 X-9.7450 Y11.6466 
G01 X-9.6474 Y11.5490 
G01 X-9.4448 Y11.0598 
G01 X-9.4448 Y10.5302 
G01 X-9.6475 Y10.0410 
G00 Z1.5000 
G00 X-10.0737 Y10.2187 
G01 Z-0.1778 F254.00 
G01 X-9.9748 Y10.3668 F800.00 
G01 X-9.9066 Y10.5313 
G01 X-9.8719 Y10.7060 
G01 X-9.8719 Y10.8840 
G01 X-9.9066 Y11.0587 
G01 X-9.9748 Y11.2232 
G01 X-10.0737 Y11.3713 
G01 X-10.1997 Y11.4972 
G01 X-10.3477 Y11.5962 
G01 X-10.5122 Y11.6643 
G01 X-10.6869 Y11.6990 
G01 X-10.7736 Y11.6990 
G01 X-10.7736 Y12.4309 
G01 X-10.6869 Y12.4309 
G01 X-10.5122 Y12.4657 
G01 X-10.3477 Y12.5338 
G01 X-10.1997 Y12.6328 
G01 X-10.0737 Y12.7587 
G01 X-9.9748 Y12.9068 
G01 X-9.9066 Y13.0713 
G01 X-9.8719 Y13.2460 
G01 X-9.8719 Y13.4240 
G01 X-9.9066 Y13.5987 
G01 X-9.9748 Y13.7632 
G01 X-10.0737 Y13.9113 
G01 X-10.1997 Y14.0372 
G01 X-10.3477 Y14.1362 
G01 X-10.5122 Y14.2043 
G01 X-10.6869 Y14.2390 
G01 X-12.1731 Y14.2390 
G01 X-12.3477 Y14.2043 
G01 X-12.5123 Y14.1362 
G01 X-12.5486 Y14.1119 
G01 X-13.3014 Y14.8647 
G01 X-13.4601 Y15.0234 
G01 X-13.6311 Y15.1944 
G01 X-13.6311 Y15.8731 
G01 X-13.1485 Y16.3557 
G01 X-13.1485 Y17.2993 
G01 X-13.8157 Y17.9665 
G01 X-14.7593 Y17.9665 
G01 X-15.4265 Y17.2993 
G01 X-15.4265 Y16.3557 
G01 X-14.9439 Y15.8731 
G01 X-14.9439 Y15.7329 
G01 X-15.0459 Y15.7661 
G01 X-15.2329 Y15.7957 
G01 X-15.4221 Y15.7957 
G01 X-15.6091 Y15.7661 
G01 X-15.7891 Y15.7076 
G01 X-15.9578 Y15.6217 
G01 X-16.1109 Y15.5104 
G01 X-16.2447 Y15.3766 
G01 X-16.3560 Y15.2235 
G01 X-16.4419 Y15.0548 
G01 X-16.5004 Y14.8748 
G01 X-16.5300 Y14.6878 
G01 X-16.5300 Y14.4986 
G01 X-16.5004 Y14.3116 
G01 X-16.4419 Y14.1316 
G01 X-16.3560 Y13.9630 
G01 X-16.2447 Y13.8098 
G01 X-16.1109 Y13.6760 
G01 X-15.9578 Y13.5647 
G01 X-15.7891 Y13.4788 
G01 X-15.6091 Y13.4203 
G01 X-15.4221 Y13.3907 
G01 X-15.2329 Y13.3907 
G01 X-15.0459 Y13.4203 
G01 X-14.8659 Y13.4788 
G01 X-14.6973 Y13.5647 
G01 X-14.5441 Y13.6760 
G01 X-14.4103 Y13.8098 
G01 X-14.3095 Y13.9486 
G01 X-14.2419 Y13.9486 
G01 X-13.1184 Y12.8251 
G01 X-13.0109 Y12.7533 
G01 X-12.8915 Y12.7038 
G01 X-12.7646 Y12.6786 
G01 X-12.7062 Y12.6786 
G01 X-12.6603 Y12.6328 
G01 X-12.5123 Y12.5338 
G01 X-12.3477 Y12.4657 
G01 X-12.1731 Y12.4309 
G01 X-12.0864 Y12.4309 
G01 X-12.0864 Y11.6990 
G01 X-12.1731 Y11.6990 
G01 X-12.3477 Y11.6643 
G01 X-12.5123 Y11.5962 
G01 X-12.6603 Y11.4972 
G01 X-12.7863 Y11.3713 
G01 X-12.8852 Y11.2232 
G01 X-12.9534 Y11.0587 
G01 X-12.9881 Y10.8840 
G01 X-12.9881 Y10.7060 
G01 X-12.9534 Y10.5313 
G01 X-12.8852 Y10.3668 
G01 X-12.7863 Y10.2187 
G01 X-12.6603 Y10.0928 
G01 X-12.5123 Y9.9938 
G01 X-12.3477 Y9.9257 
G01 X-12.1731 Y9.8910 
G01 X-10.6869 Y9.8910 
G01 X-10.5122 Y9.9257 
G01 X-10.3477 Y9.9938 
G01 X-10.1997 Y10.0928 
G01 X-10.0737 Y10.2187 
G00 Z1.5000 
G00 X-10.1004 Y15.2694 
G01 Z-0.1778 F254.00 
G01 X-9.9833 Y15.2927 F800.00 
G01 X-9.8731 Y15.3383 
G01 X-9.7739 Y15.4046 
G01 X-8.5039 Y16.6746 
G01 X-8.4196 Y16.7589 
G01 X-8.3533 Y16.8581 
G01 X-8.3077 Y16.9684 
G01 X-8.2844 Y17.0853 
G01 X-8.2844 Y27.0471 
G01 X-8.3077 Y27.1641 
G01 X-8.3533 Y27.2744 
G01 X-8.4196 Y27.3735 
G01 X-10.4561 Y29.4100 
G01 X-10.4561 Y30.5447 
G01 X-10.4813 Y30.6715 
G01 X-10.5308 Y30.7909 
G01 X-10.6026 Y30.8984 
G01 X-12.5076 Y32.8034 
G01 X-12.5991 Y32.8949 
G01 X-12.7066 Y32.9667 
G01 X-12.8260 Y33.0162 
G01 X-12.9528 Y33.0414 
G01 X-14.3521 Y33.0414 
G01 X-14.4790 Y33.0162 
G01 X-14.5984 Y32.9667 
G01 X-14.7059 Y32.8949 
G01 X-16.7819 Y30.8189 
G01 X-19.4131 Y30.8189 
G01 X-21.7151 Y33.1209 
G01 X-21.8066 Y33.2124 
G01 X-21.9141 Y33.2842 
G01 X-22.0335 Y33.3337 
G01 X-22.1603 Y33.3589 
G01 X-25.3938 Y33.3589 
G01 X-25.4397 Y33.4047 
G01 X-25.5877 Y33.5037 
G01 X-25.7522 Y33.5718 
G01 X-25.9269 Y33.6065 
G01 X-27.4131 Y33.6065 
G01 X-27.5877 Y33.5718 
G01 X-27.7523 Y33.5037 
G01 X-27.9003 Y33.4047 
G01 X-28.0263 Y33.2788 
G01 X-28.1252 Y33.1307 
G01 X-28.1934 Y32.9662 
G01 X-28.2281 Y32.7915 
G01 X-28.2281 Y32.6135 
G01 X-28.1934 Y32.4388 
G01 X-28.1252 Y32.2743 
G01 X-28.0263 Y32.1262 
G01 X-27.9003 Y32.0003 
G01 X-27.7523 Y31.9013 
G01 X-27.5877 Y31.8332 
G01 X-27.4131 Y31.7984 
G01 X-25.9269 Y31.7984 
G01 X-25.7522 Y31.8332 
G01 X-25.5877 Y31.9013 
G01 X-25.4397 Y32.0003 
G01 X-25.3938 Y32.0461 
G01 X-22.4969 Y32.0461 
G01 X-20.1949 Y29.7441 
G01 X-20.1034 Y29.6526 
G01 X-19.9959 Y29.5808 
G01 X-19.8765 Y29.5313 
G01 X-19.7496 Y29.5061 
G01 X-16.4453 Y29.5061 
G01 X-16.3185 Y29.5313 
G01 X-16.1991 Y29.5808 
G01 X-16.0916 Y29.6526 
G01 X-14.0156 Y31.7286 
G01 X-13.2894 Y31.7286 
G01 X-11.7689 Y30.2081 
G01 X-11.7689 Y29.1453 
G01 X-11.7437 Y29.0185 
G01 X-11.6942 Y28.8991 
G01 X-11.6224 Y28.7916 
G01 X-11.5309 Y28.7001 
G01 X-11.4234 Y28.6283 
G01 X-11.3617 Y28.6027 
G01 X-9.4956 Y26.7367 
G01 X-9.4956 Y17.3958 
G01 X-10.2683 Y16.6231 
G01 X-10.3477 Y16.6762 
G01 X-10.5122 Y16.7443 
G01 X-10.6869 Y16.7790 
G01 X-12.1731 Y16.7790 
G01 X-12.3477 Y16.7443 
G01 X-12.5123 Y16.6762 
G01 X-12.6603 Y16.5772 
G01 X-12.7863 Y16.4513 
G01 X-12.8852 Y16.3032 
G01 X-12.9534 Y16.1387 
G01 X-12.9881 Y15.9640 
G01 X-12.9881 Y15.7860 
G01 X-12.9534 Y15.6113 
G01 X-12.8852 Y15.4468 
G01 X-12.7863 Y15.2987 
G01 X-12.6603 Y15.1728 
G01 X-12.5123 Y15.0738 
G01 X-12.3477 Y15.0057 
G01 X-12.1731 Y14.9710 
G01 X-10.6869 Y14.9710 
G01 X-10.5122 Y15.0057 
G01 X-10.3477 Y15.0738 
G01 X-10.1997 Y15.1728 
G01 X-10.1030 Y15.2694 
G00 Z1.5000 
G00 X-10.1997 Y17.7128 
G01 Z-0.1778 F254.00 
G01 X-10.0737 Y17.8387 F800.00 
G01 X-9.9748 Y17.9868 
G01 X-9.9066 Y18.1513 
G01 X-9.8719 Y18.3260 
G01 X-9.8719 Y18.5040 
G01 X-9.9066 Y18.6787 
G01 X-9.9748 Y18.8432 
G01 X-10.0737 Y18.9913 
G01 X-10.1997 Y19.1172 
G01 X-10.3477 Y19.2162 
G01 X-10.5122 Y19.2843 
G01 X-10.6869 Y19.3190 
G01 X-12.1731 Y19.3190 
G01 X-12.3477 Y19.2843 
G01 X-12.5123 Y19.2162 
G01 X-12.6603 Y19.1172 
G01 X-12.7863 Y18.9913 
G01 X-12.8852 Y18.8432 
G01 X-12.9534 Y18.6787 
G01 X-12.9881 Y18.5040 
G01 X-12.9881 Y18.3260 
G01 X-12.9534 Y18.1513 
G01 X-12.8852 Y17.9868 
G01 X-12.7863 Y17.8387 
G01 X-12.6603 Y17.7128 
G01 X-12.5123 Y17.6138 
G01 X-12.3477 Y17.5457 
G01 X-12.1731 Y17.5110 
G01 X-10.6869 Y17.5110 
G01 X-10.5122 Y17.5457 
G01 X-10.3477 Y17.6138 
G01 X-10.1997 Y17.7128 
G00 Z1.5000 
G00 X-5.0403 Y17.7128 
G01 Z-0.1778 F254.00 
G01 X-4.8923 Y17.6138 F800.00 
G01 X-4.7278 Y17.5457 
G01 X-4.5531 Y17.5110 
G01 X-3.0669 Y17.5110 
G01 X-2.8922 Y17.5457 
G01 X-2.7277 Y17.6138 
G01 X-2.5796 Y17.7128 
G01 X-2.4537 Y17.8387 
G01 X-2.3548 Y17.9868 
G01 X-2.2866 Y18.1513 
G01 X-2.2519 Y18.3260 
G01 X-2.2519 Y18.5040 
G01 X-2.2866 Y18.6787 
G01 X-2.3548 Y18.8432 
G01 X-2.4537 Y18.9913 
G01 X-2.5796 Y19.1172 
G01 X-2.7277 Y19.2162 
G01 X-2.8922 Y19.2843 
G01 X-3.0669 Y19.3190 
G01 X-4.5531 Y19.3190 
G01 X-4.7278 Y19.2843 
G01 X-4.8923 Y19.2162 
G01 X-5.0403 Y19.1172 
G01 X-5.1663 Y18.9913 
G01 X-5.2652 Y18.8432 
G01 X-5.3334 Y18.6787 
G01 X-5.3681 Y18.5040 
G01 X-5.3681 Y18.3260 
G01 X-5.3334 Y18.1513 
G01 X-5.2652 Y17.9868 
G01 X-5.1663 Y17.8387 
G01 X-5.0403 Y17.7128 
G00 Z1.5000 
G00 X-5.0403 Y20.2528 
G01 Z-0.1778 F254.00 
G01 X-4.8923 Y20.1538 F800.00 
G01 X-4.7278 Y20.0857 
G01 X-4.5531 Y20.0510 
G01 X-3.0669 Y20.0510 
G01 X-2.8922 Y20.0857 
G01 X-2.7277 Y20.1538 
G01 X-2.5796 Y20.2528 
G01 X-2.4537 Y20.3787 
G01 X-2.3548 Y20.5268 
G01 X-2.2866 Y20.6913 
G01 X-2.2519 Y20.8660 
G01 X-2.2519 Y21.0440 
G01 X-2.2866 Y21.2187 
G01 X-2.3548 Y21.3832 
G01 X-2.4537 Y21.5313 
G01 X-2.5796 Y21.6572 
G01 X-2.7277 Y21.7562 
G01 X-2.8922 Y21.8243 
G01 X-3.0669 Y21.8590 
G01 X-4.5531 Y21.8590 
G01 X-4.7278 Y21.8243 
G01 X-4.8923 Y21.7562 
G01 X-5.0403 Y21.6572 
G01 X-5.1663 Y21.5313 
G01 X-5.2652 Y21.3832 
G01 X-5.3334 Y21.2187 
G01 X-5.3681 Y21.0440 
G01 X-5.3681 Y20.8660 
G01 X-5.3334 Y20.6913 
G01 X-5.2652 Y20.5268 
G01 X-5.1663 Y20.3787 
G01 X-5.0403 Y20.2528 
G00 Z1.5000 
G00 X-3.1536 Y24.3990 
G01 Z-0.1778 F254.00 
G01 X-3.1536 Y25.1309 F800.00 
G01 X-3.0669 Y25.1309 
G01 X-2.8922 Y25.1657 
G01 X-2.7277 Y25.2338 
G01 X-2.5796 Y25.3328 
G01 X-2.5339 Y25.3786 
G01 X-2.3499 Y25.3786 
G01 X-2.3731 Y25.3484 
G01 X-2.5381 Y25.1834 
G01 X-2.6099 Y25.0759 
G01 X-2.6318 Y25.0230 
G01 X-2.6594 Y24.9565 
G01 X-2.6724 Y24.8909 
G01 X-2.6846 Y24.8297 
G01 X-2.6846 Y24.7003 
G01 X-2.6743 Y24.6485 
G01 X-2.6594 Y24.5735 
G01 X-2.6099 Y24.4541 
G01 X-2.5848 Y24.4165 
G01 X-2.5381 Y24.3466 
G01 X-2.4467 Y24.2551 
G01 X-2.3731 Y24.1816 
G01 X-2.3499 Y24.1514 
G01 X-2.5338 Y24.1514 
G01 X-2.5796 Y24.1972 
G01 X-2.7277 Y24.2962 
G01 X-2.8922 Y24.3643 
G01 X-3.0669 Y24.3990 
G01 X-3.1536 Y24.3990 
G00 Z1.5000 
G00 X-5.3761 Y29.5624 
G01 Z-0.1778 F254.00 
G01 X-5.3761 Y29.7533 F800.00 
G01 X-4.9883 Y30.1411 
G01 X-4.7974 Y30.1411 
G01 X-5.3761 Y29.5624 
G00 Z1.5000 
G00 X-6.6889 Y29.4600 
G01 Z-0.1778 F254.00 
G01 X-6.7424 Y29.4600 F800.00 
G01 X-6.8064 Y29.4727 
G01 X-6.8713 Y29.4728 
G01 X-6.9357 Y29.4728 
G01 X-6.9870 Y29.4626 
G01 X-7.0625 Y29.4476 
G01 X-7.1154 Y29.4257 
G01 X-7.1820 Y29.3981 
G01 X-7.2339 Y29.3634 
G01 X-7.2895 Y29.3263 
G01 X-7.3289 Y29.2869 
G01 X-7.3810 Y29.2348 
G01 X-7.5250 Y29.0908 
G01 X-7.6205 Y29.1863 
G01 X-7.4335 Y29.3732 
G01 X-7.4335 Y30.1411 
G01 X-7.0767 Y30.1411 
G01 X-6.6889 Y29.7533 
G01 X-6.6889 Y29.4600 
G00 Z1.5000 
G00 X-7.0767 Y31.4539 
G01 Z-0.1778 F254.00 
G01 X-7.2676 Y31.4539 F800.00 
G01 X-6.6889 Y32.0326 
G01 X-6.6889 Y31.8417 
G01 X-7.0767 Y31.4539 
G00 Z1.5000 
G00 X-5.3761 Y31.8417 
G01 Z-0.1778 F254.00 
G01 X-5.3761 Y32.0326 F800.00 
G01 X-4.7974 Y31.4539 
G01 X-4.9883 Y31.4539 
G01 X-5.3761 Y31.8417 
G00 Z1.5000 
G00 X-5.3979 Y34.8466 
G01 Z-0.1778 F254.00 
G01 X-5.5281 Y34.9218 F800.00 
G01 X-5.6474 Y35.0133 
G01 X-5.7537 Y35.1196 
G01 X-5.8316 Y35.2211 
G01 X-5.6643 Y35.2211 
G01 X-5.5346 Y35.0914 
G01 X-5.3689 Y34.9807 
G01 X-5.1847 Y34.9044 
G01 X-4.9892 Y34.8655 
G01 X-4.7839 Y34.8655 
G01 X-4.7839 Y34.7305 
G01 X-4.9647 Y34.7305 
G01 X-5.1137 Y34.7501 
G01 X-5.2590 Y34.7890 
G01 X-5.3979 Y34.8466 
G00 Z1.5000 
G00 X-5.3571 Y43.8778 
G01 Z-0.1778 F254.00 
G01 X-5.1744 Y43.8021 F800.00 
G01 X-4.9804 Y43.7635 
G01 X-3.2746 Y43.7635 
G01 X-3.0806 Y43.8021 
G01 X-2.8979 Y43.8778 
G01 X-2.7335 Y43.9876 
G01 X-2.5936 Y44.1275 
G01 X-2.4838 Y44.2919 
G01 X-2.4081 Y44.4746 
G01 X-2.3695 Y44.6686 
G01 X-2.3695 Y44.8664 
G01 X-2.4081 Y45.0604 
G01 X-2.4838 Y45.2431 
G01 X-2.5936 Y45.4075 
G01 X-2.7335 Y45.5474 
G01 X-2.8979 Y45.6572 
G01 X-3.0806 Y45.7329 
G01 X-3.2746 Y45.7715 
G01 X-4.9804 Y45.7715 
G01 X-5.1744 Y45.7329 
G01 X-5.3571 Y45.6572 
G01 X-5.5215 Y45.5474 
G01 X-5.6450 Y45.4239 
G01 X-5.7606 Y45.4239 
G01 X-7.5127 Y47.1760 
G01 X-7.4896 Y47.2105 
G01 X-7.4236 Y47.3698 
G01 X-7.3900 Y47.5388 
G01 X-7.3900 Y47.7112 
G01 X-7.4236 Y47.8802 
G01 X-7.4896 Y48.0395 
G01 X-7.5853 Y48.1828 
G01 X-7.7072 Y48.3047 
G01 X-7.8505 Y48.4004 
G01 X-8.0098 Y48.4664 
G01 X-8.1788 Y48.5000 
G01 X-9.6012 Y48.5000 
G01 X-9.7702 Y48.4664 
G01 X-9.9295 Y48.4004 
G01 X-10.0728 Y48.3047 
G01 X-10.1947 Y48.1828 
G01 X-10.2904 Y48.0395 
G01 X-10.3564 Y47.8802 
G01 X-10.3900 Y47.7112 
G01 X-10.3900 Y47.5388 
G01 X-10.3564 Y47.3698 
G01 X-10.2904 Y47.2105 
G01 X-10.1947 Y47.0672 
G01 X-10.0728 Y46.9453 
G01 X-9.9295 Y46.8496 
G01 X-9.7702 Y46.7836 
G01 X-9.6012 Y46.7500 
G01 X-8.9433 Y46.7500 
G01 X-6.4509 Y44.2576 
G01 X-6.3434 Y44.1858 
G01 X-6.2240 Y44.1363 
G01 X-6.0972 Y44.1111 
G01 X-5.6450 Y44.1111 
G01 X-5.5215 Y43.9876 
G01 X-5.3571 Y43.8778 
G00 Z1.5000 
G00 X-5.3571 Y46.4178 
G01 Z-0.1778 F254.00 
G01 X-5.1744 Y46.3421 F800.00 
G01 X-4.9804 Y46.3035 
G01 X-3.2746 Y46.3035 
G01 X-3.0806 Y46.3421 
G01 X-2.8979 Y46.4178 
G01 X-2.7335 Y46.5276 
G01 X-2.5936 Y46.6675 
G01 X-2.4838 Y46.8319 
G01 X-2.4081 Y47.0146 
G01 X-2.3695 Y47.2086 
G01 X-2.3695 Y47.4064 
G01 X-2.4081 Y47.6004 
G01 X-2.4838 Y47.7831 
G01 X-2.5936 Y47.9475 
G01 X-2.7335 Y48.0874 
G01 X-2.8979 Y48.1972 
G01 X-3.0806 Y48.2729 
G01 X-3.2746 Y48.3115 
G01 X-4.9804 Y48.3115 
G01 X-5.1266 Y48.2824 
G01 X-7.4276 Y50.5834 
G01 X-7.5191 Y50.6749 
G01 X-7.5810 Y50.7162 
G01 X-7.7072 Y50.8447 
G01 X-7.8505 Y50.9404 
G01 X-8.0098 Y51.0064 
G01 X-8.1788 Y51.0400 
G01 X-9.6012 Y51.0400 
G01 X-9.7702 Y51.0064 
G01 X-9.9295 Y50.9404 
G01 X-10.0728 Y50.8447 
G01 X-10.1947 Y50.7228 
G01 X-10.2904 Y50.5795 
G01 X-10.3564 Y50.4202 
G01 X-10.3900 Y50.2512 
G01 X-10.3900 Y50.0788 
G01 X-10.3564 Y49.9098 
G01 X-10.2904 Y49.7505 
G01 X-10.1947 Y49.6072 
G01 X-10.0728 Y49.4853 
G01 X-9.9295 Y49.3896 
G01 X-9.7702 Y49.3236 
G01 X-9.6012 Y49.2900 
G01 X-8.1788 Y49.2900 
G01 X-8.0220 Y49.3212 
G01 X-5.8796 Y47.1788 
G01 X-5.8469 Y47.0146 
G01 X-5.7712 Y46.8319 
G01 X-5.6614 Y46.6675 
G01 X-5.5215 Y46.5276 
G01 X-5.3571 Y46.4178 
G00 Z1.5000 
G00 X-5.3571 Y48.9578 
G01 Z-0.1778 F254.00 
G01 X-5.1744 Y48.8821 F800.00 
G01 X-4.9804 Y48.8435 
G01 X-3.2746 Y48.8435 
G01 X-3.0806 Y48.8821 
G01 X-2.8979 Y48.9578 
G01 X-2.7335 Y49.0676 
G01 X-2.5936 Y49.2075 
G01 X-2.4838 Y49.3719 
G01 X-2.4081 Y49.5546 
G01 X-2.3695 Y49.7486 
G01 X-2.3695 Y49.9464 
G01 X-2.4081 Y50.1404 
G01 X-2.4838 Y50.3231 
G01 X-2.5936 Y50.4875 
G01 X-2.7335 Y50.6274 
G01 X-2.8979 Y50.7372 
G01 X-3.0806 Y50.8129 
G01 X-3.2746 Y50.8515 
G01 X-4.8382 Y50.8515 
G01 X-7.2016 Y53.2149 
G01 X-7.3091 Y53.2867 
G01 X-7.4285 Y53.3362 
G01 X-7.5553 Y53.3614 
G01 X-7.6840 Y53.3614 
G01 X-7.8505 Y53.4804 
G01 X-8.0098 Y53.5464 
G01 X-8.1788 Y53.5800 
G01 X-9.6012 Y53.5800 
G01 X-9.7702 Y53.5464 
G01 X-9.9295 Y53.4804 
G01 X-10.0728 Y53.3847 
G01 X-10.1947 Y53.2628 
G01 X-10.2904 Y53.1195 
G01 X-10.3564 Y52.9602 
G01 X-10.3900 Y52.7912 
G01 X-10.3900 Y52.6188 
G01 X-10.3564 Y52.4498 
G01 X-10.2904 Y52.2905 
G01 X-10.1947 Y52.1472 
G01 X-10.0728 Y52.0253 
G01 X-9.9295 Y51.9296 
G01 X-9.7702 Y51.8636 
G01 X-9.6012 Y51.8300 
G01 X-8.1788 Y51.8300 
G01 X-8.0098 Y51.8636 
G01 X-7.8505 Y51.9296 
G01 X-7.8040 Y51.9607 
G01 X-5.8696 Y50.0263 
G01 X-5.8855 Y49.9464 
G01 X-5.8855 Y49.7486 
G01 X-5.8469 Y49.5546 
G01 X-5.7712 Y49.3719 
G01 X-5.6614 Y49.2075 
G01 X-5.5215 Y49.0676 
G01 X-5.3571 Y48.9578 
G00 Z1.5000 
G00 X-4.6488 Y54.6740 
G01 Z-0.1778 F254.00 
G01 X-4.4668 Y54.5343 F800.00 
G01 X-4.2682 Y54.4196 
G01 X-4.0562 Y54.3318 
G01 X-3.8346 Y54.2724 
G01 X-3.6072 Y54.2425 
G01 X-3.3778 Y54.2425 
G01 X-3.1504 Y54.2724 
G01 X-2.9288 Y54.3318 
G01 X-2.7168 Y54.4196 
G01 X-2.5182 Y54.5343 
G01 X-2.3362 Y54.6740 
G01 X-2.1740 Y54.8362 
G01 X-2.0343 Y55.0182 
G01 X-1.9196 Y55.2168 
G01 X-1.8318 Y55.4288 
G01 X-1.7724 Y55.6504 
G01 X-1.7425 Y55.8778 
G01 X-1.7425 Y56.1072 
G01 X-1.7724 Y56.3346 
G01 X-1.8318 Y56.5562 
G01 X-1.9196 Y56.7682 
G01 X-2.0343 Y56.9668 
G01 X-2.1740 Y57.1488 
G01 X-2.3362 Y57.3110 
G01 X-2.5182 Y57.4507 
G01 X-2.7168 Y57.5654 
G01 X-2.9288 Y57.6532 
G01 X-3.1504 Y57.7126 
G01 X-3.3778 Y57.7425 
G01 X-3.6072 Y57.7425 
G01 X-3.8346 Y57.7126 
G01 X-4.0562 Y57.6532 
G01 X-4.2682 Y57.5654 
G01 X-4.4668 Y57.4507 
G01 X-4.6488 Y57.3110 
G01 X-4.8110 Y57.1488 
G01 X-4.9507 Y56.9668 
G01 X-5.0654 Y56.7682 
G01 X-5.1532 Y56.5562 
G01 X-5.2126 Y56.3346 
G01 X-5.2425 Y56.1072 
G01 X-5.2425 Y55.8778 
G01 X-5.2126 Y55.6504 
G01 X-5.1532 Y55.4288 
G01 X-5.0654 Y55.2168 
G01 X-4.9507 Y55.0182 
G01 X-4.8110 Y54.8362 
G01 X-4.6488 Y54.6740 
G00 Z1.5000 
G00 X-12.1658 Y53.4929 
G01 Z-0.1778 F254.00 
G01 X-12.1626 Y53.4853 F800.00 
G01 X-12.1626 Y51.9247 
G01 X-12.2294 Y51.8534 
G01 X-12.3012 Y51.7459 
G01 X-12.3507 Y51.6265 
G01 X-12.3636 Y51.5616 
G01 X-12.3759 Y51.4996 
G01 X-12.3759 Y51.3703 
G01 X-12.3606 Y51.2932 
G01 X-12.3507 Y51.2435 
G01 X-12.3203 Y51.1701 
G01 X-12.3012 Y51.1241 
G01 X-12.2761 Y51.0865 
G01 X-12.2294 Y51.0166 
G01 X-12.1658 Y50.9529 
G01 X-12.1626 Y49.3847 
G01 X-12.2294 Y49.3134 
G01 X-12.3012 Y49.2059 
G01 X-12.3507 Y49.0865 
G01 X-12.3636 Y49.0216 
G01 X-12.3759 Y48.9596 
G01 X-12.3759 Y48.8303 
G01 X-12.3606 Y48.7532 
G01 X-12.3507 Y48.7035 
G01 X-12.3203 Y48.6301 
G01 X-12.3012 Y48.5841 
G01 X-12.2761 Y48.5465 
G01 X-12.2294 Y48.4766 
G01 X-12.1658 Y48.4129 
G01 X-12.1626 Y46.8447 
G01 X-12.5571 Y46.4458 
G01 X-13.0683 Y46.2340 
G01 X-14.8717 Y46.2340 
G01 X-15.3829 Y46.4458 
G01 X-15.7742 Y46.8371 
G01 X-15.9860 Y47.3483 
G01 X-15.9860 Y47.9017 
G01 X-15.7742 Y48.4129 
G01 X-15.7106 Y48.4766 
G01 X-15.6620 Y48.5493 
G01 X-15.6388 Y48.5841 
G01 X-15.6168 Y48.6370 
G01 X-15.5893 Y48.7035 
G01 X-15.5788 Y48.7561 
G01 X-15.5641 Y48.8303 
G01 X-15.5641 Y48.9596 
G01 X-15.5769 Y49.0239 
G01 X-15.5893 Y49.0865 
G01 X-15.6388 Y49.2059 
G01 X-15.7106 Y49.3134 
G01 X-15.7742 Y49.3771 
G01 X-15.9860 Y49.8883 
G01 X-15.9860 Y50.4417 
G01 X-15.7742 Y50.9529 
G01 X-15.7106 Y51.0166 
G01 X-15.6620 Y51.0893 
G01 X-15.6388 Y51.1241 
G01 X-15.6168 Y51.1770 
G01 X-15.5893 Y51.2435 
G01 X-15.5788 Y51.2961 
G01 X-15.5641 Y51.3703 
G01 X-15.5641 Y51.4996 
G01 X-15.5768 Y51.5639 
G01 X-15.5893 Y51.6265 
G01 X-15.6388 Y51.7459 
G01 X-15.7106 Y51.8534 
G01 X-15.7742 Y51.9171 
G01 X-15.9860 Y52.4283 
G01 X-15.9860 Y52.9817 
G01 X-15.7742 Y53.4929 
G01 X-15.3829 Y53.8842 
G01 X-14.8717 Y54.0960 
G01 X-13.0683 Y54.0960 
G01 X-12.5571 Y53.8842 
G01 X-12.1658 Y53.4929 
G00 Z1.5000 
G00 X-12.7872 Y53.3847 
G01 Z-0.1778 F254.00 
G01 X-12.9305 Y53.4804 F800.00 
G01 X-13.0898 Y53.5464 
G01 X-13.2588 Y53.5800 
G01 X-14.6812 Y53.5800 
G01 X-14.8502 Y53.5464 
G01 X-15.0095 Y53.4804 
G01 X-15.1528 Y53.3847 
G01 X-15.2747 Y53.2628 
G01 X-15.3704 Y53.1195 
G01 X-15.4364 Y52.9602 
G01 X-15.4700 Y52.7912 
G01 X-15.4700 Y52.6188 
G01 X-15.4364 Y52.4498 
G01 X-15.3704 Y52.2905 
G01 X-15.2747 Y52.1472 
G01 X-15.1528 Y52.0253 
G01 X-15.0095 Y51.9296 
G01 X-14.8502 Y51.8636 
G01 X-14.6812 Y51.8300 
G01 X-13.2588 Y51.8300 
G01 X-13.0898 Y51.8636 
G01 X-12.9305 Y51.9296 
G01 X-12.7872 Y52.0253 
G01 X-12.6653 Y52.1472 
G01 X-12.5696 Y52.2905 
G01 X-12.5036 Y52.4498 
G01 X-12.4700 Y52.6188 
G01 X-12.4700 Y52.7912 
G01 X-12.5036 Y52.9602 
G01 X-12.5696 Y53.1195 
G01 X-12.6653 Y53.2628 
G01 X-12.7872 Y53.3847 
G00 Z1.5000 
G00 X-12.7872 Y50.8447 
G01 Z-0.1778 F254.00 
G01 X-12.9305 Y50.9404 F800.00 
G01 X-13.0898 Y51.0064 
G01 X-13.2588 Y51.0400 
G01 X-14.6812 Y51.0400 
G01 X-14.8502 Y51.0064 
G01 X-15.0095 Y50.9404 
G01 X-15.1528 Y50.8447 
G01 X-15.2747 Y50.7228 
G01 X-15.3704 Y50.5795 
G01 X-15.4364 Y50.4202 
G01 X-15.4700 Y50.2512 
G01 X-15.4700 Y50.0788 
G01 X-15.4364 Y49.9098 
G01 X-15.3704 Y49.7505 
G01 X-15.2747 Y49.6072 
G01 X-15.1528 Y49.4853 
G01 X-15.0095 Y49.3896 
G01 X-14.8502 Y49.3236 
G01 X-14.6812 Y49.2900 
G01 X-13.2588 Y49.2900 
G01 X-13.0898 Y49.3236 
G01 X-12.9305 Y49.3896 
G01 X-12.7872 Y49.4853 
G01 X-12.6653 Y49.6072 
G01 X-12.5696 Y49.7505 
G01 X-12.5036 Y49.9098 
G01 X-12.4700 Y50.0788 
G01 X-12.4700 Y50.2512 
G01 X-12.5036 Y50.4202 
G01 X-12.5696 Y50.5795 
G01 X-12.6653 Y50.7228 
G01 X-12.7872 Y50.8447 
G00 Z1.5000 
G00 X-12.7872 Y48.3047 
G01 Z-0.1778 F254.00 
G01 X-12.9305 Y48.4004 F800.00 
G01 X-13.0898 Y48.4664 
G01 X-13.2588 Y48.5000 
G01 X-14.6812 Y48.5000 
G01 X-14.8502 Y48.4664 
G01 X-15.0095 Y48.4004 
G01 X-15.1528 Y48.3047 
G01 X-15.2747 Y48.1828 
G01 X-15.3704 Y48.0395 
G01 X-15.4364 Y47.8802 
G01 X-15.4700 Y47.7112 
G01 X-15.4700 Y47.5388 
G01 X-15.4364 Y47.3698 
G01 X-15.3704 Y47.2105 
G01 X-15.2747 Y47.0672 
G01 X-15.1528 Y46.9453 
G01 X-15.0095 Y46.8496 
G01 X-14.8502 Y46.7836 
G01 X-14.6812 Y46.7500 
G01 X-13.2588 Y46.7500 
G01 X-13.0898 Y46.7836 
G01 X-12.9305 Y46.8496 
G01 X-12.7872 Y46.9453 
G01 X-12.6653 Y47.0672 
G01 X-12.5696 Y47.2105 
G01 X-12.5036 Y47.3698 
G01 X-12.4700 Y47.5388 
G01 X-12.4700 Y47.7112 
G01 X-12.5036 Y47.8802 
G01 X-12.5696 Y48.0395 
G01 X-12.6653 Y48.1828 
G01 X-12.7872 Y48.3047 
G00 Z1.5000 
G00 X-12.7872 Y43.2247 
G01 Z-0.1778 F254.00 
G01 X-12.9305 Y43.3204 F800.00 
G01 X-13.0898 Y43.3864 
G01 X-13.2588 Y43.4200 
G01 X-14.6812 Y43.4200 
G01 X-14.8502 Y43.3864 
G01 X-15.0095 Y43.3204 
G01 X-15.1528 Y43.2247 
G01 X-15.2747 Y43.1028 
G01 X-15.3704 Y42.9595 
G01 X-15.4364 Y42.8002 
G01 X-15.4700 Y42.6312 
G01 X-15.4700 Y42.4588 
G01 X-15.4364 Y42.2898 
G01 X-15.3704 Y42.1305 
G01 X-15.2747 Y41.9872 
G01 X-15.2614 Y40.5915 
G01 X-16.3005 Y40.5915 
G01 X-16.4752 Y40.5568 
G01 X-16.6397 Y40.4886 
G01 X-16.7878 Y40.3897 
G01 X-16.9137 Y40.2638 
G01 X-17.0126 Y40.1157 
G01 X-17.0808 Y39.9512 
G01 X-17.1155 Y39.7765 
G01 X-17.1155 Y39.5985 
G01 X-17.0808 Y39.4238 
G01 X-17.8233 Y38.6675 
G01 X-19.1372 Y38.6675 
G01 X-19.3081 Y38.6335 
G01 X-19.4692 Y38.5668 
G01 X-19.6142 Y38.4699 
G01 X-19.7374 Y38.3467 
G01 X-19.8343 Y38.2017 
G01 X-19.9010 Y38.0406 
G01 X-19.9350 Y37.8697 
G01 X-19.9350 Y37.6953 
G01 X-19.9010 Y37.5244 
G01 X-19.8343 Y37.3633 
G01 X-19.7374 Y37.2183 
G01 X-19.6142 Y37.0951 
G01 X-19.4692 Y36.9982 
G01 X-19.3081 Y36.9315 
G01 X-19.1372 Y36.8975 
G01 X-17.6928 Y36.8975 
G01 X-17.5219 Y36.9315 
G01 X-17.3608 Y36.9982 
G01 X-17.2158 Y37.0951 
G01 X-17.0926 Y37.2183 
G01 X-16.9957 Y37.3633 
G01 X-16.9290 Y37.5244 
G01 X-16.8950 Y37.6953 
G01 X-16.8950 Y37.7392 
G01 X-15.8507 Y38.7835 
G01 X-14.8145 Y38.7835 
G01 X-14.6398 Y38.8182 
G01 X-14.4753 Y38.8864 
G01 X-14.3272 Y38.9853 
G01 X-14.2013 Y39.1112 
G01 X-14.1024 Y39.2593 
G01 X-14.0233 Y39.3766 
G01 X-13.9738 Y39.4960 
G01 X-13.9486 Y39.6228 
G01 X-13.9486 Y41.6700 
G01 X-13.2588 Y41.6700 
G01 X-13.0898 Y41.7036 
G01 X-12.9305 Y41.7696 
G01 X-12.7872 Y41.8653 
G01 X-12.6653 Y41.9872 
G01 X-12.5696 Y42.1305 
G01 X-12.5036 Y42.2898 
G01 X-12.4700 Y42.4588 
G01 X-12.4700 Y42.6312 
G01 X-12.5036 Y42.8002 
G01 X-12.5696 Y42.9595 
G01 X-12.6653 Y43.1028 
G01 X-12.7872 Y43.2247 
G00 Z1.5000 
G00 X-17.1236 Y43.8796 
G01 Z-0.1778 F254.00 
G01 X-17.1488 Y44.0065 F800.00 
G01 X-17.1983 Y44.1259 
G01 X-17.2701 Y44.2334 
G01 X-17.3616 Y44.3249 
G01 X-17.9966 Y44.9599 
G01 X-18.1041 Y45.0317 
G01 X-18.2235 Y45.0812 
G01 X-18.3503 Y45.1064 
G01 X-19.1007 Y45.1064 
G01 X-19.2304 Y45.2361 
G01 X-19.3961 Y45.3468 
G01 X-19.5803 Y45.4231 
G01 X-19.7758 Y45.4620 
G01 X-21.4992 Y45.4620 
G01 X-21.6947 Y45.4231 
G01 X-21.8789 Y45.3468 
G01 X-22.0446 Y45.2361 
G01 X-22.1856 Y45.0951 
G01 X-22.2963 Y44.9294 
G01 X-22.3726 Y44.7452 
G01 X-22.4115 Y44.5497 
G01 X-22.4115 Y44.3503 
G01 X-22.3726 Y44.1548 
G01 X-22.2963 Y43.9706 
G01 X-22.1856 Y43.8049 
G01 X-22.0446 Y43.6639 
G01 X-21.8789 Y43.5532 
G01 X-21.6947 Y43.4769 
G01 X-21.4992 Y43.4380 
G01 X-19.7758 Y43.4380 
G01 X-19.5803 Y43.4769 
G01 X-19.3961 Y43.5532 
G01 X-19.2304 Y43.6639 
G01 X-19.1007 Y43.7936 
G01 X-18.6869 Y43.7936 
G01 X-18.4364 Y43.5431 
G01 X-18.4364 Y41.2294 
G01 X-19.3219 Y40.3439 
G01 X-23.2421 Y40.3439 
G01 X-23.3690 Y40.3187 
G01 X-23.4884 Y40.2692 
G01 X-23.5959 Y40.1974 
G01 X-25.3544 Y38.4389 
G01 X-25.3938 Y38.4389 
G01 X-25.4397 Y38.4847 
G01 X-25.5877 Y38.5837 
G01 X-25.7522 Y38.6518 
G01 X-25.9269 Y38.6865 
G01 X-27.4131 Y38.6865 
G01 X-27.5877 Y38.6518 
G01 X-27.7523 Y38.5837 
G01 X-27.9003 Y38.4847 
G01 X-28.0263 Y38.3588 
G01 X-28.1252 Y38.2107 
G01 X-28.1934 Y38.0462 
G01 X-28.2281 Y37.8715 
G01 X-28.2281 Y37.6935 
G01 X-28.1934 Y37.5188 
G01 X-28.1252 Y37.3543 
G01 X-28.0263 Y37.2062 
G01 X-27.9003 Y37.0803 
G01 X-27.7523 Y36.9813 
G01 X-27.5877 Y36.9132 
G01 X-27.4131 Y36.8785 
G01 X-25.9269 Y36.8785 
G01 X-25.7522 Y36.9132 
G01 X-25.5877 Y36.9813 
G01 X-25.4397 Y37.0803 
G01 X-25.3938 Y37.1261 
G01 X-25.0178 Y37.1261 
G01 X-24.8910 Y37.1513 
G01 X-24.7716 Y37.2008 
G01 X-24.6641 Y37.2726 
G01 X-22.9056 Y39.0311 
G01 X-18.9853 Y39.0311 
G01 X-18.8585 Y39.0563 
G01 X-18.7391 Y39.1058 
G01 X-18.6316 Y39.1776 
G01 X-18.5401 Y39.2691 
G01 X-17.2701 Y40.5391 
G01 X-17.1983 Y40.6466 
G01 X-17.1488 Y40.7660 
G01 X-17.1236 Y40.8928 
G01 X-17.1236 Y43.8796 
G00 Z1.5000 
G00 X-19.2304 Y42.6961 
G01 Z-0.1778 F254.00 
G01 X-19.3961 Y42.8068 F800.00 
G01 X-19.5803 Y42.8831 
G01 X-19.7758 Y42.9220 
G01 X-21.4992 Y42.9220 
G01 X-21.6947 Y42.8831 
G01 X-21.8789 Y42.8068 
G01 X-22.0446 Y42.6961 
G01 X-22.1856 Y42.5551 
G01 X-22.2963 Y42.3894 
G01 X-22.3726 Y42.2052 
G01 X-22.4115 Y42.0097 
G01 X-22.4115 Y41.8103 
G01 X-22.3726 Y41.6148 
G01 X-22.2963 Y41.4306 
G01 X-22.1856 Y41.2649 
G01 X-22.0446 Y41.1239 
G01 X-21.8789 Y41.0132 
G01 X-21.6947 Y40.9369 
G01 X-21.4992 Y40.8980 
G01 X-19.7758 Y40.8980 
G01 X-19.5803 Y40.9369 
G01 X-19.3961 Y41.0132 
G01 X-19.2304 Y41.1239 
G01 X-19.0894 Y41.2649 
G01 X-18.9787 Y41.4306 
G01 X-18.9024 Y41.6148 
G01 X-18.8635 Y41.8103 
G01 X-18.8635 Y42.0097 
G01 X-18.9024 Y42.2052 
G01 X-18.9787 Y42.3894 
G01 X-19.0894 Y42.5551 
G01 X-19.2304 Y42.6961 
G00 Z1.5000 
G00 X-19.2304 Y46.2039 
G01 Z-0.1778 F254.00 
G01 X-19.0894 Y46.3449 F800.00 
G01 X-18.9787 Y46.5106 
G01 X-18.9024 Y46.6948 
G01 X-18.8635 Y46.8903 
G01 X-18.8635 Y47.0897 
G01 X-18.9024 Y47.2852 
G01 X-18.9787 Y47.4694 
G01 X-19.0894 Y47.6351 
G01 X-19.2304 Y47.7761 
G01 X-19.3961 Y47.8868 
G01 X-19.5803 Y47.9631 
G01 X-19.7758 Y48.0020 
G01 X-21.4992 Y48.0020 
G01 X-21.6947 Y47.9631 
G01 X-21.8789 Y47.8868 
G01 X-22.0446 Y47.7761 
G01 X-22.1856 Y47.6351 
G01 X-22.2356 Y47.5602 
G01 X-22.3259 Y47.4999 
G01 X-23.9134 Y45.9124 
G01 X-24.0049 Y45.8209 
G01 X-24.0767 Y45.7134 
G01 X-24.1262 Y45.5940 
G01 X-24.1514 Y45.4671 
G01 X-24.1514 Y42.8169 
G01 X-25.7725 Y41.1958 
G01 X-25.9269 Y41.2265 
G01 X-27.4131 Y41.2265 
G01 X-27.5877 Y41.1918 
G01 X-27.7523 Y41.1237 
G01 X-27.9003 Y41.0247 
G01 X-28.0263 Y40.8988 
G01 X-28.1252 Y40.7507 
G01 X-28.1934 Y40.5862 
G01 X-28.2281 Y40.4115 
G01 X-28.2281 Y40.2335 
G01 X-28.1934 Y40.0588 
G01 X-28.1252 Y39.8943 
G01 X-28.0263 Y39.7462 
G01 X-27.9003 Y39.6203 
G01 X-27.7523 Y39.5213 
G01 X-27.5877 Y39.4532 
G01 X-27.4131 Y39.4184 
G01 X-25.9269 Y39.4184 
G01 X-25.7522 Y39.4532 
G01 X-25.5877 Y39.5213 
G01 X-25.4397 Y39.6203 
G01 X-25.3137 Y39.7462 
G01 X-25.2148 Y39.8943 
G01 X-23.0766 Y42.0351 
G01 X-22.9851 Y42.1266 
G01 X-22.9133 Y42.2341 
G01 X-22.8638 Y42.3535 
G01 X-22.8386 Y42.4803 
G01 X-22.8386 Y45.1306 
G01 X-21.8769 Y46.0924 
G01 X-21.6947 Y46.0169 
G01 X-21.4992 Y45.9780 
G01 X-19.7758 Y45.9780 
G01 X-19.5803 Y46.0169 
G01 X-19.3961 Y46.0932 
G01 X-19.2304 Y46.2039 
G00 Z1.5000 
G00 X-19.2304 Y48.7439 
G01 Z-0.1778 F254.00 
G01 X-19.0894 Y48.8849 F800.00 
G01 X-18.9787 Y49.0506 
G01 X-18.9024 Y49.2348 
G01 X-18.8635 Y49.4303 
G01 X-18.8635 Y49.6297 
G01 X-18.9024 Y49.8252 
G01 X-18.9787 Y50.0094 
G01 X-19.0894 Y50.1751 
G01 X-19.2304 Y50.3161 
G01 X-19.3961 Y50.4268 
G01 X-19.5803 Y50.5031 
G01 X-19.7758 Y50.5420 
G01 X-21.4992 Y50.5420 
G01 X-21.6947 Y50.5031 
G01 X-21.8789 Y50.4268 
G01 X-22.0446 Y50.3161 
G01 X-22.1856 Y50.1751 
G01 X-22.2963 Y50.0094 
G01 X-22.3726 Y49.8252 
G01 X-22.4115 Y49.6297 
G01 X-22.4115 Y49.4303 
G01 X-22.3726 Y49.2348 
G01 X-22.2963 Y49.0506 
G01 X-22.1856 Y48.8849 
G01 X-22.0446 Y48.7439 
G01 X-21.8789 Y48.6332 
G01 X-21.6947 Y48.5569 
G01 X-21.4992 Y48.5180 
G01 X-19.7758 Y48.5180 
G01 X-19.5803 Y48.5569 
G01 X-19.3961 Y48.6332 
G01 X-19.2304 Y48.7439 
G00 Z1.5000 
G00 X-19.2304 Y51.2839 
G01 Z-0.1778 F254.00 
G01 X-19.0894 Y51.4249 F800.00 
G01 X-18.9787 Y51.5906 
G01 X-18.9024 Y51.7748 
G01 X-18.8635 Y51.9703 
G01 X-18.8635 Y52.1697 
G01 X-18.9024 Y52.3652 
G01 X-18.9787 Y52.5494 
G01 X-19.0894 Y52.7151 
G01 X-19.2304 Y52.8561 
G01 X-19.3961 Y52.9668 
G01 X-19.5803 Y53.0431 
G01 X-19.7758 Y53.0820 
G01 X-21.4992 Y53.0820 
G01 X-21.6947 Y53.0431 
G01 X-21.8789 Y52.9668 
G01 X-22.0446 Y52.8561 
G01 X-22.1856 Y52.7151 
G01 X-22.2963 Y52.5494 
G01 X-22.3726 Y52.3652 
G01 X-22.4115 Y52.1697 
G01 X-22.4115 Y51.9703 
G01 X-22.3726 Y51.7748 
G01 X-22.2963 Y51.5906 
G01 X-22.1856 Y51.4249 
G01 X-22.0446 Y51.2839 
G01 X-21.8789 Y51.1732 
G01 X-21.6947 Y51.0969 
G01 X-21.4992 Y51.0580 
G01 X-19.7758 Y51.0580 
G01 X-19.5803 Y51.0969 
G01 X-19.3961 Y51.1732 
G01 X-19.2304 Y51.2839 
G00 Z1.5000 
G00 X-19.2304 Y55.3961 
G01 Z-0.1778 F254.00 
G01 X-19.3961 Y55.5068 F800.00 
G01 X-19.5803 Y55.5831 
G01 X-19.7758 Y55.6220 
G01 X-19.9811 Y55.6220 
G01 X-19.9811 Y55.7570 
G01 X-19.8003 Y55.7570 
G01 X-19.6513 Y55.7374 
G01 X-19.5060 Y55.6985 
G01 X-19.3671 Y55.6409 
G01 X-19.2369 Y55.5657 
G01 X-19.1176 Y55.4742 
G01 X-19.0113 Y55.3679 
G01 X-18.9334 Y55.2664 
G01 X-19.1007 Y55.2664 
G01 X-19.2304 Y55.3961 
G00 Z1.5000 
G00 X-21.2939 Y55.6220 
G01 Z-0.1778 F254.00 
G01 X-21.4992 Y55.6220 F800.00 
G01 X-21.6947 Y55.5831 
G01 X-21.8789 Y55.5068 
G01 X-22.0446 Y55.3961 
G01 X-22.1743 Y55.2664 
G01 X-22.3416 Y55.2664 
G01 X-22.2637 Y55.3679 
G01 X-22.1574 Y55.4742 
G01 X-22.0381 Y55.5657 
G01 X-21.9079 Y55.6409 
G01 X-21.7690 Y55.6985 
G01 X-21.6237 Y55.7374 
G01 X-21.4747 Y55.7570 
G01 X-21.2939 Y55.7570 
G01 X-21.2939 Y55.6220 
G00 Z1.5000 
G00 X-27.1585 Y55.5886 
G01 Z-0.1778 F254.00 
G01 X-27.1865 Y55.7657 F800.00 
G01 X-27.2419 Y55.9362 
G01 X-27.3233 Y56.0960 
G01 X-27.4287 Y56.2410 
G01 X-27.5555 Y56.3678 
G01 X-27.7005 Y56.4732 
G01 X-27.8603 Y56.5545 
G01 X-28.0308 Y56.6099 
G01 X-28.2079 Y56.6380 
G01 X-28.3871 Y56.6380 
G01 X-28.5642 Y56.6099 
G01 X-28.7347 Y56.5545 
G01 X-28.8945 Y56.4732 
G01 X-29.0395 Y56.3678 
G01 X-29.1663 Y56.2410 
G01 X-29.2717 Y56.0960 
G01 X-29.3530 Y55.9362 
G01 X-29.4084 Y55.7657 
G01 X-29.4365 Y55.5886 
G01 X-29.4365 Y54.0418 
G01 X-33.7559 Y49.7224 
G01 X-33.8474 Y49.6309 
G01 X-33.9017 Y49.5824 
G01 X-34.0249 Y49.4592 
G01 X-34.1218 Y49.3142 
G01 X-34.1885 Y49.1531 
G01 X-34.2225 Y48.9822 
G01 X-34.2225 Y47.5378 
G01 X-34.1885 Y47.3669 
G01 X-34.1218 Y47.2058 
G01 X-34.0249 Y47.0608 
G01 X-33.9017 Y46.9376 
G01 X-33.7567 Y46.8407 
G01 X-33.5956 Y46.7740 
G01 X-33.4247 Y46.7400 
G01 X-33.2503 Y46.7400 
G01 X-33.0794 Y46.7740 
G01 X-32.9183 Y46.8407 
G01 X-32.7733 Y46.9376 
G01 X-32.6501 Y47.0608 
G01 X-32.5532 Y47.2058 
G01 X-32.4865 Y47.3669 
G01 X-32.4525 Y47.5378 
G01 X-32.4525 Y48.9822 
G01 X-32.4835 Y49.1382 
G01 X-28.8815 Y52.7402 
G01 X-28.7347 Y52.6654 
G01 X-28.5642 Y52.6100 
G01 X-28.3871 Y52.5820 
G01 X-28.2079 Y52.5820 
G01 X-28.0308 Y52.6100 
G01 X-27.8603 Y52.6654 
G01 X-27.7005 Y52.7468 
G01 X-27.5555 Y52.8522 
G01 X-27.4287 Y52.9790 
G01 X-27.3233 Y53.1240 
G01 X-27.2419 Y53.2838 
G01 X-27.1865 Y53.4543 
G01 X-27.1585 Y53.6314 
G01 X-27.1585 Y55.5886 
G00 Z1.5000 
G00 X-32.1585 Y55.5886 
G01 Z-0.1778 F254.00 
G01 X-32.1865 Y55.7657 F800.00 
G01 X-32.2419 Y55.9362 
G01 X-32.3233 Y56.0960 
G01 X-32.4287 Y56.2410 
G01 X-32.5555 Y56.3678 
G01 X-32.7005 Y56.4732 
G01 X-32.8603 Y56.5545 
G01 X-33.0308 Y56.6099 
G01 X-33.2079 Y56.6380 
G01 X-33.3871 Y56.6380 
G01 X-33.5642 Y56.6099 
G01 X-33.7347 Y56.5545 
G01 X-33.8945 Y56.4732 
G01 X-34.0395 Y56.3678 
G01 X-34.1663 Y56.2410 
G01 X-34.2717 Y56.0960 
G01 X-34.3531 Y55.9362 
G01 X-34.4085 Y55.7657 
G01 X-34.4365 Y55.5886 
G01 X-34.4365 Y53.6314 
G01 X-34.4085 Y53.4543 
G01 X-34.3531 Y53.2838 
G01 X-34.2717 Y53.1240 
G01 X-34.1663 Y52.9790 
G01 X-34.0790 Y52.8917 
G01 X-36.3874 Y50.5834 
G01 X-36.4592 Y50.4759 
G01 X-36.5087 Y50.3565 
G01 X-36.5339 Y50.2296 
G01 X-36.5339 Y48.5377 
G01 X-36.5649 Y48.5067 
G01 X-36.6618 Y48.3617 
G01 X-36.7285 Y48.2006 
G01 X-36.7625 Y48.0297 
G01 X-36.7625 Y46.5853 
G01 X-36.7285 Y46.4144 
G01 X-36.6618 Y46.2533 
G01 X-36.5649 Y46.1083 
G01 X-36.4417 Y45.9851 
G01 X-36.2967 Y45.8882 
G01 X-36.1356 Y45.8215 
G01 X-35.9647 Y45.7875 
G01 X-35.7903 Y45.7875 
G01 X-35.6194 Y45.8215 
G01 X-35.4583 Y45.8882 
G01 X-35.3133 Y45.9851 
G01 X-35.1901 Y46.1083 
G01 X-35.0932 Y46.2533 
G01 X-35.0265 Y46.4144 
G01 X-34.9925 Y46.5853 
G01 X-34.9925 Y48.0297 
G01 X-35.0265 Y48.2006 
G01 X-35.0932 Y48.3617 
G01 X-35.1901 Y48.5067 
G01 X-35.2211 Y48.5377 
G01 X-35.2211 Y49.8931 
G01 X-32.8791 Y52.2351 
G01 X-32.7876 Y52.3266 
G01 X-32.7158 Y52.4341 
G01 X-32.6663 Y52.5535 
G01 X-32.6411 Y52.6803 
G01 X-32.6411 Y52.7900 
G01 X-32.5555 Y52.8522 
G01 X-32.4287 Y52.9790 
G01 X-32.3233 Y53.1240 
G01 X-32.2419 Y53.2838 
G01 X-32.1865 Y53.4543 
G01 X-32.1585 Y53.6314 
G01 X-32.1585 Y55.5886 
G00 Z1.5000 
G00 X-38.2265 Y55.6942 
G01 Z-0.1778 F254.00 
G01 X-38.3697 Y55.1598 F800.00 
G01 X-38.3835 Y55.1190 
G01 X-38.6792 Y54.6011 
G01 X-39.1011 Y54.1792 
G01 X-39.6179 Y53.8809 
G01 X-40.1942 Y53.7265 
G01 X-40.7908 Y53.7265 
G01 X-41.3671 Y53.8809 
G01 X-41.8838 Y54.1792 
G01 X-42.2717 Y54.5671 
G01 X-42.3770 Y54.6375 
G01 X-42.4986 Y54.6884 
G01 X-42.6254 Y54.7136 
G01 X-42.6760 Y54.7136 
G01 X-42.6760 Y57.2714 
G01 X-42.6254 Y57.2714 
G01 X-42.4986 Y57.2966 
G01 X-42.3792 Y57.3461 
G01 X-42.2717 Y57.4179 
G01 X-42.1704 Y57.5192 
G01 X-42.0986 Y57.6267 
G01 X-42.0491 Y57.7461 
G01 X-42.0239 Y57.8729 
G01 X-42.0239 Y57.9160 
G01 X-38.9611 Y57.9160 
G01 X-38.9611 Y57.8729 
G01 X-38.9482 Y57.8082 
G01 X-38.9359 Y57.7461 
G01 X-38.9207 Y57.7094 
G01 X-38.8864 Y57.6267 
G01 X-38.8522 Y57.5754 
G01 X-38.8146 Y57.5192 
G01 X-38.6792 Y57.3839 
G01 X-38.3809 Y56.8671 
G01 X-38.2265 Y56.2908 
G01 X-38.2265 Y55.6942 
G00 Z1.5000 
G00 X-38.7724 Y55.6504 
G01 Z-0.1778 F254.00 
G01 X-38.7425 Y55.8778 F800.00 
G01 X-38.7425 Y56.1072 
G01 X-38.7724 Y56.3346 
G01 X-38.8318 Y56.5562 
G01 X-38.9196 Y56.7682 
G01 X-39.0343 Y56.9668 
G01 X-39.1740 Y57.1488 
G01 X-39.3362 Y57.3110 
G01 X-39.5182 Y57.4507 
G01 X-39.7168 Y57.5654 
G01 X-39.9288 Y57.6532 
G01 X-40.1504 Y57.7126 
G01 X-40.3778 Y57.7425 
G01 X-40.6072 Y57.7425 
G01 X-40.8346 Y57.7126 
G01 X-41.0562 Y57.6532 
G01 X-41.2682 Y57.5654 
G01 X-41.4668 Y57.4507 
G01 X-41.6488 Y57.3110 
G01 X-41.8110 Y57.1488 
G01 X-41.9507 Y56.9668 
G01 X-42.0654 Y56.7682 
G01 X-42.1532 Y56.5562 
G01 X-42.2126 Y56.3346 
G01 X-42.2425 Y56.1072 
G01 X-42.2425 Y55.8778 
G01 X-42.2126 Y55.6504 
G01 X-42.1532 Y55.4288 
G01 X-42.0654 Y55.2168 
G01 X-41.9507 Y55.0182 
G01 X-41.8110 Y54.8362 
G01 X-41.6488 Y54.6740 
G01 X-41.4668 Y54.5343 
G01 X-41.2682 Y54.4196 
G01 X-41.0562 Y54.3318 
G01 X-40.8346 Y54.2724 
G01 X-40.6072 Y54.2425 
G01 X-40.3778 Y54.2425 
G01 X-40.1504 Y54.2724 
G01 X-39.9288 Y54.3318 
G01 X-39.7168 Y54.4196 
G01 X-39.5182 Y54.5343 
G01 X-39.3362 Y54.6740 
G01 X-39.1740 Y54.8362 
G01 X-39.0343 Y55.0182 
G01 X-38.9196 Y55.2168 
G01 X-38.8318 Y55.4288 
G01 X-38.7724 Y55.6504 
G00 Z1.5000 
G00 X-38.6756 Y48.7935 
G01 Z-0.1778 F254.00 
G01 X-38.8367 Y48.7268 F800.00 
G01 X-38.9817 Y48.6299 
G01 X-39.1049 Y48.5067 
G01 X-39.2018 Y48.3617 
G01 X-39.2685 Y48.2006 
G01 X-39.3025 Y48.0297 
G01 X-39.3025 Y46.5853 
G01 X-39.2685 Y46.4144 
G01 X-39.2018 Y46.2533 
G01 X-39.1049 Y46.1083 
G01 X-39.0739 Y46.0773 
G01 X-39.0739 Y45.3378 
G01 X-39.0487 Y45.2110 
G01 X-38.9992 Y45.0916 
G01 X-38.9274 Y44.9841 
G01 X-38.8359 Y44.8926 
G01 X-37.8039 Y43.8606 
G01 X-37.8039 Y41.2103 
G01 X-37.7787 Y41.0835 
G01 X-37.7292 Y40.9641 
G01 X-37.6574 Y40.8566 
G01 X-36.6134 Y39.8126 
G01 X-36.5059 Y39.7408 
G01 X-36.3865 Y39.6913 
G01 X-36.2597 Y39.6661 
G01 X-35.5662 Y39.6661 
G01 X-35.5203 Y39.6203 
G01 X-35.3723 Y39.5213 
G01 X-35.2077 Y39.4532 
G01 X-35.0331 Y39.4184 
G01 X-33.5469 Y39.4184 
G01 X-33.3722 Y39.4532 
G01 X-33.2077 Y39.5213 
G01 X-33.0596 Y39.6203 
G01 X-32.9337 Y39.7462 
G01 X-32.8348 Y39.8943 
G01 X-32.7666 Y40.0588 
G01 X-32.7319 Y40.2335 
G01 X-32.7319 Y40.4115 
G01 X-32.7666 Y40.5862 
G01 X-32.8348 Y40.7507 
G01 X-32.9337 Y40.8988 
G01 X-33.0596 Y41.0247 
G01 X-33.2077 Y41.1237 
G01 X-33.3722 Y41.1918 
G01 X-33.5469 Y41.2265 
G01 X-35.0331 Y41.2265 
G01 X-35.2077 Y41.1918 
G01 X-35.3723 Y41.1237 
G01 X-35.5203 Y41.0247 
G01 X-35.5662 Y40.9789 
G01 X-35.9231 Y40.9789 
G01 X-36.4911 Y41.5469 
G01 X-36.4911 Y44.1972 
G01 X-36.5163 Y44.3240 
G01 X-36.5658 Y44.4434 
G01 X-36.6376 Y44.5509 
G01 X-36.7291 Y44.6424 
G01 X-37.7611 Y45.6744 
G01 X-37.7611 Y46.0773 
G01 X-37.7301 Y46.1083 
G01 X-37.6332 Y46.2533 
G01 X-37.5665 Y46.4144 
G01 X-37.5325 Y46.5853 
G01 X-37.5325 Y48.0297 
G01 X-37.5665 Y48.2006 
G01 X-37.6332 Y48.3617 
G01 X-37.7301 Y48.5067 
G01 X-37.8533 Y48.6299 
G01 X-37.9983 Y48.7268 
G01 X-38.1594 Y48.7935 
G01 X-38.3303 Y48.8275 
G01 X-38.5047 Y48.8275 
G01 X-38.6756 Y48.7935 
G00 Z1.5000 
G00 X-41.6139 Y48.7245 
G01 Z-0.1778 F254.00 
G01 X-41.6139 Y48.5377 F800.00 
G01 X-41.6449 Y48.5067 
G01 X-41.7418 Y48.3617 
G01 X-41.8085 Y48.2006 
G01 X-41.8425 Y48.0297 
G01 X-41.8425 Y47.9639 
G01 X-41.9775 Y47.9639 
G01 X-41.9775 Y48.0093 
G01 X-41.9600 Y48.1419 
G01 X-41.9254 Y48.2711 
G01 X-41.8743 Y48.3946 
G01 X-41.8074 Y48.5104 
G01 X-41.7260 Y48.6165 
G01 X-41.6315 Y48.7110 
G00 Z1.5000 
G00 X-41.8425 Y46.6511 
G01 Z-0.1778 F254.00 
G01 X-41.8425 Y46.5853 F800.00 
G01 X-41.8085 Y46.4144 
G01 X-41.7418 Y46.2533 
G01 X-41.6449 Y46.1083 
G01 X-41.6139 Y46.0773 
G01 X-41.6139 Y45.8905 
G01 X-41.7260 Y45.9985 
G01 X-41.8074 Y46.1046 
G01 X-41.8743 Y46.2204 
G01 X-41.9254 Y46.3439 
G01 X-41.9600 Y46.4731 
G01 X-41.9775 Y46.6056 
G01 X-41.9775 Y46.6511 
G01 X-41.8425 Y46.6511 
G00 Z1.5000 
G00 X-41.7715 Y43.6335 
G01 Z-0.1778 F254.00 
G01 X-41.6262 Y43.6724 F800.00 
G01 X-41.4772 Y43.6920 
G01 X-41.2964 Y43.6920 
G01 X-41.2964 Y43.5570 
G01 X-41.5017 Y43.5570 
G01 X-41.6972 Y43.5181 
G01 X-41.8814 Y43.4418 
G01 X-42.0471 Y43.3311 
G01 X-42.1768 Y43.2014 
G01 X-42.4376 Y43.2014 
G01 X-42.3792 Y43.2256 
G01 X-42.2717 Y43.2974 
G01 X-42.1599 Y43.4092 
G01 X-42.0406 Y43.5007 
G01 X-41.9104 Y43.5759 
G01 X-41.7715 Y43.6335 
G00 Z1.5000 
G00 X-41.6972 Y40.9781 
G01 Z-0.1778 F254.00 
G01 X-41.8814 Y40.9018 F800.00 
G01 X-42.0471 Y40.7911 
G01 X-42.1881 Y40.6501 
G01 X-42.2988 Y40.4844 
G01 X-42.3751 Y40.3002 
G01 X-42.4140 Y40.1047 
G01 X-42.4140 Y39.9053 
G01 X-42.3751 Y39.7098 
G01 X-42.2988 Y39.5256 
G01 X-42.1881 Y39.3599 
G01 X-42.0471 Y39.2189 
G01 X-41.8814 Y39.1082 
G01 X-41.6972 Y39.0319 
G01 X-41.5017 Y38.9930 
G01 X-39.7783 Y38.9930 
G01 X-39.5828 Y39.0319 
G01 X-38.2865 Y37.9069 
G01 X-38.2865 Y37.3107 
G01 X-37.6193 Y36.6435 
G01 X-36.6757 Y36.6435 
G01 X-36.1931 Y37.1261 
G01 X-35.5662 Y37.1261 
G01 X-35.5203 Y37.0803 
G01 X-35.3723 Y36.9813 
G01 X-35.2077 Y36.9132 
G01 X-35.0331 Y36.8785 
G01 X-33.5469 Y36.8785 
G01 X-33.3722 Y36.9132 
G01 X-33.2077 Y36.9813 
G01 X-33.0596 Y37.0803 
G01 X-32.9337 Y37.2062 
G01 X-32.8348 Y37.3543 
G01 X-32.7666 Y37.5188 
G01 X-32.7319 Y37.6935 
G01 X-32.7319 Y37.8715 
G01 X-32.7666 Y38.0462 
G01 X-32.8348 Y38.2107 
G01 X-32.9337 Y38.3588 
G01 X-33.0596 Y38.4847 
G01 X-33.2077 Y38.5837 
G01 X-33.3722 Y38.6518 
G01 X-33.5469 Y38.6865 
G01 X-35.0331 Y38.6865 
G01 X-35.2077 Y38.6518 
G01 X-35.3723 Y38.5837 
G01 X-35.5203 Y38.4847 
G01 X-35.5662 Y38.4389 
G01 X-36.1931 Y38.4389 
G01 X-36.6757 Y38.9215 
G01 X-37.4524 Y38.9215 
G01 X-38.8789 Y40.1697 
G01 X-38.9049 Y40.3002 
G01 X-38.9812 Y40.4844 
G01 X-39.0919 Y40.6501 
G01 X-39.2329 Y40.7911 
G01 X-39.3986 Y40.9018 
G01 X-39.5828 Y40.9781 
G01 X-39.7783 Y41.0170 
G01 X-41.5017 Y41.0170 
G01 X-41.6972 Y40.9781 
G00 Z1.5000 
G00 X-41.6972 Y36.8506 
G01 Z-0.1778 F254.00 
G01 X-41.8814 Y36.7743 F800.00 
G01 X-42.0471 Y36.6636 
G01 X-42.1881 Y36.5226 
G01 X-42.2988 Y36.3569 
G01 X-42.3751 Y36.1727 
G01 X-42.4140 Y35.9772 
G01 X-42.4140 Y35.7778 
G01 X-42.3751 Y35.5823 
G01 X-42.2988 Y35.3981 
G01 X-42.1881 Y35.2324 
G01 X-42.0471 Y35.0914 
G01 X-41.8814 Y34.9807 
G01 X-41.6972 Y34.9044 
G01 X-41.5017 Y34.8655 
G01 X-39.7783 Y34.8655 
G01 X-39.5828 Y34.9044 
G01 X-39.3986 Y34.9807 
G01 X-39.2329 Y35.0914 
G01 X-38.8359 Y34.7326 
G01 X-38.7284 Y34.6608 
G01 X-38.6090 Y34.6113 
G01 X-38.4821 Y34.5861 
G01 X-35.5662 Y34.5861 
G01 X-35.5203 Y34.5403 
G01 X-35.3723 Y34.4413 
G01 X-35.2077 Y34.3732 
G01 X-35.0331 Y34.3385 
G01 X-33.5469 Y34.3385 
G01 X-33.3722 Y34.3732 
G01 X-33.2077 Y34.4413 
G01 X-33.0596 Y34.5403 
G01 X-32.9337 Y34.6662 
G01 X-32.8348 Y34.8143 
G01 X-32.7666 Y34.9788 
G01 X-32.7319 Y35.1535 
G01 X-32.7319 Y35.3315 
G01 X-32.7666 Y35.5062 
G01 X-32.8348 Y35.6707 
G01 X-32.9337 Y35.8188 
G01 X-33.0596 Y35.9447 
G01 X-33.2077 Y36.0437 
G01 X-33.3722 Y36.1118 
G01 X-33.5469 Y36.1465 
G01 X-35.0331 Y36.1465 
G01 X-35.2077 Y36.1118 
G01 X-35.3723 Y36.0437 
G01 X-35.5203 Y35.9447 
G01 X-35.5662 Y35.8989 
G01 X-38.1456 Y35.8989 
G01 X-38.6341 Y36.3874 
G01 X-38.7416 Y36.4592 
G01 X-38.8610 Y36.5087 
G01 X-38.9878 Y36.5339 
G01 X-39.1032 Y36.5339 
G01 X-39.2329 Y36.6636 
G01 X-39.3986 Y36.7743 
G01 X-39.5828 Y36.8506 
G01 X-39.7783 Y36.8895 
G01 X-41.5017 Y36.8895 
G01 X-41.6972 Y36.8506 
G00 Z1.5000 
G00 X-41.6972 Y31.7706 
G01 Z-0.1778 F254.00 
G01 X-41.8814 Y31.6943 F800.00 
G01 X-42.0471 Y31.5836 
G01 X-42.1881 Y31.4426 
G01 X-42.2988 Y31.2769 
G01 X-42.3751 Y31.0927 
G01 X-42.4140 Y30.8972 
G01 X-42.4140 Y30.6978 
G01 X-42.3751 Y30.5023 
G01 X-42.2988 Y30.3181 
G01 X-42.1881 Y30.1524 
G01 X-42.0471 Y30.0114 
G01 X-41.8814 Y29.9007 
G01 X-41.6972 Y29.8244 
G01 X-41.5017 Y29.7855 
G01 X-39.7783 Y29.7855 
G01 X-39.5828 Y29.8244 
G01 X-39.3986 Y29.9007 
G01 X-39.2329 Y30.0114 
G01 X-39.1032 Y30.1411 
G01 X-38.9878 Y30.1411 
G01 X-38.8610 Y30.1663 
G01 X-38.7416 Y30.2158 
G01 X-38.6341 Y30.2876 
G01 X-36.8756 Y32.0461 
G01 X-35.5662 Y32.0461 
G01 X-35.5203 Y32.0003 
G01 X-35.3723 Y31.9013 
G01 X-35.2077 Y31.8332 
G01 X-35.0331 Y31.7984 
G01 X-33.5469 Y31.7984 
G01 X-33.3722 Y31.8332 
G01 X-33.2077 Y31.9013 
G01 X-33.0596 Y32.0003 
G01 X-32.9337 Y32.1262 
G01 X-32.8348 Y32.2743 
G01 X-32.7666 Y32.4388 
G01 X-32.7319 Y32.6135 
G01 X-32.7319 Y32.7915 
G01 X-32.7666 Y32.9662 
G01 X-32.8348 Y33.1307 
G01 X-32.9337 Y33.2788 
G01 X-33.0596 Y33.4047 
G01 X-33.2077 Y33.5037 
G01 X-33.3722 Y33.5718 
G01 X-33.5469 Y33.6065 
G01 X-35.0331 Y33.6065 
G01 X-35.2077 Y33.5718 
G01 X-35.3723 Y33.5037 
G01 X-35.5203 Y33.4047 
G01 X-35.5662 Y33.3589 
G01 X-37.2122 Y33.3589 
G01 X-37.3390 Y33.3337 
G01 X-37.4584 Y33.2842 
G01 X-37.5659 Y33.2124 
G01 X-39.2138 Y31.5645 
G01 X-39.3986 Y31.6943 
G01 X-39.5828 Y31.7706 
G01 X-39.7783 Y31.8095 
G01 X-41.5017 Y31.8095 
G01 X-41.6972 Y31.7706 
G00 Z1.5000 
G00 X-41.6972 Y29.2306 
G01 Z-0.1778 F254.00 
G01 X-41.8814 Y29.1543 F800.00 
G01 X-42.0471 Y29.0436 
G01 X-42.1881 Y28.9026 
G01 X-42.2988 Y28.7369 
G01 X-42.3751 Y28.5527 
G01 X-42.4140 Y28.3572 
G01 X-42.4140 Y28.1578 
G01 X-42.3751 Y27.9623 
G01 X-42.2988 Y27.7781 
G01 X-42.1881 Y27.6124 
G01 X-42.0471 Y27.4714 
G01 X-41.8814 Y27.3607 
G01 X-41.6972 Y27.2844 
G01 X-41.5017 Y27.2455 
G01 X-39.7783 Y27.2455 
G01 X-39.5828 Y27.2844 
G01 X-39.3986 Y27.3607 
G01 X-39.2329 Y27.4714 
G01 X-39.1032 Y27.6011 
G01 X-38.6703 Y27.6011 
G01 X-38.5435 Y27.6263 
