(.../pcb-gcode-3.6.2.4/pcb-gcode.ulp)
(Copyright 2005 - 2012 by John Johnson)
(See readme.txt for licensing terms.)
(This file generated from the board:)
(.../RPM controller/RPM controlletr v0.42.brd)
(Current profile is .../pcb-gcode-3.6.2.4/profiles/emc.pp  )
(This file generated 17-02-2015 16:03:53)
(Settings from pcb-machine.h)
(spindle on time = 1.0000)
(spindle speed = 20000.0000)
(tool change at 0.0000 0.0000 25.4000 )
(feed rate xy = F0.00  )
(feed rate z  = F508.00 )
(Z Axis Settings)
(  High     Up        Down     Drill)
(50.0000 	1.5000 	-0.1778 	-0.8128 )
(Settings from pcb-defaults.h)
(isolate min = 0.0000)
(isolate max = 0.3500)
(isolate step = 0.3500)
(Generated bottom outlines, bottom drill, )
(Unit of measure: mm)
( Tool|       Size       |  Min Sub |  Max Sub |   Count )
( T01 | 0.700mm 0.0276in | 0.0000in | 0.0000in |       0 )
( T02 | 0.800mm 0.0315in | 0.0000in | 0.0000in |       0 )
( T03 | 0.813mm 0.0320in | 0.0000in | 0.0000in |       0 )
( T04 | 1.000mm 0.0394in | 0.0000in | 0.0000in |       0 )
( T05 | 1.016mm 0.0400in | 0.0000in | 0.0000in |       0 )
( T06 | 2.000mm 0.0787in | 0.0000in | 0.0000in |       0 )
(Metric Mode)
G21
(Absolute Coordinates)
G90
S20000
G00 Z50.0000 
G00 X0.0000 Y0.0000 
M03
G04 P1.000000
M06 T01 (0.7000 )
G00 X-0.3175 Y-6.6675 
G00 Z1.0000 
G01 Z0.3501 F201.00 
G01 Z-0.8128 F508.00 
G00 Z1.5000 
G00 X-7.9375 Y-6.6675 
G00 Z1.0000 
G01 Z0.3501 F201.00 
G01 Z-0.8128 F508.00 
G00 Z1.5000 
G00 X-15.3275 Y6.9732 
G00 Z1.0000 
G01 Z0.3501 F201.00 
G01 Z-0.8128 F508.00 
G00 Z1.5000 
G00 X-11.4300 Y10.7950 
G00 Z1.0000 
G01 Z0.3501 F201.00 
G01 Z-0.8128 F508.00 
G00 Z1.5000 
G00 X-11.4300 Y13.3350 
G00 Z1.0000 
G01 Z0.3501 F201.00 
G01 Z-0.8128 F508.00 
G00 Z1.5000 
G00 X-11.4300 Y15.8750 
G00 Z1.0000 
G01 Z0.3501 F201.00 
G01 Z-0.8128 F508.00 
G00 Z1.5000 
G00 X-11.4300 Y18.4150 
G00 Z1.0000 
G01 Z0.3501 F201.00 
G01 Z-0.8128 F508.00 
G00 Z1.5000 
G00 X-11.4300 Y20.9550 
G00 Z1.0000 
G01 Z0.3501 F201.00 
G01 Z-0.8128 F508.00 
G00 Z1.5000 
G00 X-11.4300 Y23.4950 
G00 Z1.0000 
G01 Z0.3501 F201.00 
G01 Z-0.8128 F508.00 
G00 Z1.5000 
G00 X-11.4300 Y26.0350 
G00 Z1.0000 
G01 Z0.3501 F201.00 
G01 Z-0.8128 F508.00 
G00 Z1.5000 
G00 X-13.6525 Y29.8450 
G00 Z1.0000 
G01 Z0.3501 F201.00 
G01 Z-0.8128 F508.00 
G00 Z1.5000 
G00 X-8.5725 Y29.8450 
G00 Z1.0000 
G01 Z0.3501 F201.00 
G01 Z-0.8128 F508.00 
G00 Z1.5000 
G00 X-3.8100 Y26.0350 
G00 Z1.0000 
G01 Z0.3501 F201.00 
G01 Z-0.8128 F508.00 
G00 Z1.5000 
G00 X-3.8100 Y23.4950 
G00 Z1.0000 
G01 Z0.3501 F201.00 
G01 Z-0.8128 F508.00 
G00 Z1.5000 
G00 X-3.8100 Y20.9550 
G00 Z1.0000 
G01 Z0.3501 F201.00 
G01 Z-0.8128 F508.00 
G00 Z1.5000 
G00 X-3.8100 Y18.4150 
G00 Z1.0000 
G01 Z0.3501 F201.00 
G01 Z-0.8128 F508.00 
G00 Z1.5000 
G00 X-3.8100 Y15.8750 
G00 Z1.0000 
G01 Z0.3501 F201.00 
G01 Z-0.8128 F508.00 
G00 Z1.5000 
G00 X-3.8100 Y13.3350 
G00 Z1.0000 
G01 Z0.3501 F201.00 
G01 Z-0.8128 F508.00 
G00 Z1.5000 
G00 X-3.8100 Y10.7950 
G00 Z1.0000 
G01 Z0.3501 F201.00 
G01 Z-0.8128 F508.00 
G00 Z1.5000 
G00 X-14.2875 Y16.8275 
G00 Z1.0000 
G01 Z0.3501 F201.00 
G01 Z-0.8128 F508.00 
G00 Z1.5000 
G00 X-15.3275 Y14.5932 
G00 Z1.0000 
G01 Z0.3501 F201.00 
G01 Z-0.8128 F508.00 
G00 Z1.5000 
G00 X-14.2875 Y21.9075 
G00 Z1.0000 
G01 Z0.3501 F201.00 
G01 Z-0.8128 F508.00 
G00 Z1.5000 
G00 X-22.5425 Y21.1455 
G00 Z1.0000 
G01 Z0.3501 F201.00 
G01 Z-0.8128 F508.00 
G00 Z1.5000 
G00 X-26.6700 Y20.0025 
G00 Z1.0000 
G01 Z0.3501 F201.00 
G01 Z-0.8128 F508.00 
G00 Z1.5000 
G00 X-26.6700 Y22.5425 
G00 Z1.0000 
G01 Z0.3501 F201.00 
G01 Z-0.8128 F508.00 
G00 Z1.5000 
G00 X-26.6700 Y25.0825 
G00 Z1.0000 
G01 Z0.3501 F201.00 
G01 Z-0.8128 F508.00 
G00 Z1.5000 
G00 X-26.6700 Y27.6225 
G00 Z1.0000 
G01 Z0.3501 F201.00 
G01 Z-0.8128 F508.00 
G00 Z1.5000 
G00 X-26.6700 Y30.1625 
G00 Z1.0000 
G01 Z0.3501 F201.00 
G01 Z-0.8128 F508.00 
G00 Z1.5000 
G00 X-26.6700 Y32.7025 
G00 Z1.0000 
G01 Z0.3501 F201.00 
G01 Z-0.8128 F508.00 
G00 Z1.5000 
G00 X-26.6700 Y35.2425 
G00 Z1.0000 
G01 Z0.3501 F201.00 
G01 Z-0.8128 F508.00 
G00 Z1.5000 
G00 X-26.6700 Y37.7825 
G00 Z1.0000 
G01 Z0.3501 F201.00 
G01 Z-0.8128 F508.00 
G00 Z1.5000 
G00 X-26.6700 Y40.3225 
G00 Z1.0000 
G01 Z0.3501 F201.00 
G01 Z-0.8128 F508.00 
G00 Z1.5000 
G00 X-26.6700 Y42.8625 
G00 Z1.0000 
G01 Z0.3501 F201.00 
G01 Z-0.8128 F508.00 
G00 Z1.5000 
G00 X-28.2575 Y48.2600 
G00 Z1.0000 
G01 Z0.3501 F201.00 
G01 Z-0.8128 F508.00 
G00 Z1.5000 
G00 X-30.7975 Y48.2600 
G00 Z1.0000 
G01 Z0.3501 F201.00 
G01 Z-0.8128 F508.00 
G00 Z1.5000 
G00 X-33.3375 Y48.2600 
G00 Z1.0000 
G01 Z0.3501 F201.00 
G01 Z-0.8128 F508.00 
G00 Z1.5000 
G00 X-35.8775 Y47.3075 
G00 Z1.0000 
G01 Z0.3501 F201.00 
G01 Z-0.8128 F508.00 
G00 Z1.5000 
G00 X-38.4175 Y47.3075 
G00 Z1.0000 
G01 Z0.3501 F201.00 
G01 Z-0.8128 F508.00 
G00 Z1.5000 
G00 X-40.9575 Y47.3075 
G00 Z1.0000 
G01 Z0.3501 F201.00 
G01 Z-0.8128 F508.00 
G00 Z1.5000 
G00 X-34.2900 Y42.8625 
G00 Z1.0000 
G01 Z0.3501 F201.00 
G01 Z-0.8128 F508.00 
G00 Z1.5000 
G00 X-34.2900 Y40.3225 
G00 Z1.0000 
G01 Z0.3501 F201.00 
G01 Z-0.8128 F508.00 
G00 Z1.5000 
G00 X-34.2900 Y37.7825 
G00 Z1.0000 
G01 Z0.3501 F201.00 
G01 Z-0.8128 F508.00 
G00 Z1.5000 
G00 X-34.2900 Y35.2425 
G00 Z1.0000 
G01 Z0.3501 F201.00 
G01 Z-0.8128 F508.00 
G00 Z1.5000 
G00 X-34.2900 Y32.7025 
G00 Z1.0000 
G01 Z0.3501 F201.00 
G01 Z-0.8128 F508.00 
G00 Z1.5000 
G00 X-34.2900 Y30.1625 
G00 Z1.0000 
G01 Z0.3501 F201.00 
G01 Z-0.8128 F508.00 
G00 Z1.5000 
G00 X-34.2900 Y27.6225 
G00 Z1.0000 
G01 Z0.3501 F201.00 
G01 Z-0.8128 F508.00 
G00 Z1.5000 
G00 X-34.2900 Y25.0825 
G00 Z1.0000 
G01 Z0.3501 F201.00 
G01 Z-0.8128 F508.00 
G00 Z1.5000 
G00 X-34.2900 Y22.5425 
G00 Z1.0000 
G01 Z0.3501 F201.00 
G01 Z-0.8128 F508.00 
G00 Z1.5000 
G00 X-34.2900 Y20.0025 
G00 Z1.0000 
G01 Z0.3501 F201.00 
G01 Z-0.8128 F508.00 
G00 Z1.5000 
G00 X-34.2900 Y17.4625 
G00 Z1.0000 
G01 Z0.3501 F201.00 
G01 Z-0.8128 F508.00 
G00 Z1.5000 
G00 X-34.2900 Y14.9225 
G00 Z1.0000 
G01 Z0.3501 F201.00 
G01 Z-0.8128 F508.00 
G00 Z1.5000 
G00 X-34.2900 Y12.3825 
G00 Z1.0000 
G01 Z0.3501 F201.00 
G01 Z-0.8128 F508.00 
G00 Z1.5000 
G00 X-34.2900 Y9.8425 
G00 Z1.0000 
G01 Z0.3501 F201.00 
G01 Z-0.8128 F508.00 
G00 Z1.5000 
G00 X-26.6700 Y9.8425 
G00 Z1.0000 
G01 Z0.3501 F201.00 
G01 Z-0.8128 F508.00 
G00 Z1.5000 
G00 X-26.6700 Y12.3825 
G00 Z1.0000 
G01 Z0.3501 F201.00 
G01 Z-0.8128 F508.00 
G00 Z1.5000 
G00 X-26.6700 Y14.9225 
G00 Z1.0000 
G01 Z0.3501 F201.00 
G01 Z-0.8128 F508.00 
G00 Z1.5000 
G00 X-26.6700 Y17.4625 
G00 Z1.0000 
G01 Z0.3501 F201.00 
G01 Z-0.8128 F508.00 
G00 Z1.5000 
G00 X-22.5425 Y16.3195 
G00 Z1.0000 
G01 Z0.3501 F201.00 
G01 Z-0.8128 F508.00 
G00 Z1.5000 
G00 X-23.4950 Y25.4000 
G00 Z1.0000 
G01 Z0.3501 F201.00 
G01 Z-0.8128 F508.00 
G00 Z1.5000 
G00 X-20.6375 Y27.9400 
G00 Z1.0000 
G01 Z0.3501 F201.00 
G01 Z-0.8128 F508.00 
G00 Z1.5000 
G00 X-23.4950 Y30.4800 
G00 Z1.0000 
G01 Z0.3501 F201.00 
G01 Z-0.8128 F508.00 
G00 Z1.5000 
G00 X-18.4150 Y32.7025 
G00 Z1.0000 
G01 Z0.3501 F201.00 
G01 Z-0.8128 F508.00 
G00 Z1.5000 
G00 X-18.4150 Y35.2425 
G00 Z1.0000 
G01 Z0.3501 F201.00 
G01 Z-0.8128 F508.00 
G00 Z1.5000 
G00 X-18.4150 Y37.7825 
G00 Z1.0000 
G01 Z0.3501 F201.00 
G01 Z-0.8128 F508.00 
G00 Z1.5000 
G00 X-13.9700 Y42.5450 
G00 Z1.0000 
G01 Z0.3501 F201.00 
G01 Z-0.8128 F508.00 
G00 Z1.5000 
G00 X-13.9700 Y47.6250 
G00 Z1.0000 
G01 Z0.3501 F201.00 
G01 Z-0.8128 F508.00 
G00 Z1.5000 
G00 X-13.9700 Y50.1650 
G00 Z1.0000 
G01 Z0.3501 F201.00 
G01 Z-0.8128 F508.00 
G00 Z1.5000 
G00 X-13.9700 Y52.7050 
G00 Z1.0000 
G01 Z0.3501 F201.00 
G01 Z-0.8128 F508.00 
G00 Z1.5000 
G00 X-8.8900 Y52.7050 
G00 Z1.0000 
G01 Z0.3501 F201.00 
G01 Z-0.8128 F508.00 
G00 Z1.5000 
G00 X-8.8900 Y50.1650 
G00 Z1.0000 
G01 Z0.3501 F201.00 
G01 Z-0.8128 F508.00 
G00 Z1.5000 
G00 X-8.8900 Y47.6250 
G00 Z1.0000 
G01 Z0.3501 F201.00 
G01 Z-0.8128 F508.00 
G00 Z1.5000 
G00 X-8.8900 Y42.5450 
G00 Z1.0000 
G01 Z0.3501 F201.00 
G01 Z-0.8128 F508.00 
G00 Z1.5000 
G00 X-10.1600 Y36.5125 
G00 Z1.0000 
G01 Z0.3501 F201.00 
G01 Z-0.8128 F508.00 
G00 Z1.5000 
G00 X-37.1475 Y37.7825 
G00 Z1.0000 
G01 Z0.3501 F201.00 
G01 Z-0.8128 F508.00 
G00 Z1.5000 
G00 X-37.1475 Y25.0825 
G00 Z1.0000 
G01 Z0.3501 F201.00 
G01 Z-0.8128 F508.00 
G00 Z1.5000 
M06 T02 (0.8000 )
G00 X-7.9375 Y39.6875 
G00 Z1.0000 
G01 Z0.3501 F201.00 
G01 Z-0.8128 F508.00 
G00 Z1.5000 
G00 X-15.5575 Y39.6875 
G00 Z1.0000 
G01 Z0.3501 F201.00 
G01 Z-0.8128 F508.00 
G00 Z1.5000 
G00 X-18.4150 Y25.0825 
G00 Z1.0000 
G01 Z0.3501 F201.00 
G01 Z-0.8128 F508.00 
G00 Z1.5000 
G00 X-18.4150 Y22.5425 
G00 Z1.0000 
G01 Z0.3501 F201.00 
G01 Z-0.8128 F508.00 
G00 Z1.5000 
G00 X-18.4150 Y20.0025 
G00 Z1.0000 
G01 Z0.3501 F201.00 
G01 Z-0.8128 F508.00 
G00 Z1.5000 
G00 X-18.4150 Y17.4625 
G00 Z1.0000 
G01 Z0.3501 F201.00 
G01 Z-0.8128 F508.00 
G00 Z1.5000 
M06 T03 (0.8128 )
G00 X-0.9525 Y30.7975 
G00 Z1.0000 
G01 Z0.3501 F201.00 
G01 Z-0.8128 F508.00 
G00 Z1.5000 
G00 X-6.0325 Y30.7975 
G00 Z1.0000 
G01 Z0.3501 F201.00 
G01 Z-0.8128 F508.00 
G00 Z1.5000 
M06 T04 (1.0000 )
G00 X-4.1275 Y44.7675 
G00 Z1.0000 
G01 Z0.3501 F201.00 
G01 Z-0.8128 F508.00 
G00 Z1.5000 
G00 X-4.1275 Y47.3075 
G00 Z1.0000 
G01 Z0.3501 F201.00 
G01 Z-0.8128 F508.00 
G00 Z1.5000 
G00 X-4.1275 Y49.8475 
G00 Z1.0000 
G01 Z0.3501 F201.00 
G01 Z-0.8128 F508.00 
G00 Z1.5000 
G00 X-28.2975 Y54.6100 
G00 Z1.0000 
G01 Z0.3501 F201.00 
G01 Z-0.8128 F508.00 
G00 Z1.5000 
G00 X-33.2975 Y54.6100 
G00 Z1.0000 
G01 Z0.3501 F201.00 
G01 Z-0.8128 F508.00 
G00 Z1.5000 
G00 X-27.9400 Y4.1275 
G00 Z1.0000 
G01 Z0.3501 F201.00 
G01 Z-0.8128 F508.00 
G00 Z1.5000 
G00 X-25.4000 Y4.1275 
G00 Z1.0000 
G01 Z0.3501 F201.00 
G01 Z-0.8128 F508.00 
G00 Z1.5000 
G00 X-22.8600 Y4.1275 
G00 Z1.0000 
G01 Z0.3501 F201.00 
G01 Z-0.8128 F508.00 
G00 Z1.5000 
G00 X-17.7800 Y4.1275 
G00 Z1.0000 
G01 Z0.3501 F201.00 
G01 Z-0.8128 F508.00 
G00 Z1.5000 
G00 X-15.2400 Y4.1275 
G00 Z1.0000 
G01 Z0.3501 F201.00 
G01 Z-0.8128 F508.00 
G00 Z1.5000 
G00 X-12.7000 Y4.1275 
G00 Z1.0000 
G01 Z0.3501 F201.00 
G01 Z-0.8128 F508.00 
G00 Z1.5000 
M06 T05 (1.0160 )
G00 X-4.1275 Y35.8775 
G00 Z1.0000 
G01 Z0.3501 F201.00 
G01 Z-0.8128 F508.00 
G00 Z1.5000 
G00 X-4.1275 Y38.4175 
G00 Z1.0000 
G01 Z0.3501 F201.00 
G01 Z-0.8128 F508.00 
G00 Z1.5000 
G00 X-20.6375 Y41.9100 
G00 Z1.0000 
G01 Z0.3501 F201.00 
G01 Z-0.8128 F508.00 
G00 Z1.5000 
G00 X-20.6375 Y44.4500 
G00 Z1.0000 
G01 Z0.3501 F201.00 
G01 Z-0.8128 F508.00 
G00 Z1.5000 
G00 X-20.6375 Y46.9900 
G00 Z1.0000 
G01 Z0.3501 F201.00 
G01 Z-0.8128 F508.00 
G00 Z1.5000 
G00 X-20.6375 Y49.5300 
G00 Z1.0000 
G01 Z0.3501 F201.00 
G01 Z-0.8128 F508.00 
G00 Z1.5000 
G00 X-20.6375 Y52.0700 
G00 Z1.0000 
G01 Z0.3501 F201.00 
G01 Z-0.8128 F508.00 
G00 Z1.5000 
G00 X-20.6375 Y54.6100 
G00 Z1.0000 
G01 Z0.3501 F201.00 
G01 Z-0.8128 F508.00 
G00 Z1.5000 
G00 X-40.6400 Y42.5450 
G00 Z1.0000 
G01 Z0.3501 F201.00 
G01 Z-0.8128 F508.00 
G00 Z1.5000 
G00 X-40.6400 Y40.0050 
G00 Z1.0000 
G01 Z0.3501 F201.00 
G01 Z-0.8128 F508.00 
G00 Z1.5000 
G00 X-40.6400 Y35.8775 
G00 Z1.0000 
G01 Z0.3501 F201.00 
G01 Z-0.8128 F508.00 
G00 Z1.5000 
G00 X-40.6400 Y33.3375 
G00 Z1.0000 
G01 Z0.3501 F201.00 
G01 Z-0.8128 F508.00 
G00 Z1.5000 
G00 X-40.6400 Y30.7975 
G00 Z1.0000 
G01 Z0.3501 F201.00 
G01 Z-0.8128 F508.00 
G00 Z1.5000 
G00 X-40.6400 Y28.2575 
G00 Z1.0000 
G01 Z0.3501 F201.00 
G01 Z-0.8128 F508.00 
G00 Z1.5000 
G00 X-40.6400 Y25.7175 
G00 Z1.0000 
G01 Z0.3501 F201.00 
G01 Z-0.8128 F508.00 
G00 Z1.5000 
G00 X-40.6400 Y21.9075 
G00 Z1.0000 
G01 Z0.3501 F201.00 
G01 Z-0.8128 F508.00 
G00 Z1.5000 
G00 X-40.6400 Y19.3675 
G00 Z1.0000 
G01 Z0.3501 F201.00 
G01 Z-0.8128 F508.00 
G00 Z1.5000 
G00 X-40.6400 Y16.8275 
G00 Z1.0000 
G01 Z0.3501 F201.00 
G01 Z-0.8128 F508.00 
G00 Z1.5000 
G00 X-40.6400 Y14.2875 
G00 Z1.0000 
G01 Z0.3501 F201.00 
G01 Z-0.8128 F508.00 
G00 Z1.5000 
G00 X-40.6400 Y11.7475 
G00 Z1.0000 
G01 Z0.3501 F201.00 
G01 Z-0.8128 F508.00 
G00 Z1.5000 
G00 X-40.6400 Y9.2075 
G00 Z1.0000 
G01 Z0.3501 F201.00 
G01 Z-0.8128 F508.00 
G00 Z1.5000 
G00 X-35.2425 Y5.3975 
G00 Z1.0000 
G01 Z0.3501 F201.00 
G01 Z-0.8128 F508.00 
G00 Z1.5000 
G00 X-32.7025 Y5.3975 
G00 Z1.0000 
G01 Z0.3501 F201.00 
G01 Z-0.8128 F508.00 
G00 Z1.5000 
G00 X-21.9075 Y7.6200 
G00 Z1.0000 
G01 Z0.3501 F201.00 
G01 Z-0.8128 F508.00 
G00 Z1.5000 
G00 X-19.3675 Y7.6200 
G00 Z1.0000 
G01 Z0.3501 F201.00 
G01 Z-0.8128 F508.00 
G00 Z1.5000 
G00 X-19.3675 Y11.4300 
G00 Z1.0000 
G01 Z0.3501 F201.00 
G01 Z-0.8128 F508.00 
G00 Z1.5000 
G00 X-21.9075 Y11.4300 
G00 Z1.0000 
G01 Z0.3501 F201.00 
G01 Z-0.8128 F508.00 
G00 Z1.5000 
M06 T06 (2.0000 )
G00 X-3.4925 Y3.4925 
G00 Z1.0000 
G01 Z0.3501 F201.00 
G01 Z-0.8128 F508.00 
G00 Z1.5000 
G00 X-40.4925 Y3.4925 
G00 Z1.0000 
G01 Z0.3501 F201.00 
G01 Z-0.8128 F508.00 
G00 Z1.5000 
G00 X-40.4925 Y55.9925 
G00 Z1.0000 
G01 Z0.3501 F201.00 
G01 Z-0.8128 F508.00 
G00 Z1.5000 
G00 X-3.4925 Y55.9925 
G00 Z1.0000 
G01 Z0.3501 F201.00 
G01 Z-0.8128 F508.00 
G00 Z1.5000 
T01 
G00 Z50.0000 
M05
M02
