(.../pcb-gcode-3.6.2.4/pcb-gcode.ulp)
(Copyright 2005 - 2012 by John Johnson)
(See readme.txt for licensing terms.)
(This file generated from the board:)
(.../Støvsuger relæ/støvsuger relay v0.1.brd)
(Current profile is .../pcb-gcode-3.6.2.4/profiles/emc.pp  )
(This file generated 21-02-2015 16:16:01)
(Settings from pcb-machine.h)
(spindle on time = 1.0000)
(  Tool Size)
(0.5150 )
(spindle speed = 30000.0000)
(tool change at 0.0000 0.0000 25.4000 )
(feed rate xy = F650.00 )
(feed rate z  = F211.00 )
(Z Axis Settings)
(  High     Up        Down     Drill)
(10.0000 	1.5000 	-0.1050 	-2.2110 )
(Settings from pcb-defaults.h)
(isolate min = 0.0000)
(isolate max = 0.4000)
(isolate step = 0.4000)
(Generated bottom outlines, bottom drill, )
(Unit of measure: mm)
( G20 Metric Mode)
g21 G90
(Absolute Coordinates)
(G90)
S30000
G00 Z10.0000 
M03
G04 P1.000000
G00 Z1.5000 
G00 X-4.1625 Y8.5985 
G01 Z-0.1050 F211.00 
G01 X-4.0509 Y8.7655 F650.00 
G01 X-3.9741 Y8.9510 
G01 X-3.9349 Y9.1480 
G01 X-3.9349 Y9.3488 
G01 X-3.9741 Y9.5458 
G01 X-4.0509 Y9.7313 
G01 X-4.1625 Y9.8983 
G01 X-4.3045 Y10.0403 
G01 X-4.4715 Y10.1519 
G01 X-4.6570 Y10.2287 
G01 X-4.8540 Y10.2679 
G01 X-6.5788 Y10.2679 
G01 X-6.7758 Y10.2287 
G01 X-6.9613 Y10.1519 
G01 X-7.0314 Y10.1051 
G01 X-7.1033 Y10.1417 
G01 X-7.3053 Y10.2074 
G01 X-7.5152 Y10.2406 
G01 X-7.7276 Y10.2406 
G01 X-7.9375 Y10.2074 
G01 X-8.1395 Y10.1417 
G01 X-8.3288 Y10.0453 
G01 X-8.5007 Y9.9204 
G01 X-9.1330 Y9.2881 
G01 X-11.7905 Y9.2881 
G01 X-11.9521 Y9.4002 
G01 X-12.1180 Y9.4689 
G01 X-12.2941 Y9.5039 
G01 X-12.4737 Y9.5039 
G01 X-12.6498 Y9.4689 
G01 X-12.8157 Y9.4002 
G01 X-12.8936 Y9.3481 
G01 X-15.4957 Y9.3481 
G01 X-15.6250 Y9.4140 
G01 X-15.8537 Y9.4883 
G01 X-16.0912 Y9.5259 
G01 X-16.3316 Y9.5259 
G01 X-16.5691 Y9.4883 
G01 X-16.7978 Y9.4140 
G01 X-17.0120 Y9.3048 
G01 X-17.2065 Y9.1635 
G01 X-17.3765 Y8.9935 
G01 X-17.5178 Y8.7990 
G01 X-17.6270 Y8.5848 
G01 X-17.7013 Y8.3561 
G01 X-17.7389 Y8.1186 
G01 X-17.7389 Y7.8782 
G01 X-17.7013 Y7.6407 
G01 X-17.6270 Y7.4120 
G01 X-17.5178 Y7.1978 
G01 X-17.3765 Y7.0033 
G01 X-17.2065 Y6.8333 
G01 X-17.0120 Y6.6920 
G01 X-16.7978 Y6.5828 
G01 X-16.5691 Y6.5085 
G01 X-16.3316 Y6.4709 
G01 X-16.0912 Y6.4709 
G01 X-15.8537 Y6.5085 
G01 X-15.6250 Y6.5828 
G01 X-15.4957 Y6.6487 
G01 X-13.0373 Y6.6487 
G01 X-12.9649 Y6.5764 
G01 X-12.8157 Y6.4766 
G01 X-12.6498 Y6.4079 
G01 X-12.4737 Y6.3729 
G01 X-12.2941 Y6.3729 
G01 X-12.1180 Y6.4079 
G01 X-11.9521 Y6.4766 
G01 X-11.8028 Y6.5764 
G01 X-8.4677 Y6.5887 
G01 X-8.2578 Y6.6219 
G01 X-8.0558 Y6.6876 
G01 X-7.8665 Y6.7840 
G01 X-7.6946 Y6.9089 
G01 X-6.5919 Y8.0116 
G01 X-6.4670 Y8.1835 
G01 X-6.4439 Y8.2289 
G01 X-4.8540 Y8.2289 
G01 X-4.6570 Y8.2681 
G01 X-4.4715 Y8.3449 
G01 X-4.3045 Y8.4565 
G01 X-4.1625 Y8.5985 
G00 Z1.5000 
G00 X-4.1625 Y13.5985 
G01 Z-0.1050 F211.00 
G01 X-4.0509 Y13.7655 F650.00 
G01 X-3.9741 Y13.9510 
G01 X-3.9349 Y14.1480 
G01 X-3.9349 Y14.3488 
G01 X-3.9741 Y14.5458 
G01 X-4.0509 Y14.7313 
G01 X-4.1625 Y14.8983 
G01 X-4.3045 Y15.0403 
G01 X-4.4715 Y15.1519 
G01 X-4.6570 Y15.2287 
G01 X-4.8540 Y15.2679 
G01 X-6.1264 Y15.2679 
G01 X-6.1495 Y15.3133 
G01 X-6.2744 Y15.4852 
G01 X-7.3771 Y16.5879 
G01 X-7.5490 Y16.7128 
G01 X-7.7383 Y16.8092 
G01 X-7.9403 Y16.8749 
G01 X-8.1502 Y16.9081 
G01 X-11.7905 Y16.9081 
G01 X-11.9521 Y17.0202 
G01 X-12.1180 Y17.0889 
G01 X-12.2941 Y17.1239 
G01 X-12.4737 Y17.1239 
G01 X-12.6498 Y17.0889 
G01 X-12.8157 Y17.0202 
G01 X-12.9649 Y16.9204 
G01 X-15.6135 Y16.9081 
G01 X-15.8537 Y16.9883 
G01 X-16.0912 Y17.0259 
G01 X-16.3316 Y17.0259 
G01 X-16.5691 Y16.9883 
G01 X-16.7978 Y16.9140 
G01 X-17.0120 Y16.8048 
G01 X-17.2065 Y16.6635 
G01 X-17.3765 Y16.4935 
G01 X-17.5178 Y16.2990 
G01 X-17.6270 Y16.0848 
G01 X-17.7013 Y15.8561 
G01 X-17.7389 Y15.6186 
G01 X-17.7389 Y15.3782 
G01 X-17.7013 Y15.1407 
G01 X-17.6270 Y14.9120 
G01 X-17.5178 Y14.6978 
G01 X-17.3765 Y14.5033 
G01 X-17.2065 Y14.3333 
G01 X-17.0120 Y14.1920 
G01 X-16.7978 Y14.0828 
G01 X-16.5691 Y14.0085 
G01 X-16.3316 Y13.9709 
G01 X-16.0912 Y13.9709 
G01 X-15.8537 Y14.0085 
G01 X-15.6250 Y14.0828 
G01 X-15.4108 Y14.1920 
G01 X-12.9773 Y14.2087 
G01 X-12.8157 Y14.0966 
G01 X-12.6498 Y14.0279 
G01 X-12.4737 Y13.9929 
G01 X-12.2941 Y13.9929 
G01 X-12.1180 Y14.0279 
G01 X-11.9521 Y14.0966 
G01 X-11.8028 Y14.1964 
G01 X-8.8155 Y14.2087 
G01 X-8.1832 Y13.5764 
G01 X-8.0113 Y13.4515 
G01 X-7.8220 Y13.3551 
G01 X-7.6200 Y13.2894 
G01 X-7.4101 Y13.2562 
G01 X-7.1977 Y13.2562 
G01 X-6.9878 Y13.2894 
G01 X-6.8979 Y13.3187 
G01 X-6.7758 Y13.2681 
G01 X-6.5788 Y13.2289 
G01 X-4.8540 Y13.2289 
G01 X-4.6570 Y13.2681 
G01 X-4.4715 Y13.3449 
G01 X-4.3045 Y13.4565 
G01 X-4.1625 Y13.5985 
G00 Z1.5000 
G00 X-19.6214 Y22.5938 
G01 Z-0.1050 F211.00 
G01 X-19.6475 Y22.6910 F650.00 
G01 X-19.6978 Y22.7783 
G01 X-19.7690 Y22.8495 
G01 X-19.8563 Y22.8998 
G01 X-19.9535 Y22.9259 
G01 X-20.0543 Y22.9259 
G01 X-20.1515 Y22.8998 
G01 X-20.2388 Y22.8495 
G01 X-20.3100 Y22.7783 
G01 X-20.3603 Y22.6910 
G01 X-20.3864 Y22.5938 
G01 X-20.3864 Y0.9030 
G01 X-20.3603 Y0.8058 
G01 X-20.3100 Y0.7185 
G01 X-20.2388 Y0.6473 
G01 X-20.1515 Y0.5970 
G01 X-20.0543 Y0.5709 
G01 X-19.9535 Y0.5709 
G01 X-19.8563 Y0.5970 
G01 X-19.7690 Y0.6473 
G01 X-19.6978 Y0.7185 
G01 X-19.6475 Y0.8058 
G01 X-19.6214 Y0.9030 
G01 X-19.6214 Y22.5938 
G00 Z1.5000 
G00 X-40.7825 Y13.3777 
G01 Z-0.1050 F211.00 
G01 X-41.0074 Y13.5503 F650.00 
G01 X-41.2529 Y13.6920 
G01 X-41.5148 Y13.8005 
G01 X-41.7886 Y13.8739 
G01 X-42.0697 Y13.9109 
G01 X-42.3531 Y13.9109 
G01 X-42.6342 Y13.8739 
G01 X-42.9080 Y13.8005 
G01 X-43.1699 Y13.6920 
G01 X-43.4154 Y13.5503 
G01 X-43.6403 Y13.3777 
G01 X-43.8407 Y13.1773 
G01 X-44.0133 Y12.9524 
G01 X-44.1550 Y12.7069 
G01 X-44.2635 Y12.4450 
G01 X-44.3369 Y12.1712 
G01 X-44.3739 Y11.8901 
G01 X-44.3739 Y11.6067 
G01 X-44.3369 Y11.3256 
G01 X-44.2635 Y11.0518 
G01 X-44.1550 Y10.7899 
G01 X-44.0133 Y10.5444 
G01 X-43.8407 Y10.3195 
G01 X-43.6403 Y10.1191 
G01 X-43.4154 Y9.9465 
G01 X-43.1699 Y9.8048 
G01 X-42.9080 Y9.6963 
G01 X-42.6342 Y9.6229 
G01 X-42.3531 Y9.5859 
G01 X-42.0697 Y9.5859 
G01 X-41.7886 Y9.6229 
G01 X-41.5148 Y9.6963 
G01 X-41.2529 Y9.8048 
G01 X-41.0074 Y9.9465 
G01 X-40.7825 Y10.1191 
G01 X-40.5821 Y10.3195 
G01 X-40.4095 Y10.5444 
G01 X-40.2677 Y10.7899 
G01 X-40.1593 Y11.0518 
G01 X-40.0859 Y11.3256 
G01 X-40.0489 Y11.6067 
G01 X-40.0489 Y11.8901 
G01 X-40.0859 Y12.1712 
G01 X-40.1593 Y12.4450 
G01 X-40.2677 Y12.7069 
G01 X-40.4095 Y12.9524 
G01 X-40.5821 Y13.1773 
G01 X-40.7825 Y13.3777 
G00 Z1.5000 
G00 X-39.6491 Y19.8989 
G01 Z-0.1270 F254.00 
G01 X-39.6491 Y21.9072 F650.00 
G01 X-38.6449 Y21.9072 
G01 X-38.3102 Y21.5725 
G01 X-38.3102 Y20.9031 
G01 X-38.6449 Y20.5683 
G01 X-39.6491 Y20.5683 
G00 Z1.5000 
G00 X-38.9797 Y20.5683 
G01 Z-0.1270 F254.00 
G01 X-38.3102 Y19.8989 F650.00 
G00 Z1.5000 
G00 X-36.6336 Y19.8989 
G01 Z-0.1270 F254.00 
G01 X-37.3030 Y19.8989 F650.00 
G01 X-37.6377 Y20.2336 
G01 X-37.6377 Y20.9031 
G01 X-37.3030 Y21.2378 
G01 X-36.6336 Y21.2378 
G01 X-36.2989 Y20.9031 
G01 X-36.2989 Y20.5683 
G01 X-37.6377 Y20.5683 
G00 Z1.5000 
G00 X-35.6264 Y21.9072 
G01 Z-0.1270 F254.00 
G01 X-35.2916 Y21.9072 F650.00 
G01 X-35.2916 Y19.8989 
G00 Z1.5000 
G00 X-35.6264 Y19.8989 
G01 Z-0.1270 F254.00 
G01 X-34.9569 Y19.8989 F650.00 
G00 Z1.5000 
G00 X-33.9507 Y21.2378 
G01 Z-0.1270 F254.00 
G01 X-33.2813 Y21.2378 F650.00 
G01 X-32.9466 Y20.9031 
G01 X-32.9466 Y19.8989 
G01 X-33.9507 Y19.8989 
G01 X-34.2855 Y20.2336 
G01 X-33.9507 Y20.5683 
G01 X-32.9466 Y20.5683 
G00 Z1.5000 
G00 X-32.2741 Y21.2378 
G01 Z-0.1270 F254.00 
G01 X-32.2741 Y20.2336 F650.00 
G01 X-31.9394 Y19.8989 
G01 X-30.9352 Y19.8989 
G00 Z1.5000 
G00 X-30.9352 Y21.2378 
G01 Z-0.1270 F254.00 
G01 X-30.9352 Y19.5642 F650.00 
G01 X-31.2699 Y19.2295 
G01 X-31.6047 Y19.2295 
G00 Z1.5000 
G00 X-28.2514 Y21.9072 
G01 Z-0.1270 F254.00 
G01 X-28.2514 Y20.5683 F650.00 
G01 X-27.5819 Y19.8989 
G01 X-26.9125 Y20.5683 
G01 X-26.9125 Y21.9072 
G00 Z1.5000 
G00 X-25.9053 Y21.2378 
G01 Z-0.1270 F254.00 
G01 X-25.2358 Y21.2378 F650.00 
G01 X-24.9011 Y20.9031 
G01 X-24.9011 Y19.8989 
G01 X-25.9053 Y19.8989 
G01 X-26.2400 Y20.2336 
G01 X-25.9053 Y20.5683 
G01 X-24.9011 Y20.5683 
G00 Z1.5000 
G00 X-22.8898 Y21.2378 
G01 Z-0.1270 F254.00 
G01 X-23.8939 Y21.2378 F650.00 
G01 X-24.2286 Y20.9031 
G01 X-24.2286 Y20.2336 
G01 X-23.8939 Y19.8989 
G01 X-22.8898 Y19.8989 
G00 Z1.5000 
G00 X-22.2173 Y19.8989 
G01 Z-0.1270 F254.00 
G01 X-22.2173 Y20.2336 F650.00 
G01 X-21.8825 Y20.2336 
G01 X-21.8825 Y19.8989 
G01 X-22.2173 Y19.8989 
G00 Z1.5000 
G00 X-28.0562 Y16.0259 
G01 Z-0.1270 F254.00 
G01 X-29.3951 Y16.0259 F650.00 
G01 X-28.0562 Y17.3648 
G01 X-28.0562 Y17.6995 
G01 X-28.3909 Y18.0342 
G01 X-29.0604 Y18.0342 
G01 X-29.3951 Y17.6995 
G00 Z1.5000 
G00 X-27.3837 Y17.6995 
G01 Z-0.1270 F254.00 
G01 X-27.0490 Y18.0342 F650.00 
G01 X-26.3796 Y18.0342 
G01 X-26.0449 Y17.6995 
G01 X-26.0449 Y17.3648 
G01 X-26.3796 Y17.0301 
G01 X-26.7143 Y17.0301 
G00 Z1.5000 
G00 X-26.3796 Y17.0301 
G01 Z-0.1270 F254.00 
G01 X-26.0449 Y16.6953 F650.00 
G01 X-26.0449 Y16.3606 
G01 X-26.3796 Y16.0259 
G01 X-27.0490 Y16.0259 
G01 X-27.3837 Y16.3606 
G00 Z1.5000 
G00 X-25.3724 Y16.3606 
G01 Z-0.1270 F254.00 
G01 X-25.3724 Y17.6995 F650.00 
G01 X-25.0376 Y18.0342 
G01 X-24.3682 Y18.0342 
G01 X-24.0335 Y17.6995 
G01 X-24.0335 Y16.3606 
G01 X-24.3682 Y16.0259 
G01 X-25.0376 Y16.0259 
G01 X-25.3724 Y16.3606 
G01 X-24.0335 Y17.6995 
G00 Z1.5000 
G00 X-23.3610 Y18.0342 
G01 Z-0.1270 F254.00 
G01 X-23.3610 Y16.6953 F650.00 
G01 X-22.6916 Y16.0259 
G01 X-22.0221 Y16.6953 
G01 X-22.0221 Y18.0342 
G00 Z1.5000 
G00 X-3.8717 Y8.3237 
G01 Z-0.1050 F211.00 
G01 X-3.7403 Y8.5044 F650.00 
G01 X-3.6389 Y8.7035 
G01 X-3.5699 Y8.9160 
G01 X-3.5349 Y9.1367 
G01 X-3.5349 Y9.3601 
G01 X-3.5699 Y9.5808 
G01 X-3.6389 Y9.7933 
G01 X-3.7403 Y9.9924 
G01 X-3.8717 Y10.1731 
G01 X-4.0297 Y10.3311 
G01 X-4.2104 Y10.4625 
G01 X-4.4095 Y10.5639 
G01 X-4.6220 Y10.6329 
G01 X-4.8427 Y10.6679 
G01 X-6.5901 Y10.6679 
G01 X-6.8108 Y10.6329 
G01 X-7.0233 Y10.5639 
G01 X-7.0524 Y10.5491 
G01 X-7.2793 Y10.6107 
G01 X-7.5067 Y10.6406 
G01 X-7.7361 Y10.6406 
G01 X-7.9635 Y10.6107 
G01 X-8.1850 Y10.5513 
G01 X-8.3969 Y10.4635 
G01 X-8.5956 Y10.3488 
G01 X-8.7775 Y10.2092 
G01 X-9.2987 Y9.6881 
G01 X-11.6607 Y9.6881 
G01 X-11.6965 Y9.7141 
G01 X-11.8805 Y9.8078 
G01 X-12.0768 Y9.8716 
G01 X-12.2807 Y9.9039 
G01 X-12.4871 Y9.9039 
G01 X-12.6910 Y9.8716 
G01 X-12.8873 Y9.8078 
G01 X-13.0045 Y9.7481 
G01 X-15.3987 Y9.7481 
G01 X-15.5905 Y9.8275 
G01 X-15.8346 Y9.8929 
G01 X-16.0851 Y9.9259 
G01 X-16.3377 Y9.9259 
G01 X-16.5882 Y9.8929 
G01 X-16.8323 Y9.8275 
G01 X-17.0657 Y9.7308 
G01 X-17.2846 Y9.6045 
G01 X-17.4850 Y9.4507 
G01 X-17.6637 Y9.2720 
G01 X-17.8175 Y9.0716 
G01 X-17.9438 Y8.8527 
G01 X-18.0405 Y8.6193 
G01 X-18.1059 Y8.3752 
G01 X-18.1389 Y8.1247 
G01 X-18.1389 Y7.8721 
G01 X-18.1059 Y7.6216 
G01 X-18.0405 Y7.3775 
G01 X-17.9438 Y7.1441 
G01 X-17.8175 Y6.9252 
G01 X-17.6637 Y6.7248 
G01 X-17.4850 Y6.5461 
G01 X-17.2846 Y6.3923 
G01 X-17.0657 Y6.2660 
G01 X-16.8323 Y6.1693 
G01 X-16.5882 Y6.1039 
G01 X-16.3377 Y6.0709 
G01 X-16.0851 Y6.0709 
G01 X-15.8346 Y6.1039 
G01 X-15.5905 Y6.1693 
G01 X-15.3987 Y6.2487 
G01 X-13.1896 Y6.2487 
G01 X-13.0713 Y6.1627 
G01 X-12.8873 Y6.0690 
G01 X-12.6910 Y6.0052 
G01 X-12.4871 Y5.9729 
G01 X-12.2807 Y5.9729 
G01 X-12.0768 Y6.0052 
G01 X-11.8805 Y6.0690 
G01 X-11.6965 Y6.1627 
G01 X-11.6607 Y6.1887 
G01 X-8.4592 Y6.1887 
G01 X-8.2318 Y6.2186 
G01 X-8.0103 Y6.2780 
G01 X-7.7984 Y6.3658 
G01 X-7.5997 Y6.4805 
G01 X-7.4178 Y6.6201 
G01 X-6.3031 Y7.7348 
G01 X-6.2309 Y7.8289 
G01 X-4.8427 Y7.8289 
G01 X-4.6220 Y7.8639 
G01 X-4.4095 Y7.9329 
G01 X-4.2104 Y8.0343 
G01 X-4.0297 Y8.1657 
G01 X-3.8717 Y8.3237 
G00 Z1.5000 
G00 X-3.8717 Y13.3237 
G01 Z-0.1050 F211.00 
G01 X-3.7403 Y13.5044 F650.00 
G01 X-3.6389 Y13.7035 
G01 X-3.5699 Y13.9160 
G01 X-3.5349 Y14.1367 
G01 X-3.5349 Y14.3601 
G01 X-3.5699 Y14.5808 
G01 X-3.6389 Y14.7933 
G01 X-3.7403 Y14.9924 
G01 X-3.8717 Y15.1731 
G01 X-4.0297 Y15.3311 
G01 X-4.2104 Y15.4625 
G01 X-4.4095 Y15.5639 
G01 X-4.6220 Y15.6329 
G01 X-4.8427 Y15.6679 
G01 X-5.9134 Y15.6679 
G01 X-5.9856 Y15.7620 
G01 X-7.1003 Y16.8767 
G01 X-7.2822 Y17.0163 
G01 X-7.4809 Y17.1310 
G01 X-7.6928 Y17.2188 
G01 X-7.9143 Y17.2782 
G01 X-8.1417 Y17.3081 
G01 X-11.6607 Y17.3081 
G01 X-11.6965 Y17.3341 
G01 X-11.8805 Y17.4278 
G01 X-12.0768 Y17.4916 
G01 X-12.2807 Y17.5239 
G01 X-12.4871 Y17.5239 
G01 X-12.6910 Y17.4916 
G01 X-12.8873 Y17.4278 
G01 X-13.0713 Y17.3341 
G01 X-13.1071 Y17.3081 
G01 X-15.5436 Y17.3081 
G01 X-15.5905 Y17.3275 
G01 X-15.8346 Y17.3929 
G01 X-16.0851 Y17.4259 
G01 X-16.3377 Y17.4259 
G01 X-16.5882 Y17.3929 
G01 X-16.8323 Y17.3275 
G01 X-17.0657 Y17.2308 
G01 X-17.2846 Y17.1045 
G01 X-17.4850 Y16.9507 
G01 X-17.6637 Y16.7720 
G01 X-17.8175 Y16.5716 
G01 X-17.9438 Y16.3527 
G01 X-18.0405 Y16.1193 
G01 X-18.1059 Y15.8752 
G01 X-18.1389 Y15.6247 
G01 X-18.1389 Y15.3721 
G01 X-18.1059 Y15.1216 
G01 X-18.0405 Y14.8775 
G01 X-17.9438 Y14.6441 
G01 X-17.8175 Y14.4252 
G01 X-17.6637 Y14.2248 
G01 X-17.4850 Y14.0461 
G01 X-17.2846 Y13.8923 
G01 X-17.0657 Y13.7660 
G01 X-16.8323 Y13.6693 
G01 X-16.5882 Y13.6039 
G01 X-16.3377 Y13.5709 
G01 X-16.0851 Y13.5709 
G01 X-15.8346 Y13.6039 
G01 X-15.5905 Y13.6693 
G01 X-15.3571 Y13.7660 
G01 X-15.2830 Y13.8087 
G01 X-13.1071 Y13.8087 
G01 X-13.0713 Y13.7827 
G01 X-12.8873 Y13.6890 
G01 X-12.6910 Y13.6252 
G01 X-12.4871 Y13.5929 
G01 X-12.2807 Y13.5929 
G01 X-12.0768 Y13.6252 
G01 X-11.8805 Y13.6890 
G01 X-11.6965 Y13.7827 
G01 X-11.6607 Y13.8087 
G01 X-8.9811 Y13.8087 
G01 X-8.4600 Y13.2876 
G01 X-8.2781 Y13.1480 
G01 X-8.0794 Y13.0333 
G01 X-7.8675 Y12.9455 
G01 X-7.6460 Y12.8861 
G01 X-7.4186 Y12.8562 
G01 X-7.1892 Y12.8562 
G01 X-6.9618 Y12.8861 
G01 X-6.9166 Y12.8982 
G01 X-6.8108 Y12.8639 
G01 X-6.5901 Y12.8289 
G01 X-4.8427 Y12.8289 
G01 X-4.6220 Y12.8639 
G01 X-4.4095 Y12.9329 
G01 X-4.2104 Y13.0343 
G01 X-4.0297 Y13.1657 
G01 X-3.8717 Y13.3237 
G00 Z1.5000 
G00 X-19.2214 Y22.6205 
G01 Z-0.1050 F211.00 
G01 X-19.2515 Y22.7716 F650.00 
G01 X-19.3105 Y22.9140 
G01 X-19.3961 Y23.0422 
G01 X-19.5051 Y23.1512 
G01 X-19.6332 Y23.2368 
G01 X-19.7756 Y23.2958 
G01 X-19.9268 Y23.3259 
G01 X-20.0810 Y23.3259 
G01 X-20.2321 Y23.2958 
G01 X-20.3745 Y23.2368 
G01 X-20.5027 Y23.1512 
G01 X-20.6117 Y23.0422 
G01 X-20.6973 Y22.9140 
G01 X-20.7563 Y22.7716 
G01 X-20.7864 Y22.6205 
G01 X-20.7864 Y0.8763 
G01 X-20.7563 Y0.7251 
G01 X-20.6973 Y0.5827 
G01 X-20.6117 Y0.4546 
G01 X-20.5027 Y0.3456 
G01 X-20.3745 Y0.2600 
G01 X-20.2321 Y0.2010 
G01 X-20.0810 Y0.1709 
G01 X-19.9268 Y0.1709 
G01 X-19.7756 Y0.2010 
G01 X-19.6332 Y0.2600 
G01 X-19.5051 Y0.3456 
G01 X-19.3961 Y0.4546 
G01 X-19.3105 Y0.5827 
G01 X-19.2515 Y0.7251 
G01 X-19.2214 Y0.8763 
G01 X-19.2214 Y22.6205 
G00 Z1.5000 
G00 X-40.5012 Y13.6621 
G01 Z-0.1050 F211.00 
G01 X-40.7262 Y13.8416 F650.00 
G01 X-40.9699 Y13.9947 
G01 X-41.2292 Y14.1196 
G01 X-41.5009 Y14.2146 
G01 X-41.7815 Y14.2787 
G01 X-42.0675 Y14.3109 
G01 X-42.3553 Y14.3109 
G01 X-42.6413 Y14.2787 
G01 X-42.9219 Y14.2146 
G01 X-43.1936 Y14.1196 
G01 X-43.4529 Y13.9947 
G01 X-43.6966 Y13.8416 
G01 X-43.9216 Y13.6621 
G01 X-44.1251 Y13.4586 
G01 X-44.3046 Y13.2336 
G01 X-44.4577 Y12.9899 
G01 X-44.5826 Y12.7306 
G01 X-44.6776 Y12.4589 
G01 X-44.7417 Y12.1783 
G01 X-44.7739 Y11.8923 
G01 X-44.7739 Y11.6045 
G01 X-44.7417 Y11.3185 
G01 X-44.6776 Y11.0379 
G01 X-44.5826 Y10.7662 
G01 X-44.4577 Y10.5069 
G01 X-44.3046 Y10.2632 
G01 X-44.1251 Y10.0382 
G01 X-43.9216 Y9.8347 
G01 X-43.6966 Y9.6552 
G01 X-43.4529 Y9.5021 
G01 X-43.1936 Y9.3772 
G01 X-42.9219 Y9.2822 
G01 X-42.6413 Y9.2181 
G01 X-42.3553 Y9.1859 
G01 X-42.0675 Y9.1859 
G01 X-41.7815 Y9.2181 
G01 X-41.5009 Y9.2822 
G01 X-41.2292 Y9.3772 
G01 X-40.9699 Y9.5021 
G01 X-40.7262 Y9.6552 
G01 X-40.5012 Y9.8347 
G01 X-40.2977 Y10.0382 
G01 X-40.1182 Y10.2632 
G01 X-39.9651 Y10.5069 
G01 X-39.8402 Y10.7662 
G01 X-39.7452 Y11.0379 
G01 X-39.6811 Y11.3185 
G01 X-39.6489 Y11.6045 
G01 X-39.6489 Y11.8923 
G01 X-39.6811 Y12.1783 
G01 X-39.7452 Y12.4589 
G01 X-39.8402 Y12.7306 
G01 X-39.9651 Y12.9899 
G01 X-40.1182 Y13.2336 
G01 X-40.2977 Y13.4586 
G01 X-40.5012 Y13.6621 
G00 Z1.5000 
G00 X-2.5000 Y21.0000 
G00 Z1.0000 
G01 Z0.3501 F201.00 
G01 Z-0.1220 F100.00 
G04 P0.350000
G00 Z1.5000 
G00 X-2.5000 Y2.5000 
G00 Z1.0000 
G01 Z0.3501 F201.00 
G01 Z-0.1220 F100.00 
G04 P0.350000
G00 Z1.5000 
G00 X-42.0000 Y21.0000 
G00 Z1.0000 
G01 Z0.3501 F201.00 
G01 Z-0.1220 F100.00 
G04 P0.350000
G00 Z1.5000 
G00 X-42.0000 Y2.5000 
G00 Z1.0000 
G01 Z0.3501 F201.00 
G01 Z-0.1220 F100.00 
G04 P0.350000
G00 Z1.5000 
G00 X-26.5000 Y12.0000 
G00 Z1.0000 
G01 Z0.3501 F201.00 
G01 Z-0.1220 F100.00 
G04 P0.350000
G00 Z1.5000 
G00 X-12.3839 Y15.5584 
G00 Z1.0000 
G01 Z0.3501 F201.00 
G01 Z-0.1220 F100.00 
G04 P0.350000
G00 Z1.5000 
G00 X-12.3839 Y7.9384 
G00 Z1.0000 
G01 Z0.3501 F201.00 
G01 Z-0.1220 F100.00 
G04 P0.350000
G00 Z1.5000 
G00 X-42.2114 Y11.7484 
G00 Z1.0000 
G01 Z0.3501 F201.00 
G01 Z-0.1220 F100.00 
G04 P0.350000
G00 Z1.5000 
G00 X-16.2114 Y7.9984 
G00 Z1.0000 
G01 Z0.3501 F201.00 
G01 Z-0.1220 F100.00 
G04 P0.350000
G00 Z1.5000 
G00 X-16.2114 Y15.4984 
G00 Z1.0000 
G01 Z0.3501 F201.00 
G01 Z-0.1220 F100.00 
G04 P0.350000
G00 Z1.5000 
G00 X-5.7164 Y9.2484 
G00 Z1.0000 
G01 Z0.3501 F201.00 
G01 Z-0.1220 F100.00 
G04 P0.350000
G00 Z1.5000 
G00 X-5.7164 Y14.2484 
G00 Z1.0000 
G01 Z0.3501 F201.00 
G01 Z-0.1220 F100.00 
G04 P0.350000
G00 Z1.5000 
G00 Z10.0000 
M05
M02
